;FLAVOR:Marlin
;TIME:6774
;Filament used: 3.81717m
;Layer height: 0.2
;MINX:43.333
;MINY:44.344
;MINZ:0.2
;MAXX:106.682
;MAXY:192.656
;MAXZ:11
;Generated with Cura_SteamEngine 4.13.1
M140 S50
M105
M190 S50
M104 S200
M105
M109 S200
M82 ;absolute extrusion mode
; Ender 3 Custom Start G-code
G92 E0 ; Reset Extruder
G28 ; Home all axes
G1 Z2.0 F3000 ; Move Z Axis up little to prevent scratching of Heat Bed
G1 X0.1 Y20 Z0.3 F5000.0 ; Move to start position
G1 X0.1 Y200.0 Z0.3 F1500.0 E15 ; Draw the first line
G1 X0.4 Y200.0 Z0.3 F5000.0 ; Move to side a little
G1 X0.4 Y20 Z0.3 F1500.0 E30 ; Draw the second line
G92 E0 ; Reset Extruder
G1 Z2.0 F3000 ; Move Z Axis up little to prevent scratching of Heat Bed
G1 X5 Y20 Z0.3 F5000.0 ; Move over to prevent blob squish
G92 E0
G92 E0
G1 F2700 E-5
;LAYER_COUNT:55
;LAYER:0
M107
G0 F6000 X47.141 Y50.774 Z0.2
;TYPE:SKIRT
G1 F2700 E0
G1 F1200 X47.845 Y50.155 E0.03118
G1 X48.6 Y49.599 E0.06236
G1 X49.084 Y49.292 E0.08143
G1 X49.269 Y49.181 E0.0886
G1 X50.093 Y48.733 E0.1198
G1 X50.952 Y48.357 E0.15099
G1 X51.788 Y48.071 E0.18037
G1 X52.023 Y48.001 E0.18853
G1 X52.932 Y47.772 E0.21971
G1 X54.319 Y47.575 E0.2663
G1 X57.075 Y47.363 E0.35824
G1 X59.611 Y47.096 E0.44305
G1 X62.059 Y46.768 E0.5252
G1 X64.567 Y46.358 E0.60972
G1 X67.045 Y45.882 E0.69365
G1 X68.999 Y45.455 E0.76017
G1 X70.554 Y45.096 E0.81325
G1 X71.08 Y44.988 E0.83111
G1 X71.631 Y44.889 E0.84973
G1 X72.521 Y44.767 E0.87961
G1 X72.739 Y44.746 E0.8869
G1 X73.216 Y44.71 E0.90281
G1 X73.501 Y44.695 E0.9123
G1 X73.856 Y44.682 E0.92411
G1 X74.793 Y44.663 E0.95528
G1 X75.528 Y44.673 E0.97973
G1 X77.873 Y44.782 E1.05781
G1 X79.076 Y44.846 E1.09788
G1 X81.61 Y44.909 E1.18219
G1 X84.126 Y44.901 E1.26587
G1 X86.623 Y44.822 E1.34896
G1 X89.102 Y44.674 E1.43156
G1 X90.855 Y44.51 E1.49012
G1 X92.245 Y44.393 E1.53652
G1 X92.838 Y44.359 E1.55627
G1 X93.171 Y44.349 E1.56735
G1 X93.501 Y44.344 E1.57833
G1 X94.975 Y44.344 E1.62736
G1 X95.831 Y44.355 E1.65583
G1 X96.767 Y44.409 E1.68701
G1 X97.695 Y44.541 E1.71819
G1 X98.609 Y44.753 E1.74939
G1 X99.501 Y45.042 E1.78058
G1 X100.366 Y45.405 E1.81178
G1 X101.196 Y45.841 E1.84296
G1 X101.987 Y46.346 E1.87418
G1 X102.731 Y46.917 E1.90537
G1 X103.424 Y47.549 E1.93657
G1 X104.061 Y48.237 E1.96775
G1 X104.636 Y48.978 E1.99895
G1 X105.147 Y49.764 E2.03013
G1 X105.589 Y50.592 E2.06135
G1 X105.958 Y51.454 E2.09253
G1 X106.253 Y52.344 E2.12372
G1 X106.471 Y53.256 E2.15491
G1 X106.611 Y54.184 E2.18612
G1 X106.67 Y55.083 E2.21609
G1 X106.678 Y55.408 E2.2269
G1 X106.681 Y55.716 E2.23714
G1 X106.677 Y56.953 E2.27829
G1 X106.663 Y58.65 E2.33473
G1 X106.663 Y91.648 E3.43225
G1 X106.676 Y93.168 E3.48281
G1 X106.676 Y100.231 E3.71772
G1 X106.663 Y101.857 E3.7718
G1 X106.663 Y134.804 E4.86763
G1 X106.671 Y136.019 E4.90804
G1 X106.676 Y136.477 E4.92327
G1 X106.676 Y143.565 E5.15902
G1 X106.663 Y145.191 E5.2131
G1 X106.663 Y178.072 E6.30673
G1 X106.682 Y180.006 E6.37106
G1 X106.681 Y181.056 E6.40598
G1 X106.672 Y181.783 E6.43016
G1 X106.621 Y182.72 E6.46137
G1 X106.489 Y183.648 E6.49255
G1 X106.28 Y184.562 E6.52373
G1 X105.993 Y185.455 E6.55493
G1 X105.631 Y186.321 E6.58615
G1 X105.197 Y187.152 E6.61733
G1 X104.693 Y187.943 E6.64853
G1 X104.124 Y188.688 E6.67971
G1 X103.493 Y189.383 E6.71093
G1 X102.806 Y190.021 E6.74211
G1 X102.067 Y190.598 E6.7733
G1 X101.281 Y191.11 E6.80449
G1 X100.455 Y191.553 E6.83567
G1 X99.593 Y191.925 E6.8669
G1 X98.704 Y192.221 E6.89806
G1 X97.792 Y192.441 E6.92926
G1 X96.865 Y192.582 E6.96045
G1 X95.981 Y192.643 E6.98992
G1 X95.66 Y192.652 E7.0006
G1 X95.352 Y192.656 E7.01085
G1 X93.721 Y192.655 E7.06509
G1 X93.022 Y192.645 E7.08835
G1 X92.096 Y192.593 E7.11919
G1 X91.421 Y192.526 E7.14175
G1 X88.839 Y192.307 E7.22794
G1 X86.324 Y192.166 E7.31172
G1 X83.792 Y192.094 E7.39597
G1 X81.304 Y192.094 E7.47872
G1 X78.731 Y192.167 E7.56433
G1 X76.186 Y192.305 E7.6491
G1 X75.799 Y192.318 E7.66198
G1 X74.776 Y192.336 E7.69601
G1 X74.048 Y192.325 E7.72023
G1 X73.205 Y192.284 E7.7483
G1 X72.717 Y192.249 E7.76457
G1 X72.492 Y192.228 E7.77209
G1 X71.722 Y192.129 E7.79791
G1 X71.504 Y192.093 E7.80526
G1 X70.988 Y191.995 E7.82273
G1 X70.452 Y191.88 E7.84096
G1 X70.146 Y191.81 E7.8514
G1 X69.009 Y191.532 E7.89033
G1 X66.488 Y190.953 E7.97637
G1 X64.019 Y190.46 E8.06011
G1 X61.527 Y190.035 E8.14419
G1 X59.05 Y189.684 E8.2274
G1 X56.423 Y189.388 E8.31532
G1 X55.3 Y189.278 E8.35285
G1 X54.863 Y189.227 E8.36749
G1 X54.582 Y189.188 E8.37692
G1 X54.166 Y189.122 E8.39093
G1 X53.183 Y188.947 E8.42414
G1 X52.268 Y188.743 E8.45532
G1 X51.115 Y188.365 E8.49568
G1 X50.856 Y188.264 E8.50492
G1 X49.997 Y187.887 E8.53612
G1 X49.174 Y187.437 E8.56732
G1 X48.246 Y186.811 E8.60455
G1 X48.025 Y186.645 E8.61375
G1 X47.299 Y186.051 E8.64495
G1 X46.628 Y185.396 E8.67613
G1 X45.941 Y184.594 E8.71126
G1 X45.792 Y184.402 E8.71934
G1 X45.249 Y183.637 E8.75054
G1 X44.773 Y182.829 E8.78173
G1 X44.371 Y181.991 E8.81265
G1 X44.275 Y181.767 E8.82075
G1 X43.943 Y180.89 E8.85194
G1 X43.687 Y179.988 E8.88313
G1 X43.51 Y179.082 E8.91383
G1 X43.465 Y178.785 E8.92382
G1 X43.347 Y177.489 E8.9671
G1 X43.339 Y177.239 E8.97542
G1 X43.333 Y176.887 E8.98713
G1 X43.333 Y60.069 E12.87252
G1 X43.341 Y59.483 E12.89201
G1 X43.399 Y58.495 E12.92493
G1 X43.438 Y58.12 E12.93746
G1 X43.575 Y57.192 E12.96866
G1 X43.79 Y56.279 E12.99986
G1 X44.057 Y55.455 E13.02867
G1 X44.127 Y55.265 E13.03541
G1 X44.489 Y54.4 E13.06659
G1 X44.923 Y53.568 E13.0978
G1 X45.255 Y53.029 E13.11886
G1 X45.366 Y52.86 E13.12558
G1 X45.914 Y52.099 E13.15678
G1 X46.524 Y51.387 E13.18796
G1 X46.958 Y50.949 E13.20847
G1 X47.141 Y50.774 E13.21689
G0 F6000 X47.417 Y51.063
G1 F1200 X48.109 Y50.456 E13.24751
G1 X48.852 Y49.912 E13.27813
G1 X49.289 Y49.635 E13.29534
G1 X49.474 Y49.524 E13.30252
G1 X50.284 Y49.085 E13.33316
G1 X51.128 Y48.718 E13.36377
G1 X51.902 Y48.454 E13.39097
G1 X52.137 Y48.384 E13.39913
G1 X53.03 Y48.16 E13.42975
G1 X54.35 Y47.974 E13.47408
G1 X57.112 Y47.762 E13.56622
G1 X59.635 Y47.496 E13.6506
G1 X62.139 Y47.16 E13.73463
G1 X64.606 Y46.757 E13.81777
G1 X67.157 Y46.267 E13.90417
G1 X69.077 Y45.847 E13.96954
G1 X70.643 Y45.486 E14.02299
G1 X71.15 Y45.382 E14.0402
G1 X71.701 Y45.283 E14.05882
G1 X72.56 Y45.165 E14.08766
G1 X72.778 Y45.144 E14.09495
G1 X73.237 Y45.11 E14.11025
G1 X73.522 Y45.095 E14.11975
G1 X73.864 Y45.082 E14.13113
G1 X74.801 Y45.063 E14.1623
G1 X75.51 Y45.072 E14.18588
G1 X77.852 Y45.182 E14.26386
G1 X79.046 Y45.245 E14.30363
G1 X81.601 Y45.309 E14.38864
G1 X84.106 Y45.302 E14.47196
G1 X86.659 Y45.22 E14.55691
G1 X89.132 Y45.072 E14.63931
G1 X90.889 Y44.908 E14.698
G1 X92.279 Y44.791 E14.7444
G1 X92.85 Y44.759 E14.76342
G1 X93.183 Y44.749 E14.7745
G1 X93.501 Y44.744 E14.78508
G1 X94.975 Y44.744 E14.8341
G1 X95.825 Y44.755 E14.86238
G1 X96.744 Y44.808 E14.893
G1 X97.655 Y44.941 E14.92362
G1 X98.551 Y45.152 E14.95423
G1 X99.425 Y45.44 E14.98484
G1 X100.272 Y45.803 E15.01549
G1 X101.083 Y46.238 E15.0461
G1 X101.853 Y46.742 E15.07671
G1 X102.577 Y47.311 E15.10733
G1 X103.249 Y47.941 E15.13797
G1 X103.864 Y48.626 E15.16859
G1 X104.417 Y49.362 E15.19921
G1 X104.904 Y50.143 E15.22982
G1 X105.321 Y50.964 E15.26045
G1 X105.666 Y51.818 E15.29108
G1 X105.935 Y52.698 E15.32169
G1 X106.127 Y53.599 E15.35233
G1 X106.24 Y54.512 E15.38293
G1 X106.27 Y55.093 E15.40228
G1 X106.278 Y55.418 E15.41309
G1 X106.281 Y55.715 E15.42297
G1 X106.277 Y56.949 E15.46401
G1 X106.263 Y58.646 E15.52046
G1 X106.263 Y91.651 E16.61821
G1 X106.276 Y93.171 E16.66876
G1 X106.276 Y100.228 E16.90348
G1 X106.263 Y101.854 E16.95756
G1 X106.263 Y134.804 E18.05348
G1 X106.271 Y136.022 E18.094
G1 X106.276 Y136.477 E18.10913
G1 X106.276 Y143.562 E18.34478
G1 X106.263 Y145.188 E18.39886
G1 X106.263 Y178.072 E19.49259
G1 X106.282 Y180.006 E19.55692
G1 X106.281 Y181.051 E19.59167
G1 X106.272 Y181.778 E19.61585
G1 X106.221 Y182.697 E19.64647
G1 X106.09 Y183.609 E19.67711
G1 X105.88 Y184.505 E19.70772
G1 X105.594 Y185.38 E19.73834
G1 X105.233 Y186.227 E19.76896
G1 X104.799 Y187.039 E19.79959
G1 X104.297 Y187.811 E19.83021
G1 X103.729 Y188.536 E19.86085
G1 X103.101 Y189.209 E19.89146
G1 X102.417 Y189.825 E19.92208
G1 X101.682 Y190.379 E19.95269
G1 X100.902 Y190.868 E19.98331
G1 X100.082 Y191.287 E20.01394
G1 X99.229 Y191.633 E20.04455
G1 X98.349 Y191.904 E20.07518
G1 X97.449 Y192.097 E20.10579
G1 X96.535 Y192.212 E20.13643
G1 X95.97 Y192.243 E20.15525
G1 X95.649 Y192.252 E20.16593
G1 X95.352 Y192.256 E20.17581
G1 X93.726 Y192.255 E20.22989
G1 X93.027 Y192.245 E20.25315
G1 X92.135 Y192.195 E20.28286
G1 X91.419 Y192.124 E20.30679
G1 X88.861 Y191.907 E20.39218
G1 X86.357 Y191.766 E20.47559
G1 X83.803 Y191.694 E20.56057
G1 X81.293 Y191.694 E20.64405
G1 X78.735 Y191.766 E20.72917
G1 X77.3 Y191.845 E20.77697
G1 X76.165 Y191.905 E20.81477
G1 X75.791 Y191.918 E20.82722
G1 X74.768 Y191.936 E20.86125
G1 X74.067 Y191.925 E20.88457
G1 X73.224 Y191.884 E20.91264
G1 X72.754 Y191.851 E20.92831
G1 X72.529 Y191.83 E20.93582
G1 X71.787 Y191.734 E20.96071
G1 X71.569 Y191.698 E20.96806
G1 X71.072 Y191.604 E20.98488
G1 X70.536 Y191.489 E21.00311
G1 X70.241 Y191.421 E21.01318
G1 X69.114 Y191.145 E21.05178
G1 X66.591 Y190.566 E21.13787
G1 X64.059 Y190.06 E21.22375
G1 X61.613 Y189.643 E21.30628
G1 X59.08 Y189.284 E21.39137
G1 X56.509 Y188.995 E21.47742
G1 X55.339 Y188.88 E21.51652
G1 X54.918 Y188.83 E21.53062
G1 X54.637 Y188.791 E21.54006
G1 X54.236 Y188.728 E21.55356
G1 X53.253 Y188.553 E21.58677
G1 X52.355 Y188.352 E21.61738
G1 X51.26 Y187.993 E21.6557
G1 X51.001 Y187.892 E21.66495
G1 X50.158 Y187.52 E21.6956
G1 X49.351 Y187.077 E21.72621
G1 X48.486 Y186.491 E21.76096
G1 X48.265 Y186.325 E21.77016
G1 X47.553 Y185.741 E21.80079
G1 X46.895 Y185.097 E21.83141
G1 X46.257 Y184.349 E21.86411
G1 X46.108 Y184.157 E21.87219
G1 X45.576 Y183.406 E21.9028
G1 X45.11 Y182.611 E21.93345
G1 X44.739 Y181.834 E21.96209
G1 X44.643 Y181.61 E21.9702
G1 X44.317 Y180.748 E22.00085
G1 X44.068 Y179.862 E22.03146
G1 X43.906 Y179.022 E22.05991
G1 X43.861 Y178.725 E22.0699
G1 X43.746 Y177.476 E22.11162
G1 X43.738 Y177.226 E22.11994
G1 X43.733 Y176.887 E22.13122
G1 X43.733 Y60.074 E26.01643
G1 X43.741 Y59.488 E26.03592
G1 X43.797 Y58.537 E26.06761
G1 X43.836 Y58.162 E26.08015
G1 X43.971 Y57.251 E26.11078
G1 X44.184 Y56.355 E26.14141
G1 X44.433 Y55.594 E26.16804
G1 X44.503 Y55.404 E26.17478
G1 X44.858 Y54.554 E26.20541
G1 X45.286 Y53.739 E26.23603
G1 X45.589 Y53.249 E26.25519
G1 X45.7 Y53.08 E26.26192
G1 X46.239 Y52.333 E26.29256
G1 X46.84 Y51.636 E26.32317
G1 X47.234 Y51.238 E26.34179
G1 X47.417 Y51.063 E26.35022
G0 F6000 X47.693 Y51.352
G1 F1200 X48.373 Y50.758 E26.38025
G1 X49.103 Y50.225 E26.41031
G1 X49.495 Y49.978 E26.42572
G1 X49.68 Y49.867 E26.4329
G1 X50.474 Y49.437 E26.46293
G1 X51.303 Y49.079 E26.49296
G1 X52.016 Y48.837 E26.51801
G1 X52.251 Y48.767 E26.52616
G1 X53.127 Y48.548 E26.55619
G1 X54.381 Y48.373 E26.59831
G1 X57.148 Y48.16 E26.69061
G1 X59.659 Y47.896 E26.77459
G1 X62.225 Y47.552 E26.86069
G1 X64.669 Y47.152 E26.94306
G1 X67.21 Y46.664 E27.02912
G1 X69.24 Y46.22 E27.09824
G1 X70.733 Y45.876 E27.14919
G1 X71.221 Y45.776 E27.16576
G1 X71.772 Y45.677 E27.18438
G1 X72.598 Y45.563 E27.21212
G1 X72.816 Y45.542 E27.2194
G1 X73.258 Y45.509 E27.23414
G1 X73.543 Y45.494 E27.24363
G1 X73.872 Y45.482 E27.25458
G1 X74.809 Y45.463 E27.28576
G1 X75.491 Y45.472 E27.30844
G1 X77.83 Y45.581 E27.38632
G1 X79.049 Y45.646 E27.42692
G1 X81.593 Y45.71 E27.51156
G1 X84.119 Y45.701 E27.59558
G1 X86.661 Y45.621 E27.68017
G1 X89.163 Y45.471 E27.76353
G1 X90.922 Y45.307 E27.82229
G1 X92.312 Y45.19 E27.86869
G1 X92.862 Y45.159 E27.88701
G1 X93.195 Y45.149 E27.89809
G1 X93.501 Y45.144 E27.90827
G1 X94.975 Y45.144 E27.95729
G1 X95.819 Y45.155 E27.98537
G1 X96.721 Y45.208 E28.01542
G1 X97.614 Y45.34 E28.04544
G1 X98.492 Y45.551 E28.07548
G1 X99.348 Y45.839 E28.10552
G1 X100.175 Y46.201 E28.13554
G1 X100.967 Y46.636 E28.1656
G1 X101.718 Y47.138 E28.19564
G1 X102.421 Y47.705 E28.22568
G1 X103.071 Y48.332 E28.25572
G1 X103.663 Y49.014 E28.28576
G1 X104.193 Y49.745 E28.31579
G1 X104.655 Y50.521 E28.34583
G1 X105.048 Y51.334 E28.37586
G1 X105.366 Y52.179 E28.40589
G1 X105.609 Y53.049 E28.43593
G1 X105.774 Y53.937 E28.46597
G1 X105.87 Y55.103 E28.50489
G1 X105.878 Y55.428 E28.5157
G1 X105.881 Y55.713 E28.52518
G1 X105.877 Y56.946 E28.56619
G1 X105.863 Y58.643 E28.62263
G1 X105.863 Y91.655 E29.72062
G1 X105.876 Y93.175 E29.77117
G1 X105.876 Y100.225 E30.00566
G1 X105.863 Y101.851 E30.05974
G1 X105.863 Y134.804 E31.15576
G1 X105.871 Y136.024 E31.19634
G1 X105.876 Y136.477 E31.21141
G1 X105.876 Y143.559 E31.44696
G1 X105.863 Y145.185 E31.50104
G1 X105.863 Y177.972 E32.59154
G1 X105.882 Y179.906 E32.65587
G1 X105.881 Y181.046 E32.69378
G1 X105.872 Y181.773 E32.71796
G1 X105.821 Y182.675 E32.74801
G1 X105.69 Y183.569 E32.77807
G1 X105.481 Y184.447 E32.80808
G1 X105.195 Y185.304 E32.83813
G1 X104.834 Y186.132 E32.86818
G1 X104.402 Y186.924 E32.89818
G1 X103.901 Y187.676 E32.92824
G1 X103.335 Y188.38 E32.95828
G1 X102.71 Y189.031 E32.9883
G1 X102.029 Y189.625 E33.01835
G1 X101.298 Y190.156 E33.0484
G1 X100.524 Y190.62 E33.07842
G1 X99.711 Y191.014 E33.10847
G1 X98.867 Y191.334 E33.13849
G1 X97.997 Y191.579 E33.16855
G1 X97.11 Y191.745 E33.19856
G1 X95.959 Y191.843 E33.23698
G1 X95.638 Y191.852 E33.24766
G1 X95.352 Y191.856 E33.25718
G1 X93.732 Y191.855 E33.31106
G1 X93.033 Y191.845 E33.33431
G1 X92.175 Y191.796 E33.36289
G1 X91.569 Y191.736 E33.38315
G1 X88.882 Y191.508 E33.47284
G1 X86.357 Y191.366 E33.55695
G1 X83.814 Y191.294 E33.64157
G1 X81.281 Y191.294 E33.72582
G1 X78.74 Y191.366 E33.81036
G1 X76.143 Y191.506 E33.89687
G1 X75.784 Y191.518 E33.90881
G1 X74.761 Y191.536 E33.94284
G1 X74.087 Y191.526 E33.96526
G1 X73.244 Y191.485 E33.99334
G1 X72.791 Y191.453 E34.00844
G1 X72.566 Y191.432 E34.01596
G1 X71.852 Y191.34 E34.0399
G1 X71.634 Y191.304 E34.04725
G1 X71.156 Y191.213 E34.06343
G1 X70.62 Y191.098 E34.08167
G1 X70.336 Y191.033 E34.09136
G1 X69.168 Y190.747 E34.13135
G1 X66.646 Y190.168 E34.21742
G1 X64.173 Y189.674 E34.30129
G1 X61.66 Y189.246 E34.38608
G1 X59.149 Y188.89 E34.47043
G1 X56.526 Y188.595 E34.55822
G1 X55.378 Y188.482 E34.59659
G1 X54.973 Y188.434 E34.61015
G1 X54.692 Y188.395 E34.61959
G1 X54.306 Y188.334 E34.63259
G1 X53.323 Y188.159 E34.6658
G1 X52.442 Y187.962 E34.69582
G1 X51.405 Y187.62 E34.73214
G1 X51.146 Y187.519 E34.74139
G1 X50.32 Y187.154 E34.77142
G1 X49.53 Y186.717 E34.80145
G1 X48.726 Y186.172 E34.83376
G1 X48.505 Y186.006 E34.84295
G1 X47.808 Y185.432 E34.87298
G1 X47.164 Y184.798 E34.90304
G1 X46.573 Y184.103 E34.93338
G1 X46.424 Y183.911 E34.94146
G1 X45.902 Y183.174 E34.9715
G1 X45.448 Y182.394 E35.00152
G1 X45.107 Y181.676 E35.02796
G1 X45.011 Y181.452 E35.03606
G1 X44.692 Y180.607 E35.0661
G1 X44.449 Y179.737 E35.09615
G1 X44.301 Y178.962 E35.12239
G1 X44.256 Y178.665 E35.13238
G1 X44.146 Y177.463 E35.17253
G1 X44.138 Y177.213 E35.18085
G1 X44.133 Y176.887 E35.19169
G1 X44.133 Y60.08 E39.07671
G1 X44.141 Y59.494 E39.0962
G1 X44.195 Y58.578 E39.12672
G1 X44.234 Y58.203 E39.13926
G1 X44.367 Y57.31 E39.16929
G1 X44.578 Y56.432 E39.19932
G1 X44.808 Y55.732 E39.22383
G1 X44.878 Y55.542 E39.23056
G1 X45.227 Y54.709 E39.2606
G1 X45.649 Y53.91 E39.29065
G1 X45.923 Y53.468 E39.30795
G1 X46.034 Y53.299 E39.31468
G1 X46.563 Y52.567 E39.34471
G1 X47.155 Y51.885 E39.37475
G1 X47.51 Y51.527 E39.39152
G1 X47.693 Y51.352 E39.39994
G1 F2700 E34.39994
;MESH:PartMidi_Spring_Tin08mm_Holder_Serial_v1_001.stl
G0 F6000 X66.961 Y66.359
G0 X66.961 Y64.924
G0 X71.038 Y65.071
G0 X74.832 Y62.831
G0 X78.627 Y65.071
G0 X90.563 Y65.266
G0 X90.735 Y84.239
;TYPE:WALL-INNER
G1 F2700 E39.39994
G1 F1200 X90.735 Y65.094 E40.03671
G1 X80.248 Y65.094 E40.38551
G1 X79.439 Y65.047 E40.41246
G1 X78.666 Y64.915 E40.43854
G1 X77.897 Y64.689 E40.4652
G1 X77.174 Y64.383 E40.49131
G1 X76.494 Y63.999 E40.51729
G1 X75.838 Y63.522 E40.54426
G1 X74.832 Y62.599 E40.58967
G1 X73.827 Y63.522 E40.63506
G1 X73.171 Y63.999 E40.66203
G1 X72.49 Y64.383 E40.68804
G1 X71.767 Y64.689 E40.71415
G1 X70.999 Y64.915 E40.74078
G1 X70.226 Y65.047 E40.76686
