;FLAVOR:Marlin
;TIME:13211
;Filament used: 6.20472m
;Layer height: 0.2
;MINX:94
;MINY:72.5
;MINZ:0.2
;MAXX:140
;MAXY:164.5
;MAXZ:42
;Generated with Cura_SteamEngine 4.13.1
M140 S50
M105
M190 S50
M104 S200
M105
M109 S200
M82 ;absolute extrusion mode
; Ender 3 Custom Start G-code
G92 E0 ; Reset Extruder
G28 ; Home all axes
G1 Z2.0 F3000 ; Move Z Axis up little to prevent scratching of Heat Bed
G1 X0.1 Y20 Z0.3 F5000.0 ; Move to start position
G1 X0.1 Y200.0 Z0.3 F1500.0 E15 ; Draw the first line
G1 X0.4 Y200.0 Z0.3 F5000.0 ; Move to side a little
G1 X0.4 Y20 Z0.3 F1500.0 E30 ; Draw the second line
G92 E0 ; Reset Extruder
G1 Z2.0 F3000 ; Move Z Axis up little to prevent scratching of Heat Bed
G1 X5 Y20 Z0.3 F5000.0 ; Move over to prevent blob squish
G92 E0
G92 E0
G1 F2700 E-5
;LAYER_COUNT:210
;LAYER:0
M107
G0 F6000 X96.566 Y76.458 Z0.2
;TYPE:SKIRT
G1 F2700 E0
G1 F1200 X97.198 Y75.764 E0.03122
G1 X97.886 Y75.127 E0.0624
G1 X98.626 Y74.551 E0.09359
G1 X99.412 Y74.039 E0.12479
G1 X100.239 Y73.597 E0.15598
G1 X101.101 Y73.227 E0.18718
G1 X101.991 Y72.931 E0.21838
G1 X102.903 Y72.713 E0.24957
G1 X103.83 Y72.572 E0.28075
G1 X104.701 Y72.513 E0.30979
G1 X105.022 Y72.504 E0.32047
G1 X105.33 Y72.5 E0.33071
G1 X128.293 Y72.5 E1.09447
G1 X129.149 Y72.511 E1.12294
G1 X130.085 Y72.565 E1.15412
G1 X131.013 Y72.697 E1.1853
G1 X131.927 Y72.909 E1.21651
G1 X132.819 Y73.198 E1.24769
G1 X133.684 Y73.561 E1.27889
G1 X134.514 Y73.997 E1.31008
G1 X135.305 Y74.502 E1.34129
G1 X136.049 Y75.073 E1.37248
G1 X136.742 Y75.705 E1.40368
G1 X137.379 Y76.393 E1.43486
G1 X137.954 Y77.134 E1.46606
G1 X138.465 Y77.92 E1.49724
G1 X138.907 Y78.748 E1.52846
G1 X139.276 Y79.61 E1.55964
G1 X139.571 Y80.5 E1.59083
G1 X139.789 Y81.412 E1.62202
G1 X139.929 Y82.34 E1.65323
G1 X139.987 Y83.201 E1.68193
G1 X139.996 Y83.521 E1.69258
G1 X140 Y83.83 E1.70286
G1 X139.999 Y152.9 E4.00014
G1 X139.99 Y153.627 E4.02432
G1 X139.939 Y154.564 E4.05553
G1 X139.807 Y155.492 E4.08671
G1 X139.598 Y156.406 E4.11789
G1 X139.311 Y157.299 E4.14909
G1 X138.949 Y158.165 E4.18031
G1 X138.515 Y158.996 E4.21149
G1 X138.011 Y159.787 E4.24268
G1 X137.442 Y160.532 E4.27386
G1 X136.811 Y161.227 E4.30508
G1 X136.124 Y161.865 E4.33627
G1 X135.385 Y162.442 E4.36745
G1 X134.599 Y162.954 E4.39865
G1 X133.773 Y163.397 E4.42983
G1 X132.911 Y163.769 E4.46105
G1 X132.022 Y164.065 E4.49222
G1 X131.11 Y164.285 E4.52342
G1 X130.183 Y164.426 E4.55461
G1 X129.299 Y164.487 E4.58408
G1 X128.978 Y164.496 E4.59476
G1 X128.67 Y164.5 E4.605
G1 X105.565 Y164.499 E5.37348
G1 X104.867 Y164.49 E5.3967
G1 X103.931 Y164.438 E5.42788
G1 X103.002 Y164.306 E5.45908
G1 X102.088 Y164.096 E5.49028
G1 X101.195 Y163.809 E5.52147
G1 X100.33 Y163.446 E5.55267
G1 X99.499 Y163.012 E5.58386
G1 X98.708 Y162.508 E5.61505
G1 X97.963 Y161.938 E5.64625
G1 X97.269 Y161.307 E5.67745
G1 X96.632 Y160.62 E5.70861
G1 X96.055 Y159.88 E5.73982
G1 X95.543 Y159.094 E5.77102
G1 X95.1 Y158.267 E5.80222
G1 X94.729 Y157.406 E5.83341
G1 X94.433 Y156.516 E5.8646
G1 X94.214 Y155.604 E5.8958
G1 X94.073 Y154.677 E5.92698
G1 X94.013 Y153.788 E5.95662
G1 X94.004 Y153.455 E5.9677
G1 X94 Y153.158 E5.97758
G1 X94.001 Y84.025 E8.27695
G1 X94.01 Y83.36 E8.29907
G1 X94.063 Y82.424 E8.33025
G1 X94.195 Y81.495 E8.36146
G1 X94.406 Y80.581 E8.39266
G1 X94.694 Y79.689 E8.42384
G1 X95.057 Y78.824 E8.45504
G1 X95.492 Y77.993 E8.48623
G1 X95.996 Y77.203 E8.5174
G1 X96.566 Y76.458 E8.5486
G0 F6000 X96.961 Y76.611
G1 F1200 X97.589 Y75.939 E8.57919
G1 X98.274 Y75.323 E8.60983
G1 X99.01 Y74.77 E8.64045
G1 X99.791 Y74.282 E8.67108
G1 X100.611 Y73.864 E8.70169
G1 X101.465 Y73.519 E8.73233
G1 X102.345 Y73.249 E8.76294
G1 X103.245 Y73.057 E8.79355
G1 X104.159 Y72.943 E8.82419
G1 X104.712 Y72.913 E8.84261
G1 X105.033 Y72.904 E8.85329
G1 X105.33 Y72.9 E8.86317
G1 X128.293 Y72.9 E9.62692
G1 X129.143 Y72.911 E9.65519
G1 X130.062 Y72.964 E9.68581
G1 X130.973 Y73.097 E9.71643
G1 X131.869 Y73.308 E9.74705
G1 X132.743 Y73.596 E9.77765
G1 X133.59 Y73.959 E9.8083
G1 X134.401 Y74.394 E9.83891
G1 X135.171 Y74.898 E9.86952
G1 X135.895 Y75.467 E9.90015
G1 X136.567 Y76.097 E9.93079
G1 X137.182 Y76.782 E9.9614
G1 X137.735 Y77.518 E9.99202
G1 X138.222 Y78.299 E10.02264
G1 X138.639 Y79.12 E10.05326
G1 X138.984 Y79.974 E10.0839
G1 X139.253 Y80.854 E10.1145
G1 X139.445 Y81.755 E10.14514
G1 X139.558 Y82.668 E10.17574
G1 X139.587 Y83.212 E10.19386
G1 X139.596 Y83.532 E10.20451
G1 X139.6 Y83.83 E10.21442
G1 X139.599 Y152.895 E12.51153
G1 X139.59 Y153.622 E12.53571
G1 X139.539 Y154.541 E12.56633
G1 X139.408 Y155.453 E12.59697
G1 X139.198 Y156.349 E12.62758
G1 X138.912 Y157.224 E12.6582
G1 X138.551 Y158.071 E12.68882
G1 X138.117 Y158.883 E12.71944
G1 X137.615 Y159.655 E12.75007
G1 X137.047 Y160.38 E12.7807
G1 X136.419 Y161.053 E12.81132
G1 X135.735 Y161.669 E12.84194
G1 X135 Y162.223 E12.87255
G1 X134.22 Y162.712 E12.90317
G1 X133.4 Y163.131 E12.9338
G1 X132.547 Y163.477 E12.96441
G1 X131.667 Y163.748 E12.99504
G1 X130.767 Y163.941 E13.02565
G1 X129.853 Y164.056 E13.05629
G1 X129.288 Y164.087 E13.07511
G1 X128.967 Y164.096 E13.08579
G1 X128.67 Y164.1 E13.09567
G1 X105.57 Y164.099 E13.86398
G1 X104.872 Y164.09 E13.8872
G1 X103.953 Y164.038 E13.91781
G1 X103.042 Y163.907 E13.94843
G1 X102.146 Y163.697 E13.97903
G1 X101.271 Y163.41 E14.00966
G1 X100.424 Y163.048 E14.0403
G1 X99.612 Y162.614 E14.07092
G1 X98.841 Y162.112 E14.10152
G1 X98.116 Y161.544 E14.13215
G1 X97.443 Y160.915 E14.16279
G1 X96.828 Y160.231 E14.19339
G1 X96.274 Y159.496 E14.224
G1 X95.786 Y158.715 E14.25463
G1 X95.367 Y157.895 E14.28526
G1 X95.021 Y157.042 E14.31587
G1 X94.751 Y156.162 E14.34649
G1 X94.558 Y155.261 E14.37714
G1 X94.444 Y154.348 E14.40774
G1 X94.413 Y153.777 E14.42676
G1 X94.404 Y153.444 E14.43784
G1 X94.4 Y153.158 E14.44735
G1 X94.401 Y84.031 E16.74652
G1 X94.41 Y83.366 E16.76864
G1 X94.462 Y82.446 E16.79929
G1 X94.594 Y81.535 E16.82991
G1 X94.805 Y80.639 E16.86052
G1 X95.092 Y79.764 E16.89115
G1 X95.455 Y78.918 E16.92177
G1 X95.889 Y78.106 E16.95239
G1 X96.392 Y77.335 E16.98301
G1 X96.961 Y76.611 E17.01364
G0 F6000 X97.355 Y76.767
G1 F1200 X97.981 Y76.117 E17.04365
G1 X98.662 Y75.524 E17.07369
G1 X99.394 Y74.994 E17.10375
G1 X100.169 Y74.531 E17.13377
G1 X100.982 Y74.138 E17.16381
G1 X101.827 Y73.818 E17.19386
G1 X102.696 Y73.575 E17.22387
G1 X103.584 Y73.409 E17.25392
G1 X104.723 Y73.313 E17.29194
G1 X105.044 Y73.304 E17.30262
G1 X105.33 Y73.3 E17.31213
G1 X128.293 Y73.3 E18.07588
G1 X129.137 Y73.311 E18.10396
G1 X130.039 Y73.364 E18.13401
G1 X130.932 Y73.496 E18.16403
G1 X131.81 Y73.707 E18.19407
G1 X132.666 Y73.995 E18.2241
G1 X133.493 Y74.357 E18.25413
G1 X134.285 Y74.792 E18.28418
G1 X135.036 Y75.294 E18.31423
G1 X135.739 Y75.861 E18.34427
G1 X136.389 Y76.488 E18.37431
G1 X136.981 Y77.17 E18.40434
G1 X137.511 Y77.901 E18.43438
G1 X137.973 Y78.677 E18.46441
G1 X138.366 Y79.49 E18.49445
G1 X138.684 Y80.335 E18.52448
G1 X138.927 Y81.205 E18.55452
G1 X139.092 Y82.093 E18.58456
G1 X139.187 Y83.223 E18.62228
G1 X139.196 Y83.543 E18.63292
G1 X139.2 Y83.83 E18.64247
G1 X139.199 Y152.89 E20.93942
G1 X139.19 Y153.617 E20.9636
G1 X139.139 Y154.519 E20.99365
G1 X139.008 Y155.413 E21.0237
G1 X138.799 Y156.291 E21.05372
G1 X138.513 Y157.148 E21.08377
G1 X138.152 Y157.976 E21.11381
G1 X137.72 Y158.768 E21.14382
G1 X137.219 Y159.52 E21.17387
G1 X136.653 Y160.224 E21.20391
G1 X136.028 Y160.875 E21.23393
G1 X135.347 Y161.469 E21.26398
G1 X134.616 Y162 E21.29404
G1 X133.842 Y162.464 E21.32405
G1 X133.029 Y162.858 E21.3541
G1 X132.185 Y163.178 E21.38412
G1 X131.315 Y163.423 E21.41418
G1 X130.428 Y163.589 E21.4442
G1 X129.277 Y163.687 E21.48262
G1 X128.956 Y163.696 E21.4933
G1 X128.67 Y163.7 E21.50281
G1 X105.575 Y163.699 E22.27095
G1 X104.877 Y163.69 E22.29417
G1 X103.976 Y163.639 E22.32419
G1 X103.082 Y163.507 E22.35424
G1 X102.204 Y163.298 E22.38426
G1 X101.347 Y163.011 E22.41432
G1 X100.52 Y162.65 E22.44433
G1 X99.727 Y162.217 E22.47439
G1 X98.976 Y161.716 E22.50441
G1 X98.272 Y161.15 E22.53446
G1 X97.621 Y160.524 E22.5645
G1 X97.028 Y159.843 E22.59453
G1 X96.498 Y159.112 E22.62456
G1 X96.034 Y158.337 E22.6546
G1 X95.64 Y157.524 E22.68465
G1 X95.32 Y156.68 E22.71467
G1 X95.076 Y155.81 E22.74473
G1 X94.91 Y154.922 E22.77477
G1 X94.813 Y153.767 E22.81332
G1 X94.804 Y153.434 E22.8244
G1 X94.8 Y153.158 E22.83358
G1 X94.801 Y84.036 E25.13259
G1 X94.81 Y83.371 E25.15471
G1 X94.862 Y82.469 E25.18476
G1 X94.994 Y81.576 E25.21479
G1 X95.204 Y80.698 E25.24481
G1 X95.491 Y79.841 E25.27487
G1 X95.853 Y79.014 E25.3049
G1 X96.286 Y78.222 E25.33492
G1 X96.788 Y77.471 E25.36496
G1 X97.355 Y76.767 E25.39503
G1 F2700 E20.39503
;MESH:PartMidi_Spring_Tin08mm_Holder_Serial_v1_002.stl
G0 F6000 X110.665 Y90.125
G0 X109.23 Y90.125
G0 X109.572 Y100.428
G0 X120.799 Y100.6
;TYPE:WALL-INNER
G1 F2700 E25.39503
G1 F1200 X120.799 Y87.4 E25.83406
G1 X109.4 Y87.4 E26.2132
G1 X109.4 Y100.6 E26.65223
G1 X120.799 Y100.6 E27.03136
G0 F6000 X120.399 Y100.2
;TYPE:WALL-OUTER
G1 F1200 X120.399 Y87.8 E27.44379
G1 X109.8 Y87.8 E27.79631
G1 X109.8 Y100.2 E28.20874
G1 X120.399 Y100.2 E28.56126
G1 F2700 E23.56126
G0 F6000 X120.699 Y100.2
G0 X120.799 Y100.79
G0 X120.799 Y103.877
G0 X120.799 Y117.267
;TYPE:WALL-INNER
G1 F2700 E28.56126
G1 F1200 X120.799 Y104.067 E29.00029
G1 X109.4 Y104.067 E29.37943
G1 X109.4 Y117.267 E29.81846
G1 X120.799 Y117.267 E30.19759
G0 F6000 X120.399 Y116.867
;TYPE:WALL-OUTER
G1 F1200 X120.399 Y104.467 E30.61002
G1 X109.8 Y104.467 E30.96254
G1 X109.8 Y116.867 E31.37497
G1 X120.399 Y116.867 E31.72749
G1 F2700 E26.72749
G0 F6000 X120.699 Y116.867
G0 X120.799 Y117.457
G0 X120.799 Y120.543
G0 X120.799 Y133.933
;TYPE:WALL-INNER
G1 F2700 E31.72749
G1 F1200 X120.799 Y120.733 E32.16653
G1 X109.4 Y120.733 E32.54566
G1 X109.4 Y133.933 E32.98469
G1 X120.799 Y133.933 E33.36383
G0 F6000 X120.399 Y133.533
;TYPE:WALL-OUTER
G1 F1200 X120.399 Y121.133 E33.77625
G1 X109.8 Y121.133 E34.12877
G1 X109.8 Y133.533 E34.5412
G1 X120.399 Y133.533 E34.89372
G1 F2700 E29.89372
G0 F6000 X120.699 Y133.533
G0 X120.799 Y134.123
G0 X120.799 Y137.21
G0 X120.799 Y150.6
;TYPE:WALL-INNER
G1 F2700 E34.89372
G1 F1200 X120.799 Y137.4 E35.33276
G1 X109.4 Y137.4 E35.71189
G1 X109.4 Y150.6 E36.15092
G1 X120.799 Y150.6 E36.53006
G0 F6000 X120.399 Y150.2
;TYPE:WALL-OUTER
G1 F1200 X120.399 Y137.8 E36.94248
G1 X109.8 Y137.8 E37.29501
G1 X109.8 Y150.2 E37.70743
G1 X120.399 Y150.2 E38.05996
G1 F2700 E33.05996
G0 F6000 X120.699 Y150.2
G0 X120.995 Y150.796
G0 X120.995 Y152.69
G0 X128.4 Y152.9
;TYPE:WALL-INNER
G1 F2700 E38.05996
G1 F1200 X105.6 Y152.9 E38.81829
G1 X105.6 Y84.1 E41.10658
G1 X128.4 Y84.1 E41.86492
G1 X128.4 Y152.9 E44.15321
G0 F6000 X128.8 Y153.3
;TYPE:WALL-OUTER
G1 F1200 X105.2 Y153.3 E44.93815
G1 X105.2 Y83.7 E47.25306
G1 X128.8 Y83.7 E48.038
G1 X128.8 Y153.3 E50.3529
G0 F6000 X128.53 Y153.03
G0 X128.29 Y152.51
G0 X128.01 Y152.51
;TYPE:SKIN
G1 F1200 X105.99 Y152.51 E51.08529
G1 X105.99 Y84.49 E53.34765
G1 X128.01 Y84.49 E54.08003
G1 X128.01 Y152.51 E56.34239
G1 F2700 E51.34239
G0 F6000 X128.29 Y152.51
G0 X120.909 Y152.69
G0 X120.909 Y150.79
G1 F2700 E56.34239
G0 F6000 X121.189 Y150.99
G1 F1200 X121.189 Y137.01 E56.80736
G1 X109.01 Y137.01 E57.21244
G1 X109.01 Y150.99 E57.67742
G1 X121.189 Y150.99 E58.08249
G1 F2700 E53.08249
G0 F6000 X120.909 Y150.74
G0 X120.909 Y137.21
G0 X120.909 Y134.123
G1 F2700 E58.08249
G0 F6000 X121.189 Y134.323
G1 F1200 X121.189 Y120.343 E58.54747
G1 X109.01 Y120.343 E58.95254
G1 X109.01 Y134.323 E59.41752
G1 X121.189 Y134.323 E59.8226
G1 F2700 E54.8226
G0 F6000 X120.909 Y134.073
G0 X120.909 Y120.543
G0 X120.909 Y117.457
G1 F2700 E59.8226
G0 F6000 X121.189 Y117.657
G1 F1200 X121.189 Y103.677 E60.28757
G1 X109.01 Y103.677 E60.69265
G1 X109.01 Y117.657 E61.15762
G1 X121.189 Y117.657 E61.5627
G1 F2700 E56.5627
G0 F6000 X120.909 Y117.407
G0 X120.909 Y103.877
G0 X120.909 Y100.79
G1 F2700 E61.5627
G0 F6000 X121.189 Y100.99
G1 F1200 X121.189 Y87.01 E62.02768
G1 X109.01 Y87.01 E62.43275
G1 X109.01 Y100.99 E62.89773
G1 X121.189 Y100.99 E63.3028
G1 F2700 E58.3028
G0 F6000 X120.909 Y100.74
G0 X120.969 Y97.875
G0 X119.534 Y97.875
G0 X129.665 Y87.204
G0 X128.19 Y87.204
G0 X128.29 Y84.857
G1 F2700 E63.3028
G0 F6000 X127.849 Y84.857
G1 F1200 X127.641 Y84.649 E63.31259
G0 F6000 X127.076 Y84.649
G1 F1200 X127.849 Y85.423 E63.34897
G0 F6000 X127.849 Y85.989
G1 F1200 X126.51 Y84.649 E63.41198
G0 F6000 X125.944 Y84.649
G1 F1200 X127.849 Y86.554 E63.50158
G0 F6000 X127.849 Y87.12
G1 F1200 X125.379 Y84.649 E63.61779
G0 F6000 X124.813 Y84.649
G1 F1200 X127.849 Y87.686 E63.76061
G0 F6000 X127.849 Y88.251
G1 F1200 X124.247 Y84.649 E63.93004
G0 F6000 X123.682 Y84.649
G1 F1200 X127.849 Y88.817 E64.12607
G0 F6000 X127.849 Y89.383
G1 F1200 X123.116 Y84.649 E64.34872
G0 F6000 X122.55 Y84.649
G1 F1200 X127.849 Y89.948 E64.59796
G0 F6000 X127.849 Y90.514
G1 F1200 X121.985 Y84.649 E64.87381
G0 F6000 X121.419 Y84.649
G1 F1200 X127.849 Y91.08 E65.17628
G0 F6000 X127.849 Y91.645
G1 F1200 X120.853 Y84.649 E65.50535
G0 F6000 X120.288 Y84.649
G1 F1200 X127.849 Y92.211 E65.86102
G0 F6000 X127.849 Y92.777
G1 F1200 X119.722 Y84.649 E66.24332
G0 F6000 X119.156 Y84.649
G1 F1200 X127.849 Y93.343 E66.65223
G0 F6000 X127.849 Y93.908
G1 F1200 X121.348 Y87.406 E66.95804
G0 F6000 X121.348 Y87.972
G1 F1200 X127.849 Y94.474 E67.26385
G0 F6000 X127.849 Y95.04
G1 F1200 X121.348 Y88.538 E67.56966
G0 F6000 X121.348 Y89.103
G1 F1200 X127.849 Y95.605 E67.87547
G0 F6000 X127.849 Y96.171
G1 F1200 X121.348 Y89.669 E68.18129
G0 F6000 X121.348 Y90.235
G1 F1200 X127.849 Y96.737 E68.4871
G0 F6000 X127.849 Y97.302
G1 F1200 X121.348 Y90.8 E68.79291
G0 F6000 X121.348 Y91.366
G1 F1200 X127.849 Y97.868 E69.09872
G0 F6000 X127.849 Y98.434
G1 F1200 X121.348 Y91.932 E69.40453
G0 F6000 X121.348 Y92.498
G1 F1200 X127.849 Y98.999 E69.71031
G0 F6000 X127.849 Y99.565
G1 F1200 X121.348 Y93.063 E70.01613
G0 F6000 X121.348 Y93.629
G1 F1200 X127.849 Y100.131 E70.32194
G0 F6000 X127.849 Y100.696
G1 F1200 X121.348 Y94.195 E70.62772
G0 F6000 X121.348 Y94.76
G1 F1200 X127.849 Y101.262 E70.93353
G0 F6000 X127.849 Y101.828
G1 F1200 X121.348 Y95.326 E71.23934
G0 F6000 X121.348 Y95.892
G1 F1200 X127.849 Y102.394 E71.54516
G0 F6000 X127.849 Y102.959
G1 F1200 X121.348 Y96.457 E71.85097
G0 F6000 X121.348 Y97.023
G1 F1200 X127.849 Y103.525 E72.15678
G0 F6000 X127.849 Y104.091
G1 F1200 X121.348 Y97.589 E72.46259
G0 F6000 X121.348 Y98.154
G1 F1200 X127.849 Y104.656 E72.7684
G0 F6000 X127.849 Y105.222
G1 F1200 X121.348 Y98.72 E73.07421
G0 F6000 X121.348 Y99.286
G1 F1200 X127.849 Y105.788 E73.38002
G0 F6000 X127.849 Y106.353
G1 F1200 X121.348 Y99.851 E73.68583
G0 F6000 X121.348 Y100.417
G1 F1200 X127.849 Y106.919 E73.99164
G0 F6000 X127.849 Y107.485
G1 F1200 X121.348 Y100.983 E74.29745
G0 F6000 X120.949 Y101.15
G1 F1200 X127.849 Y108.05 E74.62201
G0 F6000 X127.849 Y108.616
G1 F1200 X120.383 Y101.15 E74.97318
G0 F6000 X119.817 Y101.15
G1 F1200 X127.849 Y109.182 E75.35098
G0 F6000 X127.849 Y109.747
G1 F1200 X119.252 Y101.15 E75.75536
G0 F6000 X118.686 Y101.15
G1 F1200 X121.053 Y103.516 E75.86667
G0 F6000 X121.348 Y103.811
G1 F1200 X127.849 Y110.313 E76.17248
G0 F6000 X127.849 Y110.879
G1 F1200 X121.348 Y104.377 E76.47829
G0 F6000 X121.348 Y104.943
G1 F1200 X127.849 Y111.444 E76.78408
G0 F6000 X127.849 Y112.01
G1 F1200 X121.348 Y105.508 E77.08989
G0 F6000 X121.348 Y106.074
G1 F1200 X127.849 Y112.576 E77.3957
G0 F6000 X127.849 Y113.142
G1 F1200 X121.348 Y106.64 E77.70151
G0 F6000 X121.348 Y107.205
G1 F1200 X127.849 Y113.707 E78.00732
G0 F6000 X127.849 Y114.273
G1 F1200 X121.348 Y107.771 E78.31313
G0 F6000 X121.348 Y108.337
G1 F1200 X127.849 Y114.839 E78.61895
G0 F6000 X127.849 Y115.404
G1 F1200 X121.348 Y108.902 E78.92476
G0 F6000 X121.348 Y109.468
G1 F1200 X127.849 Y115.97 E79.23057
G0 F6000 X127.849 Y116.536
G1 F1200 X121.348 Y110.034 E79.53638
G0 F6000 X121.348 Y110.599
G1 F1200 X127.849 Y117.101 E79.84219
G0 F6000 X127.849 Y117.667
G1 F1200 X121.348 Y111.165 E80.148
G0 F6000 X121.348 Y111.731
G1 F1200 X127.849 Y118.233 E80.45381
G0 F6000 X127.849 Y118.798
G1 F1200 X121.348 Y112.297 E80.7596
G0 F6000 X121.348 Y112.862
