;FLAVOR:Marlin
;TIME:3011
;Filament used: 1.48299m
;Layer height: 0.2
;MINX:90.5
;MINY:55.965
;MINZ:0.2
;MAXX:140.351
;MAXY:183.515
;MAXZ:19
;Generated with Cura_SteamEngine 4.13.1
M140 S50
M105
M190 S50
M104 S200
M105
M109 S200
M82 ;absolute extrusion mode
; Ender 3 Custom Start G-code
G92 E0 ; Reset Extruder
G28 ; Home all axes
G1 Z2.0 F3000 ; Move Z Axis up little to prevent scratching of Heat Bed
G1 X0.1 Y20 Z0.3 F5000.0 ; Move to start position
G1 X0.1 Y200.0 Z0.3 F1500.0 E15 ; Draw the first line
G1 X0.4 Y200.0 Z0.3 F5000.0 ; Move to side a little
G1 X0.4 Y20 Z0.3 F1500.0 E30 ; Draw the second line
G92 E0 ; Reset Extruder
G1 Z2.0 F3000 ; Move Z Axis up little to prevent scratching of Heat Bed
G1 X5 Y20 Z0.3 F5000.0 ; Move over to prevent blob squish
G92 E0
G92 E0
G1 F2700 E-5
;LAYER_COUNT:70
;LAYER:0
M107
G0 F6000 X97.975 Y147.82 Z0.2
;TYPE:SKIRT
G1 F2700 E0
G1 F1200 X98.761 Y147.308 E0.0312
G1 X99.588 Y146.866 E0.06239
G1 X100.45 Y146.496 E0.09359
G1 X101.34 Y146.2 E0.12478
G1 X102.252 Y145.982 E0.15597
G1 X103.179 Y145.841 E0.18716
G1 X104.05 Y145.782 E0.21619
G1 X104.371 Y145.773 E0.22687
G1 X104.679 Y145.769 E0.23712
G1 X126.646 Y145.769 E0.96775
G1 X127.505 Y145.78 E0.99632
G1 X128.442 Y145.833 E1.02753
G1 X129.37 Y145.966 E1.05871
G1 X130.284 Y146.178 E1.08992
G1 X131.176 Y146.466 E1.1211
G1 X132.041 Y146.83 E1.15231
G1 X132.871 Y147.266 E1.18349
G1 X133.662 Y147.771 E1.21471
G1 X134.406 Y148.341 E1.24588
G1 X135.145 Y149.019 E1.27924
G1 X135.681 Y149.594 E1.30538
G1 X136.349 Y150.365 E1.33931
G1 X136.863 Y150.95 E1.36521
G1 X137.101 Y151.23 E1.37743
G1 X137.515 Y151.734 E1.39913
G1 X138.079 Y152.483 E1.43031
G1 X138.447 Y153.057 E1.45299
G1 X138.507 Y153.157 E1.45687
G1 X138.978 Y154.028 E1.4898
G1 X139.11 Y154.301 E1.49989
G1 X139.482 Y155.162 E1.53108
G1 X139.665 Y155.676 E1.54923
G1 X139.885 Y156.426 E1.57523
G1 X139.948 Y156.672 E1.58367
G1 X140.16 Y157.7 E1.61858
G1 X140.191 Y157.898 E1.62525
G1 X140.301 Y158.905 E1.65894
G1 X140.318 Y159.174 E1.66791
G1 X140.333 Y159.467 E1.67766
G1 X140.34 Y159.659 E1.68405
G1 X140.347 Y159.969 E1.69437
G1 X140.349 Y160.21 E1.70238
G1 X140.349 Y167.809 E1.95513
G1 X140.351 Y168.632 E1.9825
G1 X140.348 Y171.818 E2.08847
G1 X140.338 Y172.552 E2.11288
G1 X140.285 Y173.488 E2.14406
G1 X140.153 Y174.417 E2.17527
G1 X139.942 Y175.331 E2.20647
G1 X139.654 Y176.223 E2.23765
G1 X139.291 Y177.088 E2.26885
G1 X138.856 Y177.919 E2.30005
G1 X138.351 Y178.709 E2.33123
G1 X137.781 Y179.454 E2.36243
G1 X137.15 Y180.147 E2.3936
G1 X136.503 Y180.749 E2.423
G1 X136.383 Y180.852 E2.42826
G1 X135.646 Y181.432 E2.45945
G1 X134.863 Y181.947 E2.49062
G1 X134.038 Y182.393 E2.52181
G1 X133.178 Y182.768 E2.55302
G1 X132.289 Y183.068 E2.58422
G1 X131.378 Y183.291 E2.61542
G1 X130.452 Y183.436 E2.64659
G1 X129.375 Y183.504 E2.68249
G1 X128.515 Y183.515 E2.71109
G1 X125.395 Y183.514 E2.81486
G1 X124.762 Y183.505 E2.83592
G1 X123.801 Y183.449 E2.86794
G1 X123.556 Y183.424 E2.87613
G1 X122.881 Y183.334 E2.89878
G1 X121.856 Y183.164 E2.93333
G1 X121.041 Y183.018 E2.96087
G1 X118.559 Y182.645 E3.04435
G1 X116.073 Y182.344 E3.12764
G1 X113.546 Y182.11 E3.21205
G1 X111.068 Y181.951 E3.29464
G1 X108.492 Y181.858 E3.38037
G1 X106.58 Y181.838 E3.44397
G1 X104.883 Y181.837 E3.50041
G1 X104.185 Y181.826 E3.52363
G1 X103.248 Y181.771 E3.55485
G1 X102.32 Y181.637 E3.58603
G1 X101.407 Y181.424 E3.61721
G1 X100.515 Y181.134 E3.64841
G1 X99.651 Y180.769 E3.67961
G1 X98.821 Y180.332 E3.7108
G1 X98.032 Y179.826 E3.74198
G1 X97.288 Y179.254 E3.77319
G1 X96.596 Y178.621 E3.80439
G1 X95.96 Y177.932 E3.83557
G1 X95.385 Y177.19 E3.86679
G1 X94.876 Y176.403 E3.89797
G1 X94.435 Y175.575 E3.92917
G1 X94.067 Y174.713 E3.96034
G1 X93.774 Y173.822 E3.99154
G1 X93.557 Y172.909 E4.02275
G1 X93.419 Y171.982 E4.05392
G1 X93.362 Y171.126 E4.08246
G1 X93.353 Y170.795 E4.09347
G1 X93.349 Y170.496 E4.10342
G1 X93.35 Y157.294 E4.54252
G1 X93.359 Y156.629 E4.56464
G1 X93.412 Y155.693 E4.59582
G1 X93.544 Y154.764 E4.62703
G1 X93.755 Y153.85 E4.65823
G1 X94.043 Y152.958 E4.6894
G1 X94.406 Y152.093 E4.7206
G1 X94.841 Y151.262 E4.7518
G1 X95.345 Y150.472 E4.78297
G1 X95.915 Y149.727 E4.81417
G1 X96.547 Y149.033 E4.84539
G1 X97.235 Y148.396 E4.87657
G1 X97.975 Y147.82 E4.90776
G0 F6000 X98.359 Y148.039
G1 F1200 X99.14 Y147.551 E4.93839
G1 X99.96 Y147.133 E4.969
G1 X100.814 Y146.788 E4.99964
G1 X101.694 Y146.518 E5.03025
G1 X102.594 Y146.326 E5.06086
G1 X103.508 Y146.212 E5.0915
G1 X104.061 Y146.182 E5.10992
G1 X104.382 Y146.173 E5.1206
G1 X104.679 Y146.169 E5.13048
G1 X126.646 Y146.169 E5.8611
G1 X127.5 Y146.18 E5.88951
G1 X128.419 Y146.233 E5.92013
G1 X129.33 Y146.366 E5.95075
G1 X130.226 Y146.577 E5.98136
G1 X131.1 Y146.865 E6.01197
G1 X131.947 Y147.228 E6.04262
G1 X132.758 Y147.663 E6.07323
G1 X133.529 Y148.167 E6.10386
G1 X134.253 Y148.735 E6.13447
G1 X134.862 Y149.302 E6.16215
G1 X135.378 Y149.856 E6.18733
G1 X135.997 Y150.57 E6.21876
G1 X136.563 Y151.214 E6.24727
G1 X136.792 Y151.484 E6.25905
G1 X137.206 Y151.988 E6.28074
G1 X137.759 Y152.724 E6.31136
G1 X138.104 Y153.262 E6.33262
G1 X138.164 Y153.362 E6.3365
G1 X138.618 Y154.202 E6.36826
G1 X138.75 Y154.475 E6.37834
G1 X139.263 Y155.737 E6.42365
G1 X139.285 Y155.803 E6.42596
G1 X139.498 Y156.525 E6.451
G1 X139.561 Y156.771 E6.45945
G1 X139.764 Y157.761 E6.49306
G1 X139.795 Y157.959 E6.49973
G1 X139.902 Y158.93 E6.53222
G1 X139.919 Y159.199 E6.54118
G1 X139.933 Y159.482 E6.55061
G1 X139.94 Y159.674 E6.557
G1 X139.947 Y159.972 E6.56691
G1 X139.949 Y160.213 E6.57493
G1 X139.949 Y167.809 E6.82757
G1 X139.951 Y168.632 E6.85494
G1 X139.948 Y171.812 E6.96071
G1 X139.938 Y172.546 E6.98513
G1 X139.886 Y173.466 E7.01577
G1 X139.753 Y174.377 E7.0464
G1 X139.543 Y175.273 E7.077
G1 X139.255 Y176.147 E7.10761
G1 X138.893 Y176.994 E7.13825
G1 X138.458 Y177.806 E7.16889
G1 X137.955 Y178.576 E7.19948
G1 X137.387 Y179.301 E7.23011
G1 X136.758 Y179.973 E7.26072
G1 X136.243 Y180.445 E7.28396
G1 X136.123 Y180.548 E7.28922
G1 X135.399 Y181.117 E7.31985
G1 X134.628 Y181.621 E7.35048
G1 X133.817 Y182.056 E7.38109
G1 X132.971 Y182.419 E7.41171
G1 X132.096 Y182.707 E7.44235
G1 X131.2 Y182.918 E7.47296
G1 X130.289 Y183.051 E7.50359
G1 X129.37 Y183.104 E7.5342
G1 X128.515 Y183.115 E7.56264
G1 X125.4 Y183.114 E7.66625
G1 X124.767 Y183.105 E7.6873
G1 X123.842 Y183.051 E7.71812
G1 X123.597 Y183.026 E7.72631
G1 X122.946 Y182.939 E7.74816
G1 X121.927 Y182.77 E7.78251
G1 X121.105 Y182.623 E7.81029
G1 X118.63 Y182.251 E7.89353
G1 X116.122 Y181.947 E7.97756
G1 X113.573 Y181.711 E8.0627
G1 X111.072 Y181.551 E8.14605
G1 X108.511 Y181.458 E8.23129
G1 X106.585 Y181.438 E8.29535
G1 X104.889 Y181.437 E8.35176
G1 X104.191 Y181.426 E8.37498
G1 X103.272 Y181.371 E8.4056
G1 X102.361 Y181.237 E8.43623
G1 X101.465 Y181.025 E8.46685
G1 X100.591 Y180.735 E8.49748
G1 X99.746 Y180.371 E8.52808
G1 X98.935 Y179.935 E8.5587
G1 X98.165 Y179.43 E8.58933
G1 X97.442 Y178.86 E8.61995
G1 X96.771 Y178.23 E8.65056
G1 X96.157 Y177.543 E8.68121
G1 X95.606 Y176.806 E8.71182
G1 X95.12 Y176.024 E8.74244
G1 X94.704 Y175.203 E8.77305
G1 X94.36 Y174.349 E8.80367
G1 X94.092 Y173.468 E8.8343
G1 X93.902 Y172.567 E8.86493
G1 X93.79 Y171.654 E8.89552
G1 X93.762 Y171.115 E8.91347
G1 X93.753 Y170.784 E8.92449
G1 X93.749 Y170.496 E8.93407
G1 X93.75 Y157.3 E9.37297
G1 X93.759 Y156.635 E9.39509
G1 X93.811 Y155.715 E9.42573
G1 X93.943 Y154.804 E9.45635
G1 X94.154 Y153.908 E9.48697
G1 X94.441 Y153.033 E9.5176
G1 X94.804 Y152.187 E9.54821
G1 X95.238 Y151.375 E9.57884
G1 X95.741 Y150.604 E9.60946
G1 X96.31 Y149.88 E9.64008
G1 X96.938 Y149.208 E9.67067
G1 X97.623 Y148.592 E9.70131
G1 X98.359 Y148.039 E9.73193
G0 F6000 X98.743 Y148.263
G1 F1200 X99.518 Y147.8 E9.76196
G1 X100.331 Y147.407 E9.79199
G1 X101.176 Y147.087 E9.82205
G1 X102.045 Y146.844 E9.85206
G1 X102.933 Y146.678 E9.88211
G1 X104.072 Y146.582 E9.92012
G1 X104.393 Y146.573 E9.9308
G1 X104.679 Y146.569 E9.94032
G1 X126.646 Y146.569 E10.67094
G1 X127.494 Y146.58 E10.69915
G1 X128.396 Y146.633 E10.7292
G1 X129.289 Y146.765 E10.75923
G1 X130.167 Y146.976 E10.78926
G1 X131.023 Y147.264 E10.8193
G1 X131.85 Y147.626 E10.84932
G1 X132.642 Y148.06 E10.87936
G1 X133.393 Y148.562 E10.90941
G1 X134.096 Y149.129 E10.93945
G1 X134.579 Y149.585 E10.96154
G1 X135.076 Y150.118 E10.98578
G1 X135.697 Y150.834 E11.0173
G1 X136.263 Y151.478 E11.04582
G1 X136.483 Y151.738 E11.05715
G1 X136.897 Y152.242 E11.07884
G1 X137.439 Y152.964 E11.10887
G1 X137.761 Y153.468 E11.12876
G1 X137.821 Y153.568 E11.13264
G1 X138.258 Y154.376 E11.16319
G1 X138.39 Y154.649 E11.17328
G1 X138.884 Y155.863 E11.21687
G1 X138.906 Y155.929 E11.21918
G1 X139.11 Y156.624 E11.24327
G1 X139.173 Y156.87 E11.25172
G1 X139.369 Y157.823 E11.28408
G1 X139.4 Y158.021 E11.29075
G1 X139.503 Y158.956 E11.32203
G1 X139.52 Y159.225 E11.331
G1 X139.54 Y159.688 E11.34641
G1 X139.547 Y159.975 E11.35596
G1 X139.549 Y160.216 E11.36398
G1 X139.549 Y167.809 E11.61652
G1 X139.551 Y168.632 E11.64389
G1 X139.548 Y171.807 E11.74949
G1 X139.538 Y172.541 E11.77391
G1 X139.486 Y173.443 E11.80396
G1 X139.354 Y174.336 E11.83398
G1 X139.144 Y175.214 E11.86401
G1 X138.856 Y176.07 E11.89405
G1 X138.495 Y176.898 E11.92409
G1 X138.061 Y177.69 E11.95413
G1 X137.559 Y178.441 E11.98417
G1 X136.993 Y179.144 E12.01419
G1 X136.366 Y179.795 E12.04425
G1 X135.982 Y180.142 E12.06147
G1 X135.862 Y180.245 E12.06673
G1 X135.152 Y180.802 E12.09674
G1 X134.395 Y181.294 E12.12677
G1 X133.597 Y181.718 E12.15683
G1 X132.765 Y182.069 E12.18686
G1 X131.905 Y182.345 E12.2169
G1 X131.024 Y182.544 E12.24694
G1 X130.129 Y182.664 E12.27698
G1 X129.364 Y182.704 E12.30245
G1 X128.515 Y182.715 E12.3307
G1 X125.406 Y182.714 E12.4341
G1 X124.773 Y182.705 E12.45516
G1 X123.883 Y182.653 E12.48481
G1 X123.638 Y182.628 E12.493
G1 X123.011 Y182.545 E12.51404
G1 X121.997 Y182.376 E12.54823
G1 X121.198 Y182.233 E12.57522
G1 X118.666 Y181.853 E12.66038
G1 X116.135 Y181.546 E12.74518
G1 X113.637 Y181.315 E12.82862
G1 X111.076 Y181.15 E12.91397
G1 X108.529 Y181.059 E12.99874
G1 X106.589 Y181.038 E13.06327
G1 X104.895 Y181.037 E13.11961
G1 X104.197 Y181.026 E13.14283
G1 X103.296 Y180.972 E13.17285
G1 X102.403 Y180.838 E13.20289
G1 X101.525 Y180.626 E13.23293
G1 X100.669 Y180.337 E13.26298
G1 X99.843 Y179.973 E13.293
G1 X99.051 Y179.538 E13.32305
G1 X98.302 Y179.034 E13.35308
G1 X97.599 Y178.466 E13.38314
G1 X96.95 Y177.839 E13.41315
G1 X96.359 Y177.156 E13.44319
G1 X95.83 Y176.424 E13.47323
G1 X95.369 Y175.647 E13.50328
G1 X94.978 Y174.833 E13.53332
G1 X94.66 Y173.988 E13.56335
G1 X94.419 Y173.118 E13.59337
G1 X94.255 Y172.23 E13.62341
G1 X94.162 Y171.104 E13.66099
G1 X94.153 Y170.773 E13.672
G1 X94.149 Y170.496 E13.68121
G1 X94.15 Y157.305 E14.11995
G1 X94.159 Y156.64 E14.14207
G1 X94.211 Y155.738 E14.17212
G1 X94.343 Y154.845 E14.20214
G1 X94.553 Y153.967 E14.23217
G1 X94.84 Y153.11 E14.26223
G1 X95.202 Y152.283 E14.29225
G1 X95.635 Y151.491 E14.32228
G1 X96.137 Y150.74 E14.35232
G1 X96.704 Y150.036 E14.38239
G1 X97.33 Y149.386 E14.4124
G1 X98.011 Y148.793 E14.44243
G1 X98.743 Y148.263 E14.47249
G1 F2700 E9.47249
;MESH:Midi Connector WithMagnet 8mm v3.stl
G0 F6000 X104.763 Y156.104
G0 X104.763 Y157.183
G0 X105.155 Y162.719
G0 X107.21 Y159.567
G0 X109.592 Y158.921
G0 X110.781 Y158.883
G0 X111.946 Y159.13
G0 X113.018 Y159.648
G0 X113.935 Y160.406
G0 X114.644 Y161.364
G0 X115.104 Y162.464
G0 X115.506 Y164.894
G0 X113.487 Y168.038
G0 X109.892 Y169.053
G0 X106.521 Y167.427
G0 X105.155 Y164.878
G0 X105.131 Y170.056
G0 X125.131 Y170.056
G0 X125.131 Y171.733
G0 X128.567 Y171.733
G0 X128.542 Y164.867
G0 X126.348 Y168.139
G0 X124.29 Y168.647
G0 X122.738 Y168.866
;TYPE:WALL-INNER
G1 F2700 E14.47249
G1 F1200 X123.148 Y168.899 E14.48617
G1 X123.558 Y168.899 E14.49981
G1 X123.968 Y168.866 E14.51349
G1 X124.374 Y168.799 E14.52718
G1 X124.773 Y168.7 E14.54085
G1 X125.162 Y168.57 E14.55449
G1 X125.539 Y168.408 E14.56814
G1 X125.902 Y168.218 E14.58177
G1 X126.25 Y167.998 E14.59546
G1 X126.579 Y167.75 E14.60916
G1 X126.885 Y167.478 E14.62278
G1 X127.169 Y167.182 E14.63642
G1 X127.428 Y166.863 E14.65009
G1 X127.662 Y166.525 E14.66376
G1 X127.867 Y166.169 E14.67743
G1 X128.042 Y165.797 E14.6911
G1 X128.188 Y165.414 E14.70473
G1 X128.302 Y165.019 E14.71841
G1 X128.383 Y164.615 E14.73211
G1 X128.432 Y164.206 E14.74581
G1 X128.449 Y163.796 E14.75946
G1 X128.432 Y163.387 E14.77308
G1 X128.382 Y162.977 E14.78681
G1 X128.299 Y162.575 E14.80047
G1 X128.185 Y162.181 E14.81411
G1 X128.039 Y161.799 E14.82771
G1 X127.862 Y161.427 E14.84141
G1 X127.659 Y161.077 E14.85487
G1 X127.426 Y160.739 E14.86852
G1 X127.167 Y160.421 E14.88216
G1 X126.882 Y160.124 E14.89586
G1 X126.575 Y159.852 E14.9095
G1 X126.246 Y159.604 E14.9232
G1 X125.899 Y159.386 E14.93683
G1 X125.536 Y159.194 E14.95049
G1 X125.157 Y159.034 E14.96417
G1 X124.768 Y158.903 E14.97782
G1 X124.369 Y158.806 E14.99148
G1 X123.964 Y158.739 E15.00513
G1 X123.554 Y158.706 E15.01882
G1 X123.144 Y158.706 E15.03245
G1 X122.733 Y158.739 E15.04617
G1 X122.329 Y158.806 E15.05979
G1 X121.93 Y158.903 E15.07344
G1 X121.54 Y159.034 E15.08713
G1 X121.162 Y159.194 E15.10078
G1 X120.799 Y159.386 E15.11444
G1 X120.451 Y159.604 E15.1281
G1 X120.123 Y159.852 E15.14177
G1 X119.815 Y160.124 E15.15544
G1 X119.53 Y160.421 E15.16913
G1 X119.271 Y160.739 E15.18277
G1 X119.034 Y161.082 E15.19664
G1 X118.829 Y161.439 E15.21033
G1 X118.654 Y161.81 E15.22397
G1 X118.509 Y162.194 E15.23763
G1 X118.396 Y162.588 E15.25126
G1 X118.314 Y162.988 E15.26484
G1 X118.264 Y163.397 E15.27854
G1 X118.249 Y163.805 E15.29212
G1 X118.264 Y164.215 E15.30577
G1 X118.314 Y164.622 E15.31941
G1 X118.398 Y165.027 E15.33316
G1 X118.511 Y165.42 E15.34677
G1 X118.657 Y165.802 E15.36037
G1 X118.835 Y166.176 E15.37414
G1 X119.04 Y166.532 E15.38781
G1 X119.273 Y166.87 E15.40146
G1 X119.533 Y167.188 E15.41512
G1 X119.819 Y167.484 E15.42881
G1 X120.126 Y167.755 E15.44243
G1 X120.453 Y168.002 E15.45606
G1 X120.803 Y168.223 E15.46983
G1 X121.166 Y168.412 E15.48344
G1 X121.543 Y168.572 E15.49706
G1 X121.935 Y168.703 E15.51081
G1 X122.333 Y168.8 E15.52444
G1 X122.738 Y168.866 E15.53808
G0 F6000 X122.786 Y168.469
;TYPE:WALL-OUTER
G1 F1200 X123.164 Y168.499 E15.5507
G1 X123.542 Y168.499 E15.56327
G1 X123.919 Y168.469 E15.57585
G1 X124.293 Y168.407 E15.58846
G1 X124.661 Y168.316 E15.60106
G1 X125.019 Y168.196 E15.61362
G1 X125.367 Y168.047 E15.62621
G1 X125.702 Y167.871 E15.6388
G1 X126.022 Y167.669 E15.65139
G1 X126.325 Y167.44 E15.66402
G1 X126.608 Y167.189 E15.6766
G1 X126.869 Y166.917 E15.68914
G1 X127.108 Y166.623 E15.70174
G1 X127.323 Y166.311 E15.71434
G1 X127.512 Y165.983 E15.72693
G1 X127.674 Y165.64 E15.73955
G1 X127.808 Y165.287 E15.75211
G1 X127.913 Y164.924 E15.76468
G1 X127.988 Y164.552 E15.7773
G1 X128.033 Y164.174 E15.78996
G1 X128.049 Y163.796 E15.80254
G1 X128.033 Y163.42 E15.81506
G1 X127.987 Y163.042 E15.82772
G1 X127.91 Y162.671 E15.84033
G1 X127.805 Y162.308 E15.8529
G1 X127.671 Y161.956 E15.86542
G1 X127.508 Y161.614 E15.87802
G1 X127.321 Y161.291 E15.89044
G1 X127.106 Y160.979 E15.90304
G1 X126.867 Y160.686 E15.91562
G1 X126.605 Y160.413 E15.9282
G1 X126.322 Y160.162 E15.94078
G1 X126.019 Y159.934 E15.95339
G1 X125.699 Y159.733 E15.96596
G1 X125.364 Y159.556 E15.97856
G1 X125.015 Y159.408 E15.99117
G1 X124.657 Y159.288 E16.00373
G1 X124.289 Y159.198 E16.01633
G1 X123.915 Y159.136 E16.02894
G1 X123.538 Y159.106 E16.04152
G1 X123.16 Y159.106 E16.05409
G1 X122.782 Y159.136 E16.0667
G1 X122.409 Y159.198 E16.07928
G1 X122.041 Y159.288 E16.09188
G1 X121.682 Y159.408 E16.10447
G1 X121.334 Y159.556 E16.11705
G1 X120.999 Y159.733 E16.12965
G1 X120.678 Y159.934 E16.14225
G1 X120.376 Y160.162 E16.15483
G1 X120.092 Y160.413 E16.16744
G1 X119.83 Y160.686 E16.18002
G1 X119.591 Y160.979 E16.1926
G1 X119.373 Y161.296 E16.2054
G1 X119.184 Y161.624 E16.21799
G1 X119.023 Y161.966 E16.23056
G1 X118.889 Y162.32 E16.24315
G1 X118.785 Y162.683 E16.25571
G1 X118.709 Y163.053 E16.26827
G1 X118.663 Y163.429 E16.28087
G1 X118.649 Y163.805 E16.29338
G1 X118.663 Y164.183 E16.30597
G1 X118.709 Y164.557 E16.3185
G1 X118.787 Y164.931 E16.33121
