;FLAVOR:Marlin
;TIME:1321
;Filament used: 1.00739m
;Layer height: 0.28
;MINX:90
;MINY:100.5
;MINZ:0.28
;MAXX:145
;MAXY:134.5
;MAXZ:14
;Generated with Cura_SteamEngine 4.13.1
M140 S50
M105
M190 S50
M104 S200
M105
M109 S200
M82 ;absolute extrusion mode
; Ender 3 Custom Start G-code
G92 E0 ; Reset Extruder
G28 ; Home all axes
G1 Z2.0 F3000 ; Move Z Axis up little to prevent scratching of Heat Bed
G1 X0.1 Y20 Z0.3 F5000.0 ; Move to start position
G1 X0.1 Y200.0 Z0.3 F1500.0 E15 ; Draw the first line
G1 X0.4 Y200.0 Z0.3 F5000.0 ; Move to side a little
G1 X0.4 Y20 Z0.3 F1500.0 E30 ; Draw the second line
G92 E0 ; Reset Extruder
G1 Z2.0 F3000 ; Move Z Axis up little to prevent scratching of Heat Bed
G1 X5 Y20 Z0.3 F5000.0 ; Move over to prevent blob squish
G92 E0
G92 E0
G1 F2700 E-5
;LAYER_COUNT:50
;LAYER:0
M107
G0 F6000 X94.734 Y103.488 Z0.28
;TYPE:SKIRT
G1 F2700 E0
G1 F1200 X94.879 Y103.37 E0.00871
G1 X95.973 Y102.586 E0.07138
G1 X96.231 Y102.424 E0.08556
G1 X97.413 Y101.779 E0.14826
G1 X97.556 Y101.712 E0.15562
G1 X98.837 Y101.207 E0.21973
G1 X99.177 Y101.097 E0.23637
G1 X100.419 Y100.774 E0.29613
G1 X100.57 Y100.744 E0.3033
G1 X101.844 Y100.567 E0.36319
G1 X102.071 Y100.549 E0.37379
G1 X102.76 Y100.516 E0.40591
G1 X103.67 Y100.501 E0.44829
G1 X131.302 Y100.5 E1.73495
G1 X131.899 Y100.507 E1.76275
G1 X132.293 Y100.519 E1.78111
G1 X132.802 Y100.544 E1.80484
G1 X134.16 Y100.696 E1.86847
G1 X134.394 Y100.737 E1.87953
G1 X135.31 Y100.938 E1.9232
G1 X135.899 Y101.112 E1.95179
G1 X136.108 Y101.18 E1.96203
G1 X137.167 Y101.586 E2.01484
G1 X137.345 Y101.665 E2.02391
G1 X138.429 Y102.219 E2.08059
G1 X138.614 Y102.327 E2.09057
G1 X139.756 Y103.094 E2.15463
G1 X140.008 Y103.287 E2.16941
G1 X140.999 Y104.144 E2.23041
G1 X141.159 Y104.3 E2.24082
G1 X142.035 Y105.262 E2.3014
G1 X142.153 Y105.408 E2.31014
G1 X142.914 Y106.473 E2.37109
G1 X143.076 Y106.731 E2.38528
G1 X143.721 Y107.913 E2.44798
G1 X143.788 Y108.056 E2.45533
G1 X144.293 Y109.337 E2.51945
G1 X144.403 Y109.677 E2.53609
G1 X144.681 Y110.702 E2.58554
G1 X144.701 Y110.793 E2.58988
G1 X144.863 Y111.717 E2.63356
G1 X144.926 Y112.325 E2.66202
G1 X144.961 Y112.788 E2.68364
G1 X144.991 Y113.465 E2.7152
G1 X145 Y114.197 E2.74929
G1 X144.999 Y120.949 E3.06369
G1 X144.993 Y121.399 E3.08464
G1 X144.981 Y121.791 E3.10291
G1 X144.956 Y122.301 E3.12668
G1 X144.808 Y123.639 E3.18936
G1 X144.768 Y123.87 E3.20028
G1 X144.568 Y124.786 E3.24394
G1 X144.394 Y125.382 E3.27285
G1 X144.326 Y125.592 E3.28313
G1 X143.911 Y126.676 E3.33718
G1 X143.83 Y126.858 E3.34645
G1 X143.276 Y127.937 E3.40293
G1 X143.169 Y128.12 E3.4128
G1 X142.414 Y129.246 E3.47593
G1 X142.223 Y129.496 E3.49058
G1 X141.357 Y130.498 E3.55225
G1 X141.199 Y130.66 E3.56278
G1 X140.238 Y131.535 E3.6233
G1 X140.092 Y131.653 E3.63204
G1 X139.027 Y132.414 E3.69299
G1 X138.769 Y132.576 E3.70718
G1 X137.587 Y133.221 E3.76988
G1 X137.444 Y133.288 E3.77723
G1 X136.163 Y133.793 E3.84135
G1 X135.823 Y133.903 E3.85799
G1 X134.581 Y134.226 E3.91774
G1 X134.43 Y134.256 E3.92491
G1 X133.156 Y134.433 E3.98481
G1 X132.929 Y134.451 E3.99541
G1 X132.24 Y134.484 E4.02753
G1 X131.33 Y134.499 E4.06991
G1 X103.698 Y134.5 E5.35657
G1 X103.101 Y134.493 E5.38437
G1 X102.709 Y134.481 E5.40263
G1 X102.199 Y134.456 E5.42641
G1 X100.84 Y134.304 E5.49008
G1 X100.606 Y134.263 E5.50115
G1 X99.69 Y134.062 E5.54481
G1 X99.085 Y133.883 E5.57419
G1 X98.874 Y133.814 E5.58453
G1 X97.825 Y133.411 E5.63685
G1 X97.645 Y133.331 E5.64603
G1 X96.554 Y132.771 E5.70313
G1 X96.373 Y132.665 E5.7129
G1 X95.244 Y131.906 E5.77624
G1 X94.992 Y131.713 E5.79102
G1 X94.001 Y130.856 E5.85203
G1 X93.841 Y130.7 E5.86244
G1 X92.965 Y129.738 E5.92302
G1 X92.847 Y129.592 E5.93176
G1 X92.086 Y128.527 E5.99271
G1 X91.924 Y128.269 E6.0069
G1 X91.281 Y127.091 E6.06939
G1 X91.213 Y126.946 E6.07685
G1 X90.703 Y125.651 E6.14165
G1 X90.594 Y125.313 E6.15819
G1 X90.294 Y124.18 E6.21277
G1 X90.274 Y124.084 E6.21733
G1 X90.122 Y123.159 E6.26098
G1 X90.075 Y122.681 E6.28335
G1 X90.041 Y122.237 E6.30408
G1 X90.01 Y121.55 E6.3361
G1 X90 Y120.751 E6.37331
G1 X90.001 Y114.051 E6.68529
G1 X90.007 Y113.601 E6.70625
G1 X90.019 Y113.212 E6.72437
G1 X90.044 Y112.7 E6.74824
G1 X90.195 Y111.343 E6.81182
G1 X90.235 Y111.114 E6.82264
G1 X90.436 Y110.198 E6.86631
G1 X90.611 Y109.602 E6.89523
G1 X90.681 Y109.387 E6.90576
G1 X91.096 Y108.309 E6.95955
G1 X91.175 Y108.132 E6.96857
G1 X91.724 Y107.063 E7.02453
G1 X91.831 Y106.88 E7.0344
G1 X92.577 Y105.766 E7.09683
G1 X92.769 Y105.514 E7.11158
G1 X93.369 Y104.792 E7.1553
G1 X93.692 Y104.451 E7.17717
G1 X93.85 Y104.291 E7.18764
G1 X94.734 Y103.488 E7.24325
G0 F6000 X94.986 Y103.798
G1 F1200 X95.131 Y103.68 E7.25195
G1 X96.185 Y102.925 E7.31232
G1 X96.443 Y102.763 E7.32651
G1 X97.583 Y102.141 E7.38698
G1 X97.726 Y102.074 E7.39433
G1 X98.96 Y101.588 E7.45609
G1 X99.3 Y101.478 E7.47273
G1 X100.497 Y101.166 E7.53033
G1 X100.648 Y101.136 E7.5375
G1 X101.876 Y100.966 E7.59522
G1 X102.103 Y100.948 E7.60583
G1 X102.766 Y100.916 E7.63673
G1 X103.676 Y100.901 E7.67911
G1 X131.302 Y100.9 E8.9655
G1 X131.894 Y100.907 E8.99306
G1 X132.273 Y100.919 E9.01072
G1 X132.782 Y100.944 E9.03445
G1 X134.091 Y101.09 E9.09578
G1 X134.325 Y101.131 E9.10684
G1 X135.224 Y101.329 E9.14971
G1 X135.776 Y101.492 E9.17651
G1 X135.985 Y101.56 E9.18674
G1 X137.005 Y101.951 E9.23761
G1 X137.183 Y102.03 E9.24668
G1 X138.227 Y102.565 E9.3013
G1 X138.412 Y102.673 E9.31128
G1 X139.513 Y103.412 E9.37302
G1 X139.765 Y103.605 E9.3878
G1 X140.72 Y104.43 E9.44656
G1 X140.88 Y104.586 E9.45697
G1 X141.724 Y105.513 E9.51535
G1 X141.842 Y105.659 E9.52409
G1 X142.575 Y106.685 E9.5828
G1 X142.737 Y106.943 E9.59699
G1 X143.359 Y108.083 E9.65746
G1 X143.426 Y108.226 E9.66481
G1 X143.912 Y109.46 E9.72657
G1 X144.022 Y109.8 E9.74321
G1 X144.29 Y110.788 E9.79087
G1 X144.31 Y110.879 E9.79521
G1 X144.468 Y111.786 E9.83808
G1 X144.527 Y112.355 E9.86472
G1 X144.562 Y112.818 E9.88634
G1 X144.591 Y113.471 E9.91678
G1 X144.6 Y114.197 E9.95058
G1 X144.599 Y120.943 E10.26471
G1 X144.593 Y121.393 E10.28566
G1 X144.581 Y121.771 E10.30327
G1 X144.556 Y122.281 E10.32705
G1 X144.414 Y123.571 E10.38748
G1 X144.374 Y123.802 E10.3984
G1 X144.177 Y124.701 E10.44125
G1 X144.013 Y125.258 E10.46829
G1 X143.945 Y125.468 E10.47857
G1 X143.545 Y126.513 E10.53067
G1 X143.464 Y126.695 E10.53994
G1 X142.931 Y127.735 E10.59436
G1 X142.824 Y127.918 E10.60423
G1 X142.096 Y129.003 E10.66507
G1 X141.905 Y129.253 E10.67972
G1 X141.07 Y130.219 E10.73918
G1 X140.912 Y130.381 E10.74972
G1 X139.987 Y131.224 E10.80799
G1 X139.841 Y131.342 E10.81673
G1 X138.815 Y132.075 E10.87545
G1 X138.557 Y132.237 E10.88963
G1 X137.417 Y132.859 E10.9501
G1 X137.274 Y132.926 E10.95746
G1 X136.04 Y133.412 E11.01921
G1 X135.7 Y133.522 E11.03585
G1 X134.503 Y133.834 E11.09345
G1 X134.352 Y133.864 E11.10062
G1 X133.124 Y134.034 E11.15835
G1 X132.897 Y134.052 E11.16895
G1 X132.234 Y134.084 E11.19986
G1 X131.324 Y134.099 E11.24224
G1 X103.698 Y134.1 E12.52862
G1 X103.107 Y134.093 E12.55614
G1 X102.729 Y134.081 E12.57375
G1 X102.219 Y134.056 E12.59753
G1 X100.909 Y133.91 E12.6589
G1 X100.675 Y133.869 E12.66997
G1 X99.776 Y133.671 E12.71283
G1 X99.209 Y133.503 E12.74037
G1 X98.998 Y133.434 E12.7507
G1 X97.988 Y133.045 E12.8011
G1 X97.808 Y132.965 E12.81027
G1 X96.756 Y132.426 E12.86531
G1 X96.575 Y132.32 E12.87508
G1 X95.487 Y131.588 E12.93614
G1 X95.235 Y131.395 E12.95092
G1 X94.28 Y130.57 E13.00969
G1 X94.12 Y130.414 E13.02009
G1 X93.276 Y129.487 E13.07847
G1 X93.158 Y129.341 E13.08721
G1 X92.425 Y128.315 E13.14592
G1 X92.263 Y128.057 E13.16011
G1 X91.643 Y126.921 E13.22037
G1 X91.575 Y126.776 E13.22783
G1 X91.084 Y125.528 E13.29028
G1 X90.975 Y125.19 E13.30681
G1 X90.686 Y124.099 E13.35937
G1 X90.666 Y124.003 E13.36393
G1 X90.474 Y122.65 E13.42756
G1 X90.44 Y122.206 E13.4483
G1 X90.41 Y121.545 E13.47911
G1 X90.4 Y120.751 E13.51609
G1 X90.401 Y114.057 E13.82779
G1 X90.407 Y113.607 E13.84874
G1 X90.419 Y113.231 E13.86626
G1 X90.444 Y112.719 E13.89013
G1 X90.589 Y111.412 E13.95136
G1 X90.629 Y111.183 E13.96219
G1 X90.827 Y110.284 E14.00505
G1 X90.992 Y109.725 E14.03219
G1 X91.062 Y109.51 E14.04272
G1 X91.461 Y108.472 E14.0945
G1 X91.54 Y108.295 E14.10353
G1 X92.069 Y107.265 E14.15744
G1 X92.176 Y107.082 E14.16731
G1 X92.895 Y106.008 E14.2275
G1 X93.087 Y105.756 E14.24225
G1 X93.977 Y104.732 E14.30542
G1 X94.135 Y104.572 E14.31589
G1 X94.986 Y103.798 E14.36946
G0 F6000 X95.239 Y104.109
G1 F1200 X95.384 Y103.991 E14.37816
G1 X96.398 Y103.264 E14.43626
G1 X96.656 Y103.102 E14.45044
G1 X97.752 Y102.504 E14.50858
G1 X97.895 Y102.437 E14.51593
G1 X99.083 Y101.968 E14.57541
G1 X99.423 Y101.858 E14.59205
G1 X100.575 Y101.559 E14.64747
G1 X100.726 Y101.529 E14.65464
G1 X101.908 Y101.365 E14.7102
G1 X102.135 Y101.347 E14.7208
G1 X102.773 Y101.316 E14.75055
G1 X103.683 Y101.301 E14.79293
G1 X131.302 Y101.3 E16.07898
G1 X131.889 Y101.307 E16.10632
G1 X132.253 Y101.318 E16.12328
G1 X132.762 Y101.343 E16.14701
G1 X134.022 Y101.484 E16.20604
G1 X134.256 Y101.525 E16.2171
G1 X135.138 Y101.72 E16.25917
G1 X135.652 Y101.872 E16.28412
G1 X135.861 Y101.94 E16.29436
G1 X136.843 Y102.317 E16.34334
G1 X137.021 Y102.396 E16.35241
G1 X138.025 Y102.91 E16.40493
G1 X138.21 Y103.018 E16.4149
G1 X139.27 Y103.729 E16.47434
G1 X139.522 Y103.922 E16.48912
G1 X140.441 Y104.717 E16.5457
G1 X140.601 Y104.873 E16.5561
G1 X141.413 Y105.764 E16.61224
G1 X141.531 Y105.91 E16.62098
G1 X142.236 Y106.898 E16.67749
G1 X142.398 Y107.156 E16.69168
G1 X142.996 Y108.252 E16.74982
G1 X143.063 Y108.395 E16.75717
G1 X143.532 Y109.583 E16.81664
G1 X143.642 Y109.923 E16.83328
G1 X143.899 Y110.873 E16.87911
G1 X143.919 Y110.964 E16.88345
G1 X144.074 Y111.854 E16.92551
G1 X144.128 Y112.385 E16.95037
G1 X144.163 Y112.848 E16.97199
G1 X144.191 Y113.476 E17.00126
G1 X144.2 Y114.197 E17.03483
G1 X144.199 Y120.938 E17.34872
G1 X144.193 Y121.388 E17.36968
G1 X144.182 Y121.751 E17.38659
G1 X144.157 Y122.261 E17.41037
G1 X144.019 Y123.502 E17.46851
G1 X143.979 Y123.733 E17.47942
G1 X143.786 Y124.616 E17.52151
G1 X143.633 Y125.135 E17.54671
G1 X143.565 Y125.345 E17.55698
G1 X143.18 Y126.35 E17.6071
G1 X143.099 Y126.532 E17.61637
G1 X142.585 Y127.533 E17.66877
G1 X142.478 Y127.716 E17.67864
G1 X141.778 Y128.76 E17.73717
G1 X141.587 Y129.01 E17.75182
G1 X140.784 Y129.94 E17.80903
G1 X140.626 Y130.102 E17.81957
G1 X139.736 Y130.913 E17.87564
G1 X139.59 Y131.031 E17.88438
G1 X138.602 Y131.736 E17.9409
G1 X138.344 Y131.898 E17.95508
G1 X137.248 Y132.496 E18.01322
G1 X137.105 Y132.563 E18.02057
G1 X135.917 Y133.032 E18.08004
G1 X135.577 Y133.142 E18.09668
G1 X134.425 Y133.441 E18.1521
G1 X134.274 Y133.471 E18.15927
G1 X133.092 Y133.635 E18.21484
G1 X132.865 Y133.653 E18.22544
G1 X132.227 Y133.684 E18.25518
G1 X131.317 Y133.699 E18.29756
G1 X103.698 Y133.7 E19.58362
G1 X103.112 Y133.693 E19.61091
G1 X102.749 Y133.682 E19.62782
G1 X102.239 Y133.657 E19.6516
G1 X100.978 Y133.516 E19.71068
G1 X100.744 Y133.475 E19.72174
G1 X99.862 Y133.28 E19.7638
G1 X99.334 Y133.123 E19.78945
G1 X99.123 Y133.054 E19.79979
G1 X98.15 Y132.68 E19.84833
G1 X97.97 Y132.6 E19.8575
G1 X96.958 Y132.081 E19.91046
G1 X96.777 Y131.975 E19.92023
G1 X95.73 Y131.271 E19.97897
G1 X95.478 Y131.078 E19.99375
G1 X94.559 Y130.283 E20.05034
G1 X94.399 Y130.127 E20.06074
G1 X93.587 Y129.236 E20.11688
G1 X93.469 Y129.09 E20.12562
G1 X92.764 Y128.102 E20.18213
G1 X92.602 Y127.844 E20.19632
G1 X92.005 Y126.751 E20.25431
G1 X91.937 Y126.606 E20.26177
G1 X91.464 Y125.406 E20.32183
G1 X91.355 Y125.068 E20.33837
G1 X91.077 Y124.017 E20.38899
G1 X91.057 Y123.921 E20.39355
G1 X90.873 Y122.62 E20.45474
G1 X90.839 Y122.176 E20.47547
G1 X90.81 Y121.539 E20.50516
G1 X90.8 Y120.751 E20.54186
G1 X90.801 Y114.062 E20.85333
G1 X90.807 Y113.612 E20.87428
G1 X90.818 Y113.251 E20.8911
G1 X90.843 Y112.739 E20.91497
G1 X90.983 Y111.481 E20.97391
G1 X91.023 Y111.252 E20.98473
G1 X91.218 Y110.37 E21.0268
G1 X91.372 Y109.849 E21.05209
G1 X91.442 Y109.634 E21.06262
G1 X91.827 Y108.635 E21.11247
G1 X91.906 Y108.458 E21.1215
G1 X92.415 Y107.467 E21.17338
G1 X92.522 Y107.284 E21.18325
G1 X93.214 Y106.25 E21.24118
G1 X93.406 Y105.998 E21.25593
G1 X94.261 Y105.013 E21.31667
G1 X94.419 Y104.853 E21.32714
G1 X95.239 Y104.109 E21.3787
G1 F2700 E16.3787
;MESH:Midi Connector Experiment v1.stl
G0 F6000 X115.565 Y114.112
G0 X118.084 Y115.391
G0 X124.29 Y118.407
G0 X122.888 Y118.798
G0 X124.191 Y120.461
G0 X125.111 Y121.242
G0 X126.005 Y121.654
G0 X126.988 Y122.072
;TYPE:WALL-INNER
G1 F2700 E21.3787
G1 F1200 X127.409 Y122.099 E21.39834
G1 X127.816 Y122.09 E21.4173
G1 X128.241 Y122.04 E21.43722
G1 X128.631 Y121.96 E21.45576
G1 X129.046 Y121.833 E21.47597
G1 X129.434 Y121.675 E21.49548
G1 X129.804 Y121.481 E21.51493
G1 X130.157 Y121.256 E21.53442
G1 X130.487 Y120.998 E21.55393
G1 X130.793 Y120.712 E21.57343
G1 X131.07 Y120.4 E21.59286
G1 X131.32 Y120.065 E21.61232
G1 X131.538 Y119.708 E21.6318
G1 X131.722 Y119.328 E21.65146
G1 X131.87 Y118.938 E21.67088
G1 X131.982 Y118.537 E21.69027
G1 X132.058 Y118.121 E21.70996
G1 X132.096 Y117.706 E21.72937
G1 X132.096 Y117.288 E21.74883
G1 X132.057 Y116.868 E21.76847
G1 X131.981 Y116.458 E21.78789
G1 X131.869 Y116.056 E21.80732
G1 X131.718 Y115.663 E21.82692
G1 X131.538 Y115.293 E21.84608
G1 X131.317 Y114.93 E21.86587
G1 X131.067 Y114.595 E21.88533
G1 X130.788 Y114.283 E21.90482
G1 X130.483 Y113.997 E21.92429
G1 X130.152 Y113.74 E21.94381
G1 X129.799 Y113.514 E21.96332
G1 X129.42 Y113.319 E21.98317
G1 X129.032 Y113.161 E22.00268
G1 X128.63 Y113.041 E22.02221
G1 X128.216 Y112.957 E22.04188
G1 X127.807 Y112.909 E22.06106
G1 X127.383 Y112.901 E22.08081
G1 X126.978 Y112.929 E22.09971
G1 X126.556 Y112.997 E22.11961
G1 X126.154 Y113.101 E22.13895
G1 X125.763 Y113.24 E22.15827
G1 X125.383 Y113.414 E22.17773
G1 X125.019 Y113.625 E22.19732
G1 X124.677 Y113.866 E22.2168
G1 X124.359 Y114.139 E22.23632
G1 X124.068 Y114.436 E22.25568
G1 X123.802 Y114.762 E22.27527
G1 X123.567 Y115.114 E22.29498
G1 X123.366 Y115.48 E22.31442
G1 X123.201 Y115.863 E22.33384
G1 X123.068 Y116.263 E22.35347
G1 X122.975 Y116.671 E22.37296
G1 X122.919 Y117.083 E22.39232
G1 X122.9 Y117.505 E22.41199
G1 X122.919 Y117.921 E22.43138
G1 X122.975 Y118.334 E22.45079
G1 X123.071 Y118.746 E22.47048
G1 X123.202 Y119.142 E22.48991
G1 X123.368 Y119.525 E22.50934
G1 X123.572 Y119.894 E22.52898
G1 X123.805 Y120.242 E22.54848
G1 X124.071 Y120.569 E22.56811
G1 X124.365 Y120.866 E22.58757
G1 X124.683 Y121.137 E22.60702
G1 X125.025 Y121.377 E22.62647
G1 X125.388 Y121.588 E22.64603
G1 X125.773 Y121.764 E22.66574
G1 X126.17 Y121.904 E22.68534
G1 X126.578 Y122.006 E22.70492
G1 X126.988 Y122.072 E22.72426
G0 F6000 X127.033 Y121.674
;TYPE:WALL-OUTER
G1 F1200 X127.418 Y121.699 E22.74222
G1 X127.788 Y121.691 E22.75946
G1 X128.177 Y121.645 E22.7777
G1 X128.532 Y121.572 E22.79457
G1 X128.912 Y121.456 E22.81307
G1 X129.265 Y121.312 E22.83083
G1 X129.603 Y121.135 E22.84859
G1 X129.926 Y120.929 E22.86643
G1 X130.227 Y120.694 E22.88421
G1 X130.506 Y120.433 E22.902
G1 X130.76 Y120.147 E22.91981
G1 X130.988 Y119.841 E22.93758
G1 X131.186 Y119.516 E22.9553
G1 X131.354 Y119.169 E22.97325
G1 X131.49 Y118.813 E22.991
G1 X131.592 Y118.447 E23.00869
G1 X131.661 Y118.067 E23.02668
G1 X131.696 Y117.688 E23.0444
G1 X131.696 Y117.307 E23.06214
G1 X131.66 Y116.923 E23.0801
G1 X131.591 Y116.548 E23.09785
G1 X131.489 Y116.182 E23.11554
G1 X131.351 Y115.822 E23.1335
G1 X131.187 Y115.485 E23.15095
G1 X130.985 Y115.154 E23.16901
G1 X130.757 Y114.848 E23.18677
G1 X130.502 Y114.563 E23.20458
G1 X130.223 Y114.302 E23.22237
G1 X129.921 Y114.067 E23.24019
G1 X129.599 Y113.861 E23.25799
G1 X129.253 Y113.683 E23.27611
G1 X128.899 Y113.539 E23.2939
G1 X128.533 Y113.429 E23.3117
G1 X128.153 Y113.352 E23.32975
G1 X127.78 Y113.309 E23.34724
G1 X127.393 Y113.301 E23.36526
G1 X127.024 Y113.327 E23.38248
G1 X126.638 Y113.389 E23.40069
G1 X126.271 Y113.484 E23.41834
G1 X125.914 Y113.611 E23.43599
G1 X125.567 Y113.77 E23.45376
G1 X125.235 Y113.962 E23.47162
G1 X124.923 Y114.182 E23.48939
G1 X124.633 Y114.431 E23.50719
G1 X124.366 Y114.703 E23.52494
