;FLAVOR:Marlin
;TIME:9666
;Filament used: 5.41374m
;Layer height: 0.2
;MINX:59.269
;MINY:44.344
;MINZ:0.2
;MAXX:169.599
;MAXY:192.656
;MAXZ:11
;Generated with Cura_SteamEngine 4.13.1
M140 S50
M105
M190 S50
M104 S200
M105
M109 S200
M82 ;absolute extrusion mode
; Ender 3 Custom Start G-code
G92 E0 ; Reset Extruder
G28 ; Home all axes
G1 Z2.0 F3000 ; Move Z Axis up little to prevent scratching of Heat Bed
G1 X0.1 Y20 Z0.3 F5000.0 ; Move to start position
G1 X0.1 Y200.0 Z0.3 F1500.0 E15 ; Draw the first line
G1 X0.4 Y200.0 Z0.3 F5000.0 ; Move to side a little
G1 X0.4 Y20 Z0.3 F1500.0 E30 ; Draw the second line
G92 E0 ; Reset Extruder
G1 Z2.0 F3000 ; Move Z Axis up little to prevent scratching of Heat Bed
G1 X5 Y20 Z0.3 F5000.0 ; Move over to prevent blob squish
G92 E0
G92 E0
G1 F2700 E-5
;LAYER_COUNT:55
;LAYER:0
M107
G0 F6000 X61.837 Y52.116 Z0.2
;TYPE:SKIRT
G1 F2700 E0
G1 F1200 X62.447 Y51.403 E0.03121
G1 X62.9 Y50.946 E0.05261
G1 X63.111 Y50.745 E0.0623
G1 X63.817 Y50.128 E0.09349
G1 X64.573 Y49.573 E0.12468
G1 X65.263 Y49.146 E0.15167
G1 X65.446 Y49.042 E0.15867
G1 X66.28 Y48.614 E0.18985
G1 X67.148 Y48.259 E0.22104
G1 X67.748 Y48.062 E0.24204
G1 X67.96 Y47.999 E0.2494
G1 X68.869 Y47.77 E0.28058
G1 X69.795 Y47.62 E0.31178
G1 X70.402 Y47.565 E0.33205
G1 X70.586 Y47.553 E0.33818
G1 X73.204 Y47.35 E0.42552
G1 X75.693 Y47.085 E0.50877
G1 X78.191 Y46.749 E0.5926
G1 X80.653 Y46.345 E0.67559
G1 X83.12 Y45.869 E0.75915
G1 X86.294 Y45.141 E0.86746
G1 X86.814 Y45.025 E0.88518
G1 X88.081 Y44.819 E0.92788
G1 X88.692 Y44.756 E0.94831
G1 X89.036 Y44.726 E0.95979
G1 X89.442 Y44.697 E0.97333
G1 X90.063 Y44.67 E0.994
G1 X90.669 Y44.661 E1.01416
G1 X91.002 Y44.661 E1.02524
G1 X91.455 Y44.668 E1.0403
G1 X91.927 Y44.686 E1.05601
G1 X94.481 Y44.835 E1.14111
G1 X97.004 Y44.911 E1.22506
G1 X99.527 Y44.916 E1.30897
G1 X102.05 Y44.849 E1.39292
G1 X104.548 Y44.712 E1.47613
G1 X107.075 Y44.502 E1.56047
G1 X107.885 Y44.418 E1.58755
G1 X108.176 Y44.393 E1.59727
G1 X108.808 Y44.357 E1.61832
G1 X109.127 Y44.348 E1.62893
G1 X109.437 Y44.344 E1.63925
G1 X110.91 Y44.344 E1.68824
G1 X111.787 Y44.356 E1.71741
G1 X112.724 Y44.411 E1.74863
G1 X113.652 Y44.545 E1.77981
G1 X114.565 Y44.758 E1.811
G1 X115.701 Y45.142 E1.85088
G1 X116.183 Y45.336 E1.86816
G1 X118.012 Y46.101 E1.9341
G1 X120.372 Y47.01 E2.01822
G1 X122.734 Y47.844 E2.10153
G1 X125.146 Y48.62 E2.1858
G1 X127.536 Y49.315 E2.26859
G1 X129.997 Y49.955 E2.35316
G1 X132.467 Y50.526 E2.43748
G1 X134.901 Y51.012 E2.52003
G1 X137.393 Y51.439 E2.60413
G1 X139.901 Y51.796 E2.68838
G1 X142.381 Y52.079 E2.7714
G1 X144.896 Y52.293 E2.85536
G1 X147.378 Y52.434 E2.93804
G1 X149.965 Y52.507 E3.02412
G1 X151.264 Y52.516 E3.06732
G1 X158.065 Y52.517 E3.29353
G1 X158.763 Y52.528 E3.31675
G1 X159.7 Y52.583 E3.34796
G1 X160.628 Y52.717 E3.37915
G1 X161.541 Y52.93 E3.41033
G1 X162.433 Y53.22 E3.44153
G1 X163.297 Y53.585 E3.47272
G1 X164.127 Y54.022 E3.50392
G1 X164.916 Y54.528 E3.5351
G1 X165.66 Y55.1 E3.56631
G1 X166.352 Y55.733 E3.5975
G1 X166.988 Y56.422 E3.62869
G1 X167.563 Y57.164 E3.65991
G1 X168.072 Y57.951 E3.69109
G1 X168.513 Y58.779 E3.72229
G1 X168.881 Y59.641 E3.75346
G1 X169.174 Y60.532 E3.78466
G1 X169.391 Y61.445 E3.81587
G1 X169.529 Y62.372 E3.84704
G1 X169.586 Y63.217 E3.87521
G1 X169.595 Y63.536 E3.88582
G1 X169.599 Y63.846 E3.89614
G1 X169.598 Y85.935 E4.63082
G1 X169.588 Y86.632 E4.654
G1 X169.538 Y87.527 E4.68382
G1 X169.52 Y87.712 E4.69
G1 X169.296 Y90.364 E4.77852
G1 X169.154 Y92.895 E4.86283
G1 X169.083 Y95.419 E4.94682
G1 X169.083 Y97.943 E5.03076
G1 X169.154 Y100.428 E5.11345
G1 X169.296 Y102.921 E5.1965
G1 X169.437 Y104.444 E5.24737
G1 X169.458 Y104.858 E5.26116
G1 X169.548 Y105.905 E5.29611
G1 X169.584 Y106.516 E5.31647
G1 X169.594 Y106.846 E5.32745
G1 X169.599 Y107.179 E5.33853
G1 X169.598 Y129.269 E6.07324
G1 X169.588 Y129.966 E6.09643
G1 X169.538 Y130.861 E6.12624
G1 X169.52 Y131.046 E6.13242
G1 X169.296 Y133.698 E6.22094
G1 X169.154 Y136.229 E6.30526
G1 X169.083 Y138.753 E6.38924
G1 X169.083 Y141.277 E6.47319
G1 X169.154 Y143.762 E6.55587
G1 X169.298 Y146.283 E6.63986
G1 X169.55 Y149.255 E6.73906
G1 X169.584 Y149.849 E6.75885
G1 X169.594 Y150.183 E6.76997
G1 X169.599 Y150.512 E6.78091
G1 X169.598 Y172.566 E7.51443
G1 X169.588 Y173.293 E7.53861
G1 X169.535 Y174.23 E7.56983
G1 X169.403 Y175.158 E7.601
G1 X169.192 Y176.072 E7.6322
G1 X168.903 Y176.964 E7.66339
G1 X168.54 Y177.829 E7.69459
G1 X168.105 Y178.66 E7.72579
G1 X167.6 Y179.45 E7.75697
G1 X167.03 Y180.195 E7.78817
G1 X166.399 Y180.889 E7.81937
G1 X165.71 Y181.526 E7.85058
G1 X164.97 Y182.102 E7.88177
G1 X164.184 Y182.613 E7.91295
G1 X163.357 Y183.055 E7.94414
G1 X162.495 Y183.425 E7.97534
G1 X161.605 Y183.72 E8.00652
G1 X160.693 Y183.939 E8.03772
G1 X159.766 Y184.079 E8.0689
G1 X158.898 Y184.138 E8.09784
G1 X158.578 Y184.147 E8.10848
G1 X158.269 Y184.151 E8.11876
G1 X152.047 Y184.151 E8.32571
G1 X149.439 Y184.188 E8.41246
G1 X146.918 Y184.295 E8.49638
G1 X144.423 Y184.472 E8.57957
G1 X141.923 Y184.72 E8.66313
G1 X139.43 Y185.039 E8.74673
G1 X136.937 Y185.43 E8.83066
G1 X134.447 Y185.893 E8.91489
G1 X131.983 Y186.423 E8.99872
G1 X129.581 Y187.012 E9.08098
G1 X127.125 Y187.688 E9.1657
G1 X124.715 Y188.426 E9.24953
G1 X122.323 Y189.233 E9.3335
G1 X119.983 Y190.096 E9.41645
G1 X117.617 Y191.046 E9.50125
G1 X116.825 Y191.389 E9.52996
G1 X115.856 Y191.794 E9.56489
G1 X114.976 Y192.119 E9.59609
G1 X113.991 Y192.385 E9.63002
G1 X113.068 Y192.549 E9.6612
G1 X111.916 Y192.643 E9.69965
G1 X111.598 Y192.652 E9.71023
G1 X111.287 Y192.656 E9.72057
G1 X109.656 Y192.655 E9.77482
G1 X108.959 Y192.645 E9.79801
G1 X108.045 Y192.594 E9.82845
G1 X107.251 Y192.516 E9.85499
G1 X104.713 Y192.3 E9.93971
G1 X102.229 Y192.159 E10.02246
G1 X99.671 Y192.087 E10.10757
G1 X97.183 Y192.087 E10.19032
G1 X94.643 Y192.159 E10.27484
G1 X91.953 Y192.313 E10.36445
G1 X91.484 Y192.33 E10.38006
G1 X90.867 Y192.339 E10.40059
G1 X90.544 Y192.339 E10.41133
G1 X90.14 Y192.333 E10.42477
G1 X89.496 Y192.304 E10.44621
G1 X88.884 Y192.259 E10.46662
G1 X88.582 Y192.233 E10.4767
G1 X88.128 Y192.187 E10.49188
G1 X87.2 Y192.053 E10.52306
G1 X86.559 Y191.912 E10.54489
G1 X85.657 Y191.686 E10.57582
G1 X83.089 Y191.079 E10.66359
G1 X80.6 Y190.564 E10.74813
G1 X78.192 Y190.142 E10.82944
G1 X75.65 Y189.765 E10.91491
G1 X73.147 Y189.468 E10.99874
G1 X72.574 Y189.413 E11.01789
G1 X71.195 Y189.274 E11.06399
G1 X70.86 Y189.235 E11.0752
G1 X70.64 Y189.206 E11.08258
G1 X70.153 Y189.13 E11.09898
G1 X69.129 Y188.948 E11.13357
G1 X68.214 Y188.745 E11.16474
G1 X67.046 Y188.362 E11.20563
G1 X66.77 Y188.254 E11.21548
G1 X65.912 Y187.875 E11.24668
G1 X65.089 Y187.425 E11.27788
G1 X64.178 Y186.81 E11.31444
G1 X63.97 Y186.654 E11.32308
G1 X63.244 Y186.06 E11.35428
G1 X62.572 Y185.406 E11.38547
G1 X61.878 Y184.595 E11.42097
G1 X61.726 Y184.399 E11.42922
G1 X61.183 Y183.634 E11.46043
G1 X60.707 Y182.826 E11.49162
G1 X60.307 Y181.991 E11.52241
G1 X60.211 Y181.767 E11.53052
G1 X59.879 Y180.89 E11.56171
G1 X59.623 Y179.988 E11.59289
G1 X59.446 Y179.082 E11.6236
G1 X59.401 Y178.785 E11.63359
G1 X59.283 Y177.499 E11.67654
G1 X59.275 Y177.256 E11.68462
G1 X59.269 Y176.894 E11.69667
G1 X59.269 Y60.06 E15.58258
G1 X59.278 Y59.436 E15.60334
G1 X59.331 Y58.507 E15.63429
G1 X59.363 Y58.185 E15.64505
G1 X59.495 Y57.257 E15.67623
G1 X59.706 Y56.343 E15.70742
G1 X59.979 Y55.494 E15.73709
G1 X60.054 Y55.289 E15.74435
G1 X60.413 Y54.422 E15.77556
G1 X60.845 Y53.59 E15.80674
G1 X61.187 Y53.034 E15.82845
G1 X61.29 Y52.877 E15.83469
G1 X61.837 Y52.116 E15.86587
G0 F6000 X62.162 Y52.349
G1 F1200 X62.763 Y51.652 E15.89648
G1 X63.176 Y51.236 E15.91597
G1 X63.387 Y51.035 E15.92567
G1 X64.08 Y50.43 E15.95626
G1 X64.824 Y49.887 E15.9869
G1 X65.461 Y49.494 E16.01179
G1 X65.644 Y49.39 E16.01879
G1 X66.463 Y48.971 E16.04939
G1 X67.316 Y48.624 E16.08002
G1 X67.862 Y48.445 E16.09913
G1 X68.074 Y48.382 E16.10649
G1 X68.967 Y48.158 E16.13711
G1 X69.876 Y48.013 E16.16772
G1 X70.427 Y47.964 E16.18612
G1 X70.642 Y47.95 E16.19329
G1 X73.206 Y47.751 E16.27882
G1 X75.757 Y47.48 E16.36415
G1 X78.238 Y47.146 E16.44741
G1 X80.757 Y46.733 E16.53231
G1 X83.201 Y46.261 E16.6151
G1 X86.381 Y45.531 E16.72362
G1 X86.901 Y45.415 E16.74134
G1 X88.122 Y45.217 E16.78248
G1 X88.733 Y45.154 E16.80291
G1 X89.065 Y45.125 E16.81399
G1 X89.471 Y45.096 E16.82753
G1 X90.069 Y45.07 E16.84744
G1 X90.675 Y45.061 E16.8676
G1 X90.996 Y45.061 E16.87828
G1 X91.449 Y45.068 E16.89334
G1 X91.904 Y45.085 E16.90849
G1 X94.482 Y45.236 E16.99438
G1 X96.991 Y45.311 E17.07787
G1 X99.537 Y45.316 E17.16255
G1 X102.047 Y45.249 E17.24606
G1 X104.566 Y45.111 E17.32997
G1 X107.15 Y44.896 E17.41621
G1 X107.711 Y44.837 E17.43497
G1 X108.211 Y44.792 E17.45167
G1 X108.819 Y44.757 E17.47192
G1 X109.138 Y44.748 E17.48254
G1 X109.437 Y44.744 E17.49248
G1 X110.91 Y44.744 E17.54148
G1 X111.781 Y44.756 E17.57045
G1 X112.7 Y44.811 E17.60107
G1 X113.611 Y44.944 E17.63169
G1 X114.507 Y45.157 E17.66232
G1 X115.553 Y45.513 E17.69907
G1 X116.029 Y45.705 E17.71614
G1 X117.863 Y46.472 E17.78226
G1 X120.231 Y47.384 E17.86666
G1 X122.615 Y48.226 E17.95075
G1 X125.018 Y48.999 E18.03471
G1 X127.429 Y49.7 E18.11822
G1 X129.921 Y50.349 E18.20387
G1 X132.365 Y50.913 E18.28729
G1 X134.827 Y51.405 E18.3708
G1 X137.341 Y51.836 E18.45564
G1 X139.836 Y52.191 E18.53946
G1 X142.338 Y52.476 E18.62321
G1 X144.876 Y52.692 E18.70793
G1 X147.378 Y52.834 E18.79128
G1 X149.951 Y52.907 E18.87689
G1 X151.262 Y52.916 E18.9205
G1 X158.059 Y52.917 E19.14657
G1 X158.757 Y52.928 E19.16979
G1 X159.676 Y52.983 E19.20041
G1 X160.587 Y53.117 E19.23103
G1 X161.483 Y53.329 E19.26166
G1 X162.357 Y53.619 E19.29228
G1 X163.202 Y53.983 E19.32289
G1 X164.013 Y54.419 E19.35351
G1 X164.783 Y54.924 E19.38414
G1 X165.506 Y55.494 E19.41476
G1 X166.177 Y56.124 E19.44537
G1 X166.791 Y56.811 E19.47602
G1 X167.342 Y57.548 E19.50662
G1 X167.828 Y58.33 E19.53725
G1 X168.244 Y59.151 E19.56786
G1 X168.588 Y60.005 E19.59848
G1 X168.856 Y60.886 E19.62911
G1 X169.046 Y61.787 E19.65974
G1 X169.158 Y62.7 E19.69033
G1 X169.186 Y63.228 E19.70792
G1 X169.195 Y63.547 E19.71853
G1 X169.199 Y63.846 E19.72848
G1 X169.198 Y85.929 E20.46296
G1 X169.188 Y86.626 E20.48614
G1 X169.14 Y87.489 E20.51489
G1 X169.115 Y87.749 E20.52358
G1 X168.896 Y90.342 E20.61013
G1 X168.754 Y92.862 E20.69408
G1 X168.683 Y95.408 E20.77879
G1 X168.683 Y97.92 E20.86234
G1 X168.756 Y100.461 E20.94689
G1 X168.898 Y102.952 E21.02988
G1 X169.039 Y104.48 E21.08091
G1 X169.058 Y104.874 E21.09403
G1 X169.15 Y105.939 E21.12959
G1 X169.184 Y106.528 E21.14921
G1 X169.194 Y106.858 E21.16019
G1 X169.199 Y107.179 E21.17087
G1 X169.198 Y129.263 E21.90538
G1 X169.188 Y129.96 E21.92857
G1 X169.14 Y130.823 E21.95732
G1 X169.115 Y131.083 E21.966
G1 X168.896 Y133.676 E22.05256
G1 X168.754 Y136.196 E22.1365
G1 X168.683 Y138.742 E22.22122
G1 X168.683 Y141.254 E22.30477
G1 X168.756 Y143.795 E22.38932
G1 X168.899 Y146.306 E22.47297
G1 X169.152 Y149.288 E22.57251
G1 X169.184 Y149.861 E22.59159
G1 X169.194 Y150.195 E22.60271
G1 X169.199 Y150.512 E22.61325
G1 X169.198 Y172.561 E23.3466
G1 X169.188 Y173.288 E23.37079
G1 X169.135 Y174.207 E23.4014
G1 X169.003 Y175.118 E23.43202
G1 X168.792 Y176.014 E23.46264
G1 X168.505 Y176.889 E23.49326
G1 X168.142 Y177.735 E23.52388
G1 X167.708 Y178.547 E23.55451
G1 X167.204 Y179.318 E23.58514
G1 X166.636 Y180.042 E23.61575
G1 X166.007 Y180.714 E23.64636
G1 X165.322 Y181.329 E23.67698
G1 X164.586 Y181.882 E23.7076
G1 X163.805 Y182.37 E23.73823
G1 X162.985 Y182.788 E23.76884
G1 X162.131 Y183.133 E23.79948
G1 X161.251 Y183.402 E23.83008
G1 X160.35 Y183.595 E23.86073
G1 X159.437 Y183.708 E23.89133
G1 X158.887 Y183.738 E23.90965
G1 X158.567 Y183.747 E23.9203
G1 X158.269 Y183.751 E23.93021
G1 X152.041 Y183.751 E24.13735
G1 X149.416 Y183.788 E24.22467
G1 X146.908 Y183.895 E24.30816
G1 X144.388 Y184.073 E24.39219
G1 X141.873 Y184.322 E24.47624
G1 X139.384 Y184.641 E24.55971
G1 X136.832 Y185.042 E24.64563
G1 X134.401 Y185.494 E24.72787
G1 X131.909 Y186.03 E24.81265
G1 X129.452 Y186.632 E24.89679
G1 X127.007 Y187.305 E24.98113
G1 X124.607 Y188.04 E25.06462
G1 X122.193 Y188.854 E25.14935
G1 X119.843 Y189.721 E25.23266
G1 X117.457 Y190.679 E25.31817
G1 X116.671 Y191.02 E25.34667
G1 X115.702 Y191.425 E25.3816
G1 X114.838 Y191.743 E25.41222
G1 X113.904 Y191.995 E25.4444
G1 X112.998 Y192.155 E25.475
G1 X111.905 Y192.243 E25.51147
G1 X111.587 Y192.252 E25.52205
G1 X111.287 Y192.256 E25.53203
G1 X109.662 Y192.255 E25.58608
G1 X108.965 Y192.245 E25.60926
G1 X108.084 Y192.196 E25.63861
G1 X107.33 Y192.122 E25.66381
G1 X104.732 Y191.901 E25.75053
G1 X102.227 Y191.759 E25.83398
G1 X99.682 Y191.687 E25.91866
G1 X97.172 Y191.687 E26.00214
G1 X94.642 Y191.759 E26.08633
G1 X91.93 Y191.914 E26.17668
G1 X91.479 Y191.93 E26.19169
G1 X90.862 Y191.939 E26.21221
G1 X90.55 Y191.939 E26.22259
G1 X90.146 Y191.933 E26.23602
G1 X89.526 Y191.905 E26.25667
G1 X88.914 Y191.86 E26.27708
G1 X88.622 Y191.835 E26.28682
G1 X88.168 Y191.789 E26.302
G1 X87.257 Y191.657 E26.33262
G1 X86.657 Y191.524 E26.35306
G1 X85.716 Y191.288 E26.38533
G1 X83.191 Y190.692 E26.47162
G1 X80.685 Y190.173 E26.55673
G1 X78.247 Y189.745 E26.63906
G1 X75.719 Y189.371 E26.72406
G1 X73.184 Y189.069 E26.80897
G1 X72.614 Y189.015 E26.82801
G1 X71.235 Y188.876 E26.87411
G1 X70.913 Y188.838 E26.8849
G1 X70.693 Y188.809 E26.89228
G1 X70.223 Y188.736 E26.9081
G1 X69.199 Y188.554 E26.94269
G1 X68.3 Y188.354 E26.97332
G1 X67.191 Y187.989 E27.01215
G1 X66.915 Y187.881 E27.02201
G1 X66.073 Y187.509 E27.05263
G1 X65.267 Y187.065 E27.08323
G1 X64.418 Y186.49 E27.11734
G1 X64.21 Y186.334 E27.12598
G1 X63.498 Y185.75 E27.15661
G1 X62.84 Y185.107 E27.18721
G1 X62.194 Y184.35 E27.22031
G1 X62.042 Y184.154 E27.22856
G1 X61.51 Y183.403 E27.25917
G1 X61.045 Y182.608 E27.2898
G1 X60.675 Y181.834 E27.31834
G1 X60.579 Y181.61 E27.32644
G1 X60.253 Y180.748 E27.3571
G1 X60.004 Y179.862 E27.38771
G1 X59.842 Y179.022 E27.41616
G1 X59.797 Y178.725 E27.42615
G1 X59.683 Y177.486 E27.46753
G1 X59.675 Y177.243 E27.47562
G1 X59.669 Y176.894 E27.48723
G1 X59.669 Y60.066 E31.37294
G1 X59.678 Y59.442 E31.3937
G1 X59.729 Y58.547 E31.42352
G1 X59.761 Y58.225 E31.43428
G1 X59.892 Y57.313 E31.46492
G1 X60.101 Y56.417 E31.49553
G1 X60.354 Y55.631 E31.52299
G1 X60.429 Y55.426 E31.53025
G1 X60.783 Y54.576 E31.56087
G1 X61.209 Y53.76 E31.59149
G1 X61.521 Y53.253 E31.61129
G1 X61.624 Y53.096 E31.61754
G1 X62.162 Y52.349 E31.64815
G0 F6000 X62.487 Y52.583
G1 F1200 X63.078 Y51.901 E31.67817
G1 X63.452 Y51.526 E31.69578
G1 X63.663 Y51.325 E31.70548
G1 X64.343 Y50.731 E31.73551
G1 X65.074 Y50.2 E31.76556
G1 X65.658 Y49.842 E31.78834
G1 X65.841 Y49.738 E31.79534
G1 X66.645 Y49.327 E31.82537
G1 X67.483 Y48.989 E31.85543
G1 X67.975 Y48.829 E31.87264
G1 X68.187 Y48.766 E31.87999
G1 X69.064 Y48.547 E31.91006
G1 X69.956 Y48.407 E31.94009
G1 X70.452 Y48.363 E31.95665
G1 X70.699 Y48.347 E31.96488
G1 X73.247 Y48.15 E32.04988
G1 X75.777 Y47.881 E32.1345
G1 X78.318 Y47.538 E32.21979
G1 X80.831 Y47.126 E32.30448
G1 X83.25 Y46.66 E32.38642
G1 X86.468 Y45.922 E32.49623
G1 X86.988 Y45.806 E32.51395
G1 X88.163 Y45.615 E32.55354
G1 X88.774 Y45.552 E32.57397
G1 X89.093 Y45.524 E32.58462
G1 X89.499 Y45.495 E32.59816
G1 X90.075 Y45.47 E32.61734
G1 X90.681 Y45.461 E32.6375
G1 X90.99 Y45.461 E32.64777
G1 X91.443 Y45.468 E32.66284
G1 X91.881 Y45.484 E32.67742
G1 X94.483 Y45.636 E32.76411
G1 X96.978 Y45.711 E32.84713
G1 X99.546 Y45.716 E32.93254
G1 X102.045 Y45.649 E33.01569
G1 X104.621 Y45.508 E33.1015
G1 X107.181 Y45.296 E33.18693
G1 X107.954 Y45.215 E33.21278
G1 X108.245 Y45.19 E33.2225
G1 X108.83 Y45.157 E33.24199
G1 X109.149 Y45.148 E33.2526
G1 X109.437 Y45.144 E33.26218
G1 X110.91 Y45.144 E33.31117
G1 X111.775 Y45.156 E33.33995
G1 X112.676 Y45.21 E33.36997
G1 X113.57 Y45.344 E33.40003
G1 X114.447 Y45.556 E33.43004
G1 X115.404 Y45.885 E33.4637
G1 X115.875 Y46.074 E33.48058
G1 X117.713 Y46.842 E33.54684
G1 X120.091 Y47.759 E33.6316
G1 X122.497 Y48.609 E33.71648
G1 X124.899 Y49.381 E33.80039
G1 X127.354 Y50.095 E33.88543
G1 X129.802 Y50.732 E33.96956
G1 X132.294 Y51.307 E34.05462
