;FLAVOR:Marlin
;TIME:4008
;Filament used: 2.55616m
;Layer height: 0.28
;MINX:72.25
;MINY:50.959
;MINZ:0.28
;MAXX:162.75
;MAXY:192.637
;MAXZ:19
;Generated with Cura_SteamEngine 4.13.1
M140 S50
M105
M190 S50
M104 S200
M105
M109 S200
M82 ;absolute extrusion mode
; Ender 3 Custom Start G-code
G92 E0 ; Reset Extruder
G28 ; Home all axes
G1 Z2.0 F3000 ; Move Z Axis up little to prevent scratching of Heat Bed
G1 X0.1 Y20 Z0.3 F5000.0 ; Move to start position
G1 X0.1 Y200.0 Z0.3 F1500.0 E15 ; Draw the first line
G1 X0.4 Y200.0 Z0.3 F5000.0 ; Move to side a little
G1 X0.4 Y20 Z0.3 F1500.0 E30 ; Draw the second line
G92 E0 ; Reset Extruder
G1 Z2.0 F3000 ; Move Z Axis up little to prevent scratching of Heat Bed
G1 X5 Y20 Z0.3 F5000.0 ; Move over to prevent blob squish
G92 E0
G92 E0
G1 F2700 E-5
;LAYER_COUNT:50
;LAYER:0
M107
G0 F6000 X74.243 Y55.666 Z0.28
;TYPE:SKIRT
G1 F2700 E0
G1 F1200 X74.813 Y54.921 E0.04368
G1 X75.444 Y54.227 E0.08736
G1 X76.132 Y53.589 E0.13105
G1 X76.871 Y53.013 E0.17467
G1 X77.657 Y52.501 E0.21835
G1 X78.484 Y52.058 E0.26204
G1 X79.346 Y51.688 E0.30572
G1 X80.236 Y51.392 E0.34939
G1 X81.148 Y51.173 E0.39307
G1 X82.075 Y51.032 E0.43673
G1 X82.951 Y50.972 E0.47761
G1 X83.272 Y50.963 E0.49257
G1 X83.58 Y50.959 E0.50691
G1 X112.543 Y50.959 E1.85555
G1 X113.402 Y50.97 E1.89555
G1 X114.338 Y51.023 E1.93921
G1 X115.153 Y51.136 E1.97752
G1 X116.033 Y51.326 E2.01944
G1 X118.592 Y51.991 E2.14255
G1 X121.086 Y52.562 E2.26169
G1 X123.502 Y53.045 E2.37642
G1 X125.989 Y53.47 E2.4939
G1 X128.5 Y53.826 E2.61199
G1 X130.986 Y54.107 E2.72849
G1 X133.471 Y54.316 E2.84461
G1 X135.973 Y54.457 E2.9613
G1 X139.861 Y54.538 E3.14238
G1 X149.164 Y54.539 E3.57556
G1 X149.869 Y54.549 E3.60839
G1 X150.805 Y54.602 E3.65205
G1 X151.734 Y54.735 E3.69575
G1 X152.648 Y54.947 E3.73944
G1 X153.54 Y55.235 E3.78308
G1 X154.404 Y55.599 E3.82674
G1 X155.235 Y56.034 E3.87042
G1 X156.025 Y56.539 E3.91407
G1 X156.77 Y57.11 E3.95778
G1 X157.463 Y57.742 E4.00146
G1 X157.851 Y58.147 E4.02757
G1 X158.115 Y58.437 E4.04583
G1 X158.328 Y58.665 E4.06036
G1 X158.442 Y58.798 E4.06852
G1 X159.332 Y59.772 E4.12995
G1 X159.753 Y60.261 E4.16
G1 X159.882 Y60.42 E4.16953
G1 X160.639 Y61.475 E4.23
G1 X160.79 Y61.714 E4.24316
G1 X161.458 Y62.935 E4.30797
G1 X161.585 Y63.207 E4.32195
G1 X162.093 Y64.505 E4.38685
G1 X162.126 Y64.608 E4.39189
G1 X162.433 Y65.785 E4.44853
G1 X162.51 Y66.166 E4.46663
G1 X162.694 Y67.479 E4.52836
G1 X162.7 Y67.555 E4.53191
G1 X162.732 Y68.237 E4.5637
G1 X162.75 Y69.375 E4.6167
G1 X162.749 Y75.994 E4.92491
G1 X162.743 Y76.42 E4.94475
G1 X162.73 Y76.825 E4.96362
G1 X162.7 Y77.414 E4.99108
G1 X162.591 Y78.493 E5.04158
G1 X162.414 Y79.414 E5.08525
G1 X162.274 Y79.946 E5.11086
G1 X162.171 Y80.301 E5.12807
G1 X161.71 Y81.586 E5.19164
G1 X161.617 Y81.802 E5.20259
G1 X161.045 Y82.943 E5.26203
G1 X160.958 Y83.094 E5.27014
G1 X160.181 Y84.263 E5.3355
G1 X159.952 Y84.564 E5.35311
G1 X159.391 Y85.244 E5.39416
G1 X158.116 Y86.667 E5.48313
G1 X158.012 Y86.786 E5.49049
G1 X157.364 Y87.464 E5.53416
G1 X156.661 Y88.084 E5.5778
G1 X155.907 Y88.642 E5.62148
G1 X155.109 Y89.134 E5.66514
G1 X154.271 Y89.556 E5.70882
G1 X153.401 Y89.905 E5.75247
G1 X152.504 Y90.179 E5.79615
G1 X151.586 Y90.376 E5.83987
G1 X150.656 Y90.493 E5.88351
G1 X150.049 Y90.527 E5.91182
G1 X149.725 Y90.536 E5.92691
G1 X149.42 Y90.54 E5.94112
G1 X139.845 Y90.54 E6.38697
G1 X137.237 Y90.577 E6.50842
G1 X134.716 Y90.684 E6.62591
G1 X132.221 Y90.861 E6.74238
G1 X129.721 Y91.109 E6.85937
G1 X127.228 Y91.428 E6.9764
G1 X124.735 Y91.819 E7.0939
G1 X122.245 Y92.282 E7.21183
G1 X119.801 Y92.808 E7.32824
G1 X117.144 Y93.461 E7.45564
G1 X116.037 Y93.751 E7.50893
G1 X114.796 Y94 E7.56787
G1 X113.549 Y94.107 E7.62615
G1 X113.229 Y94.116 E7.64105
G1 X112.92 Y94.12 E7.65544
G1 X83.815 Y94.119 E9.01069
G1 X83.117 Y94.11 E9.0432
G1 X82.181 Y94.058 E9.08685
G1 X81.252 Y93.926 E9.13054
G1 X80.338 Y93.716 E9.17421
G1 X79.445 Y93.429 E9.21789
G1 X78.58 Y93.066 E9.26157
G1 X77.749 Y92.632 E9.30522
G1 X76.958 Y92.128 E9.3489
G1 X76.213 Y91.558 E9.39257
G1 X75.519 Y90.927 E9.43625
G1 X74.882 Y90.24 E9.47988
G1 X74.305 Y89.5 E9.52357
G1 X73.793 Y88.714 E9.56725
G1 X73.35 Y87.887 E9.61094
G1 X72.979 Y87.026 E9.65459
G1 X72.683 Y86.136 E9.69826
G1 X72.464 Y85.224 E9.74194
G1 X72.323 Y84.297 E9.7856
G1 X72.263 Y83.408 E9.82709
G1 X72.254 Y83.075 E9.8426
G1 X72.25 Y82.778 E9.85643
G1 X72.251 Y62.513 E10.80006
G1 X72.26 Y61.824 E10.83214
G1 X72.312 Y60.888 E10.87579
G1 X72.444 Y59.959 E10.91948
G1 X72.654 Y59.045 E10.96315
G1 X72.942 Y58.153 E11.0068
G1 X73.304 Y57.288 E11.05046
G1 X73.739 Y56.457 E11.09414
G1 X74.243 Y55.666 E11.13781
G0 F6000 X74.639 Y55.798
G1 F1200 X75.207 Y55.074 E11.18066
G1 X75.836 Y54.401 E11.22355
G1 X76.521 Y53.786 E11.26642
G1 X77.256 Y53.232 E11.30928
G1 X78.037 Y52.744 E11.35216
G1 X78.857 Y52.325 E11.39504
G1 X79.71 Y51.98 E11.43788
G1 X80.59 Y51.709 E11.48076
G1 X81.49 Y51.517 E11.52361
G1 X82.404 Y51.403 E11.5665
G1 X82.962 Y51.372 E11.59252
G1 X83.283 Y51.363 E11.60748
G1 X83.58 Y51.359 E11.62131
G1 X112.543 Y51.359 E12.96994
G1 X113.396 Y51.37 E13.00967
G1 X114.315 Y51.423 E13.05253
G1 X115.084 Y51.53 E13.08868
G1 X115.932 Y51.713 E13.12908
G1 X118.507 Y52.382 E13.25296
G1 X120.982 Y52.949 E13.37119
G1 X123.434 Y53.439 E13.48763
G1 X125.931 Y53.866 E13.60559
G1 X128.435 Y54.221 E13.72335
G1 X130.94 Y54.504 E13.84073
G1 X133.488 Y54.718 E13.9598
G1 X135.943 Y54.857 E14.0743
G1 X139.853 Y54.938 E14.2564
G1 X149.158 Y54.939 E14.68968
G1 X149.863 Y54.949 E14.72251
G1 X150.782 Y55.002 E14.76537
G1 X151.694 Y55.135 E14.80829
G1 X152.59 Y55.346 E14.85115
G1 X153.464 Y55.634 E14.894
G1 X154.31 Y55.997 E14.93687
G1 X155.122 Y56.432 E14.97976
G1 X155.892 Y56.935 E15.02259
G1 X156.616 Y57.504 E15.06547
G1 X157.555 Y58.417 E15.12645
G1 X157.81 Y58.697 E15.14409
G1 X158.036 Y58.939 E15.15951
G1 X158.117 Y59.034 E15.16532
G1 X159.037 Y60.041 E15.22883
G1 X159.443 Y60.513 E15.25782
G1 X159.572 Y60.672 E15.26736
G1 X160.301 Y61.688 E15.32558
G1 X160.452 Y61.927 E15.33875
G1 X161.096 Y63.104 E15.40122
G1 X161.223 Y63.376 E15.4152
G1 X161.713 Y64.627 E15.47776
G1 X161.746 Y64.73 E15.4828
G1 X162.041 Y65.864 E15.53736
G1 X162.118 Y66.245 E15.55546
G1 X162.295 Y67.511 E15.61498
G1 X162.301 Y67.587 E15.61853
G1 X162.333 Y68.243 E15.64911
G1 X162.349 Y69.197 E15.69354
G1 X162.35 Y75.839 E16.00282
G1 X162.343 Y76.414 E16.0296
G1 X162.33 Y76.804 E16.04777
G1 X162.3 Y77.393 E16.07523
G1 X162.196 Y78.434 E16.12394
G1 X162.021 Y79.338 E16.16682
G1 X161.89 Y79.835 E16.19075
G1 X161.787 Y80.19 E16.20796
G1 X161.343 Y81.428 E16.26921
G1 X161.25 Y81.644 E16.28016
G1 X160.699 Y82.744 E16.33744
G1 X160.612 Y82.895 E16.34556
G1 X159.863 Y84.021 E16.40853
G1 X159.634 Y84.322 E16.42614
G1 X159.093 Y84.978 E16.46573
G1 X157.818 Y86.401 E16.5547
G1 X157.712 Y86.522 E16.56219
G1 X157.075 Y87.187 E16.60507
G1 X156.383 Y87.794 E16.64793
G1 X155.641 Y88.339 E16.6908
G1 X154.854 Y88.818 E16.7337
G1 X154.029 Y89.226 E16.77656
G1 X153.172 Y89.561 E16.81941
G1 X152.288 Y89.821 E16.86231
G1 X151.386 Y90.003 E16.90516
G1 X150.038 Y90.127 E16.96819
G1 X149.714 Y90.136 E16.98329
G1 X149.42 Y90.14 E16.99698
G1 X139.839 Y90.14 E17.44311
G1 X137.214 Y90.177 E17.56535
G1 X134.706 Y90.284 E17.68224
G1 X132.186 Y90.462 E17.79987
G1 X129.671 Y90.711 E17.91756
G1 X127.182 Y91.03 E18.0344
G1 X124.63 Y91.431 E18.15469
G1 X122.199 Y91.883 E18.26983
G1 X119.686 Y92.424 E18.38953
G1 X117.092 Y93.062 E18.51391
G1 X115.936 Y93.364 E18.56955
G1 X114.739 Y93.604 E18.6264
G1 X113.538 Y93.707 E18.68252
G1 X113.218 Y93.716 E18.69743
G1 X112.92 Y93.72 E18.71131
G1 X83.82 Y93.719 E20.06633
G1 X83.122 Y93.71 E20.09883
G1 X82.203 Y93.658 E20.14169
G1 X81.292 Y93.527 E20.18455
G1 X80.396 Y93.317 E20.2274
G1 X79.521 Y93.03 E20.27028
G1 X78.674 Y92.668 E20.31317
G1 X77.862 Y92.234 E20.35604
G1 X77.091 Y91.732 E20.39888
G1 X76.366 Y91.164 E20.44177
G1 X75.693 Y90.535 E20.48466
G1 X75.078 Y89.851 E20.52749
G1 X74.524 Y89.116 E20.57035
G1 X74.036 Y88.335 E20.61323
G1 X73.617 Y87.515 E20.65611
G1 X73.271 Y86.662 E20.69897
G1 X73.001 Y85.782 E20.74184
G1 X72.808 Y84.881 E20.78474
G1 X72.694 Y83.968 E20.82758
G1 X72.663 Y83.397 E20.85421
G1 X72.654 Y83.064 E20.86972
G1 X72.65 Y82.778 E20.88304
G1 X72.651 Y62.519 E21.82639
G1 X72.66 Y61.83 E21.85847
G1 X72.712 Y60.91 E21.90138
G1 X72.843 Y59.999 E21.94424
G1 X73.054 Y59.103 E21.9871
G1 X73.341 Y58.228 E22.02998
G1 X73.703 Y57.382 E22.07283
G1 X74.137 Y56.57 E22.1157
G1 X74.639 Y55.798 E22.15858
G0 F6000 X75.035 Y55.934
G1 F1200 X75.601 Y55.23 E22.20064
G1 X76.227 Y54.579 E22.24269
G1 X76.909 Y53.986 E22.28478
G1 X77.64 Y53.456 E22.32682
G1 X78.414 Y52.992 E22.36884
G1 X79.227 Y52.599 E22.41089
G1 X80.072 Y52.279 E22.45296
G1 X80.942 Y52.035 E22.49504
G1 X81.829 Y51.869 E22.53706
G1 X82.973 Y51.772 E22.59052
G1 X83.294 Y51.763 E22.60547
G1 X83.58 Y51.759 E22.61879
G1 X112.543 Y51.759 E23.96743
G1 X113.39 Y51.77 E24.00687
G1 X114.292 Y51.823 E24.04894
G1 X115.016 Y51.924 E24.08298
G1 X115.832 Y52.1 E24.12185
G1 X118.422 Y52.773 E24.24646
G1 X120.893 Y53.339 E24.3645
G1 X123.354 Y53.831 E24.48136
G1 X125.884 Y54.263 E24.60087
G1 X128.401 Y54.62 E24.71925
G1 X130.898 Y54.902 E24.83626
G1 X133.432 Y55.116 E24.95467
G1 X135.94 Y55.257 E25.07164
G1 X139.844 Y55.338 E25.25346
G1 X149.153 Y55.339 E25.68693
G1 X149.858 Y55.349 E25.71976
G1 X150.759 Y55.402 E25.76179
G1 X151.653 Y55.534 E25.80387
G1 X152.531 Y55.745 E25.84592
G1 X153.387 Y56.033 E25.88797
G1 X154.214 Y56.395 E25.93001
G1 X155.006 Y56.829 E25.97206
G1 X155.757 Y57.331 E26.01412
G1 X156.46 Y57.898 E26.05618
G1 X157.259 Y58.686 E26.10843
G1 X157.505 Y58.956 E26.12544
G1 X157.744 Y59.212 E26.14175
G1 X157.848 Y59.334 E26.14921
G1 X158.741 Y60.311 E26.21085
G1 X159.132 Y60.765 E26.23874
G1 X159.261 Y60.924 E26.24828
G1 X159.963 Y61.902 E26.30434
G1 X160.114 Y62.141 E26.3175
G1 X160.733 Y63.274 E26.37762
G1 X160.86 Y63.546 E26.3916
G1 X161.332 Y64.749 E26.45177
G1 X161.365 Y64.852 E26.45681
G1 X161.649 Y65.943 E26.5093
G1 X161.726 Y66.324 E26.5274
G1 X161.896 Y67.542 E26.58466
G1 X161.902 Y67.618 E26.58821
G1 X161.933 Y68.25 E26.61768
G1 X161.949 Y69.204 E26.66211
G1 X161.95 Y75.839 E26.97106
G1 X161.943 Y76.409 E26.9976
G1 X161.931 Y76.784 E27.01507
G1 X161.901 Y77.373 E27.04254
G1 X161.8 Y78.376 E27.08948
G1 X161.628 Y79.262 E27.1315
G1 X161.506 Y79.723 E27.15371
G1 X161.403 Y80.078 E27.17092
G1 X160.976 Y81.27 E27.22988
G1 X160.883 Y81.486 E27.24083
G1 X160.352 Y82.544 E27.29595
G1 X160.265 Y82.695 E27.30406
G1 X159.545 Y83.779 E27.36466
G1 X159.316 Y84.08 E27.38227
G1 X158.795 Y84.711 E27.42037
G1 X157.52 Y86.134 E27.50934
G1 X157.411 Y86.258 E27.51703
G1 X156.786 Y86.91 E27.55908
G1 X156.106 Y87.504 E27.60113
G1 X155.375 Y88.036 E27.64323
G1 X154.601 Y88.5 E27.68525
G1 X153.789 Y88.895 E27.72729
G1 X152.945 Y89.216 E27.76934
G1 X152.075 Y89.461 E27.81143
G1 X151.188 Y89.628 E27.85345
G1 X150.027 Y89.727 E27.90771
G1 X149.703 Y89.736 E27.9228
G1 X149.42 Y89.74 E27.93598
G1 X139.833 Y89.74 E28.38239
G1 X137.227 Y89.777 E28.50375
G1 X134.662 Y89.886 E28.6233
G1 X132.155 Y90.064 E28.74033
G1 X129.614 Y90.315 E28.85922
G1 X127.106 Y90.636 E28.97696
G1 X124.601 Y91.03 E29.09504
G1 X122.114 Y91.492 E29.21282
G1 X119.611 Y92.031 E29.33204
G1 X116.961 Y92.682 E29.45911
G1 X115.835 Y92.977 E29.51331
G1 X114.682 Y93.208 E29.56806
G1 X113.527 Y93.307 E29.62204
G1 X113.207 Y93.316 E29.63695
G1 X112.92 Y93.32 E29.65032
G1 X83.825 Y93.319 E31.0051
G1 X83.127 Y93.31 E31.0376
G1 X82.226 Y93.259 E31.07963
G1 X81.332 Y93.127 E31.12171
G1 X80.454 Y92.918 E31.16373
G1 X79.597 Y92.631 E31.20582
G1 X78.77 Y92.27 E31.24783
G1 X77.977 Y91.837 E31.2899
G1 X77.226 Y91.336 E31.33194
G1 X76.522 Y90.77 E31.374
G1 X75.871 Y90.144 E31.41606
G1 X75.278 Y89.463 E31.45811
G1 X74.748 Y88.732 E31.50015
G1 X74.284 Y87.957 E31.54221
G1 X73.89 Y87.144 E31.58428
G1 X73.57 Y86.3 E31.62631
G1 X73.326 Y85.43 E31.66838
G1 X73.16 Y84.542 E31.71045
G1 X73.063 Y83.387 E31.76442
G1 X73.054 Y83.054 E31.77993
G1 X73.05 Y82.778 E31.79278
G1 X73.051 Y62.524 E32.73589
G1 X73.06 Y61.835 E32.76798
G1 X73.112 Y60.933 E32.81005
G1 X73.243 Y60.04 E32.85208
G1 X73.453 Y59.161 E32.89416
G1 X73.739 Y58.305 E32.93618
G1 X74.101 Y57.477 E32.97826
G1 X74.534 Y56.685 E33.02029
G1 X75.035 Y55.934 E33.06233
G1 F2700 E28.06233
;MESH:Midi Connector Experiment Magnet (v2~recovered).stl
G0 F6000 X82.585 Y62.273
G0 X83.564 Y62.273
G0 X112.468 Y62.741
G0 X112.65 Y64.521
;TYPE:WALL-INNER
G1 F2700 E33.06233
G1 F1200 X85.219 Y64.521 E34.33963
G1 X85.219 Y65.94 E34.40571
G1 X83.85 Y65.94 E34.46945
G1 X83.85 Y62.559 E34.62689
G1 X112.65 Y62.559 E35.96793
G1 X112.65 Y64.521 E36.05929
G1 F2700 E31.05929
G0 F6000 X85.491 Y64.793
G0 X85.491 Y66.212
G0 X83.722 Y66.212
G0 X83.722 Y78.868
G0 X85.524 Y78.868
G0 X85.524 Y80.286
G0 X112.65 Y80.298
G0 X112.65 Y82.52
G1 F2700 E36.05929
G1 F1200 X83.85 Y82.52 E37.40034
G1 X83.85 Y79.14 E37.55773
G1 X85.252 Y79.14 E37.62301
G1 X85.252 Y80.558 E37.68904
G1 X112.65 Y80.558 E38.96481
G1 X112.65 Y82.52 E39.05617
G0 F6000 X113.05 Y82.92
;TYPE:WALL-OUTER
G1 F1200 X83.45 Y82.92 E40.43447
G1 X83.45 Y62.159 E41.40118
G1 X113.05 Y62.159 E42.77948
G1 X113.05 Y64.921 E42.90809
G1 X85.619 Y64.921 E44.1854
G1 X85.619 Y66.34 E44.25147
G1 X83.55 Y66.34 E44.34781
G1 X83.55 Y78.74 E44.92521
G1 X85.652 Y78.74 E45.02309
G1 X85.652 Y80.158 E45.08911
G1 X113.05 Y80.158 E46.36488
G1 X113.05 Y82.92 E46.49349
G0 F6000 X112.88 Y82.75
G0 X112.54 Y82.13
G0 X112.26 Y82.13
;TYPE:SKIN
G1 F1200 X84.24 Y82.13 E47.79822
G1 X84.24 Y79.53 E47.91929
G1 X84.862 Y79.53 E47.94825
G1 X84.862 Y80.948 E48.01428
G1 X112.26 Y80.948 E49.29004
G1 X112.26 Y82.13 E49.34508
G0 F6000 X112.099 Y81.552
G1 F1200 X111.654 Y81.107 E49.37439
G0 F6000 X111.089 Y81.107
G1 F1200 X111.951 Y81.969 E49.43115
G0 F6000 X111.385 Y81.969
G1 F1200 X110.523 Y81.107 E49.48791
G0 F6000 X109.957 Y81.107
G1 F1200 X110.819 Y81.969 E49.54468
G0 F6000 X110.254 Y81.969
G1 F1200 X109.392 Y81.107 E49.60144
G0 F6000 X108.826 Y81.107
G1 F1200 X109.688 Y81.969 E49.65821
G0 F6000 X109.122 Y81.969
G1 F1200 X108.26 Y81.107 E49.71497
G0 F6000 X107.695 Y81.107
G1 F1200 X108.557 Y81.969 E49.77173
G0 F6000 X107.991 Y81.969
G1 F1200 X107.129 Y81.107 E49.8285
G0 F6000 X106.563 Y81.107
G1 F1200 X107.425 Y81.969 E49.88526
G0 F6000 X106.86 Y81.969
G1 F1200 X105.998 Y81.107 E49.94203
G0 F6000 X105.432 Y81.107
G1 F1200 X106.294 Y81.969 E49.99879
G0 F6000 X105.728 Y81.969
G1 F1200 X104.866 Y81.107 E50.05556
G0 F6000 X104.301 Y81.107
G1 F1200 X105.163 Y81.969 E50.11232
G0 F6000 X104.597 Y81.969
G1 F1200 X103.735 Y81.107 E50.16908
G0 F6000 X103.169 Y81.107
G1 F1200 X104.031 Y81.969 E50.22585
G0 F6000 X103.465 Y81.969
G1 F1200 X102.604 Y81.107 E50.28258
G0 F6000 X102.038 Y81.107
G1 F1200 X102.9 Y81.969 E50.33934
G0 F6000 X102.334 Y81.969
G1 F1200 X101.472 Y81.107 E50.39611
G0 F6000 X100.906 Y81.107
G1 F1200 X101.768 Y81.969 E50.45287
G0 F6000 X101.203 Y81.969
G1 F1200 X100.341 Y81.107 E50.50964
G0 F6000 X99.775 Y81.107
G1 F1200 X100.637 Y81.969 E50.5664
G0 F6000 X100.071 Y81.969
G1 F1200 X99.209 Y81.107 E50.62316
G0 F6000 X98.644 Y81.107
G1 F1200 X99.506 Y81.969 E50.67993
G0 F6000 X98.94 Y81.969
G1 F1200 X98.078 Y81.107 E50.73669
G0 F6000 X97.512 Y81.107
G1 F1200 X98.374 Y81.969 E50.79346
G0 F6000 X97.809 Y81.969
G1 F1200 X96.947 Y81.107 E50.85022
G0 F6000 X96.381 Y81.107
G1 F1200 X97.243 Y81.969 E50.90699
G0 F6000 X96.677 Y81.969
G1 F1200 X95.815 Y81.107 E50.96375
G0 F6000 X95.25 Y81.107
G1 F1200 X96.112 Y81.969 E51.02051
G0 F6000 X95.546 Y81.969
G1 F1200 X94.684 Y81.107 E51.07728
G0 F6000 X94.118 Y81.107
G1 F1200 X94.98 Y81.969 E51.13404
G0 F6000 X94.415 Y81.969
G1 F1200 X93.553 Y81.107 E51.19081
G0 F6000 X92.987 Y81.107
G1 F1200 X93.849 Y81.969 E51.24757
G0 F6000 X93.283 Y81.969
G1 F1200 X92.421 Y81.107 E51.30433
G0 F6000 X91.855 Y81.107
G1 F1200 X92.717 Y81.969 E51.3611
G0 F6000 X92.152 Y81.969
G1 F1200 X91.29 Y81.107 E51.41786
G0 F6000 X90.724 Y81.107
G1 F1200 X91.586 Y81.969 E51.47463
G0 F6000 X91.02 Y81.969
G1 F1200 X90.158 Y81.107 E51.53139
