;FLAVOR:Marlin
;TIME:4088
;Filament used: 2.32398m
;Layer height: 0.28
;MINX:81
;MINY:91.514
;MINZ:0.28
;MAXX:148
;MAXY:145.486
;MAXZ:10.36
;Generated with Cura_SteamEngine 4.13.1
M140 S50
M105
M190 S50
M104 S200
M105
M109 S200
M82 ;absolute extrusion mode
; Ender 3 Custom Start G-code
G92 E0 ; Reset Extruder
G28 ; Home all axes
G1 Z2.0 F3000 ; Move Z Axis up little to prevent scratching of Heat Bed
G1 X0.1 Y20 Z0.3 F5000.0 ; Move to start position
G1 X0.1 Y200.0 Z0.3 F1500.0 E15 ; Draw the first line
G1 X0.4 Y200.0 Z0.3 F5000.0 ; Move to side a little
G1 X0.4 Y20 Z0.3 F1500.0 E30 ; Draw the second line
G92 E0 ; Reset Extruder
G1 Z2.0 F3000 ; Move Z Axis up little to prevent scratching of Heat Bed
G1 X5 Y20 Z0.3 F5000.0 ; Move over to prevent blob squish
G92 E0
G92 E0
G1 F2700 E-5
;LAYER_COUNT:37
;LAYER:0
M107
G0 F6000 X85.344 Y97.555 Z0.28
;TYPE:SKIRT
G1 F2700 E0
G1 F1200 X85.613 Y97.329 E0.01636
G1 X86.356 Y96.757 E0.06002
G1 X87.331 Y96.144 E0.11365
G1 X87.699 Y95.946 E0.13311
G1 X87.889 Y95.848 E0.14306
G1 X88.74 Y95.454 E0.18673
G1 X89.659 Y95.122 E0.23223
G1 X89.919 Y95.041 E0.24491
G1 X90.826 Y94.8 E0.28861
G1 X92.035 Y94.604 E0.34564
G1 X92.281 Y94.578 E0.35716
G1 X93.246 Y94.519 E0.40218
G1 X94.723 Y94.493 E0.47096
G1 X96.823 Y94.463 E0.56876
G1 X99.345 Y94.356 E0.6863
G1 X101.84 Y94.179 E0.80277
G1 X104.338 Y93.931 E0.91966
G1 X106.827 Y93.613 E1.0365
G1 X109.336 Y93.219 E1.15476
G1 X111.906 Y92.741 E1.27648
G1 X112.628 Y92.596 E1.31077
G1 X113.171 Y92.501 E1.33644
G1 X113.332 Y92.477 E1.34402
G1 X114.265 Y92.379 E1.3877
G1 X115.428 Y92.367 E1.44186
G1 X116.152 Y92.398 E1.4756
G1 X118.704 Y92.473 E1.59449
G1 X121.233 Y92.476 E1.71225
G1 X123.749 Y92.408 E1.82945
G1 X126.271 Y92.268 E1.94706
G1 X128.761 Y92.059 E2.06341
G1 X131.303 Y91.773 E2.18253
G1 X132.549 Y91.607 E2.24106
G1 X133.483 Y91.523 E2.28472
G1 X134.258 Y91.514 E2.32081
G1 X134.386 Y91.517 E2.32678
G1 X135.035 Y91.551 E2.35704
G1 X135.301 Y91.573 E2.36947
G1 X136.184 Y91.683 E2.4109
G1 X136.281 Y91.699 E2.41548
G1 X136.832 Y91.804 E2.4416
G1 X137.135 Y91.87 E2.45604
G1 X138.022 Y92.102 E2.49873
G1 X138.123 Y92.133 E2.50365
G1 X138.585 Y92.286 E2.52631
G1 X138.849 Y92.38 E2.53936
G1 X139.838 Y92.788 E2.58918
G1 X139.938 Y92.835 E2.59432
G1 X140.26 Y92.993 E2.61102
G1 X140.499 Y93.115 E2.62352
G1 X141.433 Y93.65 E2.67364
G1 X141.536 Y93.716 E2.67933
G1 X141.875 Y93.942 E2.6983
G1 X142.104 Y94.101 E2.71129
G1 X142.836 Y94.656 E2.75406
G1 X142.928 Y94.732 E2.75962
G1 X143.313 Y95.066 E2.78335
G1 X143.507 Y95.242 E2.79555
G1 X144.199 Y95.928 E2.84092
G1 X144.295 Y96.032 E2.84751
G1 X144.642 Y96.427 E2.87199
G1 X144.813 Y96.631 E2.88439
G1 X145.3 Y97.257 E2.92132
G1 X145.365 Y97.347 E2.92649
G1 X145.687 Y97.817 E2.95302
G1 X145.824 Y98.029 E2.96477
G1 X146.276 Y98.795 E3.00618
G1 X146.334 Y98.903 E3.01189
G1 X146.589 Y99.408 E3.03824
G1 X146.709 Y99.662 E3.05132
G1 X147.03 Y100.412 E3.0893
G1 X147.075 Y100.529 E3.09514
G1 X147.291 Y101.146 E3.12558
G1 X147.373 Y101.404 E3.13819
G1 X147.592 Y102.193 E3.17631
G1 X147.616 Y102.294 E3.18115
G1 X147.737 Y102.869 E3.20851
G1 X147.787 Y103.144 E3.22152
G1 X147.931 Y104.255 E3.27369
G1 X147.946 Y104.447 E3.28266
G1 X147.977 Y105.098 E3.31301
G1 X147.998 Y106.22 E3.36526
G1 X148 Y106.426 E3.37485
G1 X147.999 Y131.083 E4.52299
G1 X147.993 Y131.565 E4.54543
G1 X147.982 Y131.936 E4.56271
G1 X147.953 Y132.563 E4.59194
G1 X147.844 Y133.682 E4.64429
G1 X147.828 Y133.789 E4.64933
G1 X147.696 Y134.507 E4.68332
G1 X147.629 Y134.814 E4.69796
G1 X147.376 Y135.767 E4.74387
G1 X147.343 Y135.872 E4.74899
G1 X147.147 Y136.44 E4.77697
G1 X147.031 Y136.749 E4.79234
G1 X146.509 Y137.926 E4.8523
G1 X146.336 Y138.258 E4.86973
G1 X146.232 Y138.451 E4.87994
G1 X145.689 Y139.352 E4.92892
G1 X145.606 Y139.476 E4.93587
G1 X145.338 Y139.858 E4.9576
G1 X145.179 Y140.075 E4.97012
G1 X144.666 Y140.723 E5.00861
G1 X144.607 Y140.792 E5.01284
G1 X144.109 Y141.336 E5.04718
G1 X143.882 Y141.568 E5.06229
G1 X143.212 Y142.198 E5.10512
G1 X143.131 Y142.268 E5.1101
G1 X142.705 Y142.618 E5.13577
G1 X142.473 Y142.799 E5.14947
G1 X141.648 Y143.384 E5.19657
G1 X141.528 Y143.461 E5.20321
G1 X141.058 Y143.746 E5.2288
G1 X140.833 Y143.875 E5.24088
G1 X140.105 Y144.257 E5.27916
G1 X139.992 Y144.311 E5.28499
G1 X139.439 Y144.557 E5.31317
G1 X139.189 Y144.66 E5.32577
G1 X138.308 Y144.98 E5.36941
G1 X137.402 Y145.223 E5.41309
G1 X136.479 Y145.389 E5.45676
G1 X135.545 Y145.475 E5.50043
G1 X134.739 Y145.486 E5.53797
G1 X134.612 Y145.483 E5.54388
G1 X133.965 Y145.449 E5.57405
G1 X133.699 Y145.427 E5.58648
G1 X132.798 Y145.314 E5.62876
G1 X132.702 Y145.298 E5.63329
G1 X132.23 Y145.209 E5.65566
G1 X131.961 Y145.152 E5.66846
G1 X129.073 Y144.487 E5.80646
G1 X126.672 Y144.006 E5.92048
G1 X124.157 Y143.575 E6.0393
G1 X121.676 Y143.222 E6.15599
G1 X119.157 Y142.936 E6.27404
G1 X116.665 Y142.723 E6.3905
G1 X114.167 Y142.581 E6.507
G1 X111.59 Y142.508 E6.62705
G1 X110.29 Y142.499 E6.68758
G1 X94.196 Y142.499 E7.43698
G1 X93.307 Y142.487 E7.47838
G1 X92.344 Y142.43 E7.5233
G1 X92.073 Y142.402 E7.53599
G1 X91.146 Y142.266 E7.57962
G1 X90.051 Y141.998 E7.63211
G1 X89.807 Y141.925 E7.64397
G1 X88.921 Y141.619 E7.68762
G1 X87.867 Y141.137 E7.74158
G1 X87.576 Y140.985 E7.75687
G1 X86.764 Y140.516 E7.80053
G1 X85.771 Y139.803 E7.85746
G1 X85.576 Y139.646 E7.86911
G1 X84.871 Y139.027 E7.9128
G1 X84.034 Y138.132 E7.96986
G1 X83.81 Y137.864 E7.98612
G1 X83.24 Y137.12 E8.02977
G1 X82.735 Y136.329 E8.07346
G1 X82.502 Y135.907 E8.09591
G1 X82.376 Y135.666 E8.10857
G1 X81.977 Y134.817 E8.15226
G1 X81.614 Y133.815 E8.20188
G1 X81.53 Y133.543 E8.21514
G1 X81.291 Y132.636 E8.25881
G1 X81.098 Y131.423 E8.316
G1 X81.07 Y131.151 E8.32874
G1 X81.017 Y130.35 E8.36612
G1 X81.006 Y129.978 E8.38345
G1 X81.001 Y129.653 E8.39858
G1 X81.002 Y128.422 E8.4559
G1 X81.023 Y126.961 E8.52394
G1 X81.056 Y125.806 E8.57774
G1 X81.049 Y122.752 E8.71995
G1 X81.002 Y120.204 E8.83861
G1 X81 Y119.989 E8.84863
G1 X81.001 Y116.603 E9.00629
G1 X81.024 Y115.019 E9.08006
G1 X81.058 Y113.821 E9.13586
G1 X81.031 Y109.907 E9.31812
G1 X81.004 Y108.921 E9.36405
G1 X81 Y108.612 E9.37844
G1 X81.001 Y107.618 E9.42473
G1 X81.014 Y106.793 E9.46315
G1 X81.068 Y105.869 E9.50624
G1 X81.096 Y105.593 E9.51916
G1 X81.231 Y104.665 E9.56283
G1 X81.505 Y103.538 E9.61683
G1 X81.578 Y103.295 E9.62865
G1 X81.886 Y102.409 E9.67233
G1 X82.362 Y101.368 E9.72563
G1 X82.515 Y101.075 E9.74102
G1 X82.985 Y100.263 E9.78471
G1 X83.72 Y99.241 E9.84332
G1 X83.874 Y99.051 E9.85471
G1 X84.496 Y98.348 E9.89842
G1 X85.344 Y97.555 E9.95248
G0 F6000 X85.601 Y97.861
G1 F1200 X85.87 Y97.635 E9.96884
G1 X86.6 Y97.074 E10.01171
G1 X87.526 Y96.493 E10.06261
G1 X87.882 Y96.301 E10.08145
G1 X88.072 Y96.203 E10.0914
G1 X88.908 Y95.817 E10.13428
G1 X89.778 Y95.504 E10.17733
G1 X90.038 Y95.423 E10.19001
G1 X90.928 Y95.187 E10.23289
G1 X92.077 Y95.002 E10.28708
G1 X92.323 Y94.976 E10.2986
G1 X93.253 Y94.919 E10.34198
G1 X94.728 Y94.893 E10.41068
G1 X96.846 Y94.863 E10.50931
G1 X99.354 Y94.756 E10.6262
G1 X101.871 Y94.578 E10.74369
G1 X104.395 Y94.328 E10.8618
G1 X106.903 Y94.007 E10.97953
G1 X109.365 Y93.62 E11.09558
G1 X111.993 Y93.131 E11.22005
G1 X112.707 Y92.988 E11.25396
G1 X113.23 Y92.897 E11.27868
G1 X113.391 Y92.873 E11.28626
G1 X114.307 Y92.777 E11.32914
G1 X115.411 Y92.767 E11.38055
G1 X116.124 Y92.798 E11.41378
G1 X118.692 Y92.873 E11.53341
G1 X121.243 Y92.876 E11.6522
G1 X123.746 Y92.809 E11.76879
G1 X126.291 Y92.667 E11.88748
G1 X128.802 Y92.456 E12.00481
G1 X131.405 Y92.163 E12.12679
G1 X132.602 Y92.004 E12.18301
G1 X133.519 Y91.922 E12.22588
G1 X134.248 Y91.914 E12.25983
G1 X134.376 Y91.917 E12.26579
G1 X135.002 Y91.95 E12.29498
G1 X135.268 Y91.972 E12.30741
G1 X136.119 Y92.077 E12.34734
G1 X136.216 Y92.093 E12.35191
G1 X136.747 Y92.195 E12.37709
G1 X137.05 Y92.261 E12.39153
G1 X137.904 Y92.485 E12.43264
G1 X138.005 Y92.516 E12.43756
G1 X138.451 Y92.663 E12.45943
G1 X138.715 Y92.757 E12.47248
G1 X139.668 Y93.15 E12.52048
G1 X140.078 Y93.349 E12.5417
G1 X140.317 Y93.471 E12.5542
G1 X141.217 Y93.987 E12.6025
G1 X141.32 Y94.053 E12.6082
G1 X141.646 Y94.271 E12.62646
G1 X141.875 Y94.43 E12.63944
G1 X142.581 Y94.965 E12.68069
G1 X142.673 Y95.041 E12.68624
G1 X143.044 Y95.362 E12.70909
G1 X143.238 Y95.538 E12.72129
G1 X143.905 Y96.199 E12.76501
G1 X144.001 Y96.303 E12.7716
G1 X144.336 Y96.684 E12.79523
G1 X144.507 Y96.888 E12.80762
G1 X144.976 Y97.491 E12.84319
G1 X145.041 Y97.581 E12.84836
G1 X145.351 Y98.034 E12.87392
G1 X145.488 Y98.246 E12.88567
G1 X145.924 Y98.984 E12.92559
G1 X145.982 Y99.092 E12.9313
G1 X146.227 Y99.579 E12.95668
G1 X146.347 Y99.833 E12.96976
G1 X146.656 Y100.556 E13.00637
G1 X146.701 Y100.673 E13.01221
G1 X146.91 Y101.267 E13.04153
G1 X146.992 Y101.525 E13.05414
G1 X147.203 Y102.285 E13.09086
G1 X147.227 Y102.386 E13.0957
G1 X147.343 Y102.941 E13.1221
G1 X147.393 Y103.216 E13.13512
G1 X147.532 Y104.286 E13.18536
G1 X147.547 Y104.478 E13.19433
G1 X147.577 Y105.106 E13.2236
G1 X147.598 Y106.228 E13.27586
G1 X147.6 Y106.426 E13.28508
G1 X147.599 Y131.078 E14.43298
G1 X147.593 Y131.56 E14.45542
G1 X147.583 Y131.918 E14.4721
G1 X147.554 Y132.545 E14.50132
G1 X147.448 Y133.623 E14.55176
G1 X147.432 Y133.73 E14.5568
G1 X147.305 Y134.422 E14.58956
G1 X147.238 Y134.729 E14.60419
G1 X146.994 Y135.647 E14.64842
G1 X146.961 Y135.752 E14.65355
G1 X146.773 Y136.299 E14.68048
G1 X146.657 Y136.608 E14.69585
G1 X146.153 Y137.743 E14.75368
G1 X145.983 Y138.068 E14.77076
G1 X145.879 Y138.261 E14.78096
G1 X145.357 Y139.129 E14.82813
G1 X145.274 Y139.253 E14.83508
G1 X145.015 Y139.622 E14.85607
G1 X144.856 Y139.839 E14.86859
G1 X144.362 Y140.463 E14.90565
G1 X144.303 Y140.532 E14.90988
G1 X143.824 Y141.056 E14.94294
G1 X143.597 Y141.288 E14.95805
G1 X142.951 Y141.895 E14.99933
G1 X142.87 Y141.965 E15.00431
G1 X142.459 Y142.302 E15.02906
G1 X142.227 Y142.483 E15.04276
G1 X141.432 Y143.047 E15.08815
G1 X141.312 Y143.124 E15.09479
G1 X140.859 Y143.399 E15.11947
G1 X140.634 Y143.528 E15.13154
G1 X139.932 Y143.896 E15.16845
G1 X139.819 Y143.95 E15.17428
G1 X139.287 Y144.187 E15.2014
G1 X139.037 Y144.29 E15.21399
G1 X138.171 Y144.603 E15.25687
G1 X137.282 Y144.84 E15.29971
G1 X136.375 Y144.999 E15.34259
G1 X135.458 Y145.079 E15.38545
G1 X134.749 Y145.086 E15.41847
G1 X134.622 Y145.083 E15.42438
G1 X133.998 Y145.05 E15.45348
G1 X133.732 Y145.028 E15.46591
G1 X132.863 Y144.92 E15.50668
G1 X132.767 Y144.904 E15.51121
G1 X132.313 Y144.818 E15.53273
G1 X132.044 Y144.761 E15.54553
G1 X129.169 Y144.098 E15.68292
G1 X126.74 Y143.612 E15.79827
G1 X124.215 Y143.179 E15.91756
G1 X121.706 Y142.822 E16.03556
G1 X119.235 Y142.542 E16.15136
G1 X116.685 Y142.324 E16.27053
G1 X114.167 Y142.181 E16.38797
G1 X111.603 Y142.108 E16.50741
G1 X110.293 Y142.099 E16.56841
G1 X94.196 Y142.099 E17.31795
G1 X93.313 Y142.087 E17.35907
G1 X92.386 Y142.032 E17.40231
G1 X92.115 Y142.004 E17.415
G1 X91.204 Y141.87 E17.45788
G1 X90.166 Y141.615 E17.50765
G1 X89.922 Y141.542 E17.51951
G1 X89.052 Y141.24 E17.56239
G1 X88.052 Y140.782 E17.6136
G1 X87.761 Y140.63 E17.62889
G1 X86.965 Y140.169 E17.67172
G1 X86.021 Y139.492 E17.72581
G1 X85.826 Y139.335 E17.73747
G1 X85.135 Y138.727 E17.78033
G1 X84.341 Y137.876 E17.83453
G1 X84.117 Y137.608 E17.85079
G1 X83.558 Y136.877 E17.89364
G1 X82.856 Y135.721 E17.95662
G1 X82.73 Y135.48 E17.96928
G1 X82.34 Y134.647 E18.01211
G1 X81.996 Y133.697 E18.05915
G1 X81.912 Y133.425 E18.07241
G1 X81.679 Y132.534 E18.11529
G1 X81.496 Y131.382 E18.16961
G1 X81.468 Y131.11 E18.18234
G1 X81.417 Y130.338 E18.21837
G1 X81.406 Y129.966 E18.2357
G1 X81.401 Y129.653 E18.25027
G1 X81.402 Y128.428 E18.30731
G1 X81.426 Y126.814 E18.38248
G1 X81.456 Y125.784 E18.43046
G1 X81.449 Y122.743 E18.57206
G1 X81.402 Y120.196 E18.69068
G1 X81.4 Y119.989 E18.70032
G1 X81.401 Y116.609 E18.85771
G1 X81.424 Y115.03 E18.93124
G1 X81.458 Y113.829 E18.98718
G1 X81.431 Y109.893 E19.17047
G1 X81.404 Y108.91 E19.21626
G1 X81.4 Y108.612 E19.23013
G1 X81.401 Y107.618 E19.27642
G1 X81.414 Y106.8 E19.31451
G1 X81.466 Y105.909 E19.35607
G1 X81.494 Y105.633 E19.36899
G1 X81.627 Y104.722 E19.41186
G1 X81.888 Y103.653 E19.4631
G1 X81.961 Y103.41 E19.47491
G1 X82.264 Y102.541 E19.51777
G1 X82.717 Y101.554 E19.56833
G1 X82.87 Y101.261 E19.58373
G1 X83.331 Y100.464 E19.6266
G1 X84.031 Y99.493 E19.68234
G1 X84.185 Y99.303 E19.69372
G1 X84.795 Y98.613 E19.73661
G1 X85.601 Y97.861 E19.78794
G0 F6000 X85.859 Y98.167
G1 F1200 X86.128 Y97.941 E19.8043
G1 X86.844 Y97.392 E19.84631
G1 X87.721 Y96.843 E19.89449
G1 X88.065 Y96.657 E19.9127
G1 X88.255 Y96.559 E19.92265
G1 X89.075 Y96.181 E19.9647
G1 X89.897 Y95.886 E20.00536
G1 X90.157 Y95.805 E20.01804
G1 X91.03 Y95.574 E20.06009
G1 X92.119 Y95.399 E20.11145
G1 X92.365 Y95.373 E20.12297
G1 X93.26 Y95.319 E20.16472
G1 X94.734 Y95.293 E20.23337
G1 X96.833 Y95.263 E20.33112
G1 X99.401 Y95.154 E20.4508
G1 X101.903 Y94.977 E20.5676
G1 X104.415 Y94.728 E20.68514
G1 X106.978 Y94.4 E20.80546
G1 X109.463 Y94.009 E20.92259
G1 X112.066 Y93.525 E21.04588
G1 X112.785 Y93.381 E21.08002
G1 X113.289 Y93.292 E21.10385
G1 X113.45 Y93.268 E21.11143
G1 X114.348 Y93.175 E21.15347
G1 X115.394 Y93.166 E21.20218
G1 X116.097 Y93.196 E21.23494
G1 X118.714 Y93.273 E21.35685
G1 X121.254 Y93.276 E21.47513
G1 X123.78 Y93.208 E21.59279
G1 X126.311 Y93.067 E21.71083
G1 X128.845 Y92.854 E21.82924
G1 X131.398 Y92.567 E21.94886
G1 X132.654 Y92.4 E22.00786
G1 X133.554 Y92.321 E22.04993
G1 X134.239 Y92.314 E22.08183
G1 X134.367 Y92.317 E22.08779
G1 X134.969 Y92.349 E22.11586
G1 X135.235 Y92.371 E22.12829
G1 X136.054 Y92.472 E22.16672
G1 X136.151 Y92.488 E22.17129
G1 X136.662 Y92.586 E22.19552
G1 X136.965 Y92.652 E22.20996
G1 X137.787 Y92.867 E22.24952
G1 X137.888 Y92.898 E22.25444
G1 X138.316 Y93.04 E22.27544
G1 X138.58 Y93.134 E22.28849
G1 X139.498 Y93.512 E22.33472
G1 X139.896 Y93.705 E22.35532
G1 X140.135 Y93.827 E22.36781
G1 X141.001 Y94.324 E22.4143
G1 X141.104 Y94.39 E22.42
G1 X141.418 Y94.6 E22.43759
G1 X141.647 Y94.759 E22.45057
G1 X142.326 Y95.273 E22.49023
G1 X142.418 Y95.349 E22.49578
G1 X142.776 Y95.659 E22.51783
G1 X142.97 Y95.835 E22.53003
G1 X143.611 Y96.471 E22.57208
G1 X143.707 Y96.575 E22.57867
G1 X144.029 Y96.941 E22.60137
G1 X144.2 Y97.145 E22.61376
G1 X144.652 Y97.725 E22.648
G1 X144.717 Y97.815 E22.65317
G1 X145.015 Y98.251 E22.67776
G1 X145.152 Y98.463 E22.68952
G1 X145.571 Y99.173 E22.7279
G1 X145.629 Y99.281 E22.73361
G1 X145.866 Y99.75 E22.75808
G1 X145.986 Y100.004 E22.77116
G1 X146.283 Y100.699 E22.80635
G1 X146.328 Y100.816 E22.81219
G1 X146.529 Y101.388 E22.84042
G1 X146.611 Y101.646 E22.85303
G1 X146.814 Y102.378 E22.8884
G1 X146.838 Y102.479 E22.89323
G1 X146.949 Y103.012 E22.91859
G1 X146.999 Y103.287 E22.9316
G1 X147.133 Y104.318 E22.98001
G1 X147.148 Y104.51 E22.98898
G1 X147.177 Y105.113 E23.01709
G1 X147.2 Y106.426 E23.07824
G1 X147.199 Y131.073 E24.22591
G1 X147.193 Y131.555 E24.24835
G1 X147.183 Y131.899 E24.26438
G1 X147.154 Y132.526 E24.2936
G1 X147.053 Y133.563 E24.34212
G1 X147.037 Y133.67 E24.34716
G1 X146.914 Y134.337 E24.37874
G1 X146.847 Y134.644 E24.39337
G1 X146.613 Y135.527 E24.43591
G1 X146.58 Y135.632 E24.44103
G1 X146.398 Y136.159 E24.46699
G1 X146.282 Y136.468 E24.48236
G1 X145.798 Y137.56 E24.53798
G1 X145.631 Y137.879 E24.55475
G1 X145.527 Y138.072 E24.56495
G1 X145.024 Y138.907 E24.61035
G1 X144.941 Y139.031 E24.61729
G1 X144.693 Y139.386 E24.63746
G1 X144.534 Y139.603 E24.64998
G1 X144.058 Y140.203 E24.68565
G1 X143.999 Y140.272 E24.68987
G1 X143.538 Y140.776 E24.72168
G1 X143.311 Y141.008 E24.73679
G1 X142.689 Y141.592 E24.77652
G1 X142.608 Y141.662 E24.78151
G1 X142.213 Y141.987 E24.80533
G1 X141.981 Y142.168 E24.81903
G1 X141.215 Y142.711 E24.86275
G1 X141.095 Y142.788 E24.86939
G1 X140.66 Y143.052 E24.89308
G1 X140.435 Y143.181 E24.90516
G1 X139.76 Y143.535 E24.94065
G1 X139.647 Y143.589 E24.94648
G1 X139.135 Y143.817 E24.97258
G1 X138.885 Y143.92 E24.98517
G1 X138.035 Y144.227 E25.02725
G1 X137.162 Y144.457 E25.06929
G1 X136.272 Y144.609 E25.11133
G1 X135.372 Y144.682 E25.15338
G1 X134.758 Y144.686 E25.18197
