;FLAVOR:Marlin
;TIME:2913
;Filament used: 0.865115m
;Layer height: 0.12
;MINX:91.534
;MINY:97.779
;MINZ:0.12
;MAXX:138.541
;MAXY:137.221
;MAXZ:14.04
;Generated with Cura_SteamEngine 4.13.1
M140 S50
M105
M190 S50
M104 S200
M105
M109 S200
M82 ;absolute extrusion mode
; Ender 3 Custom Start G-code
G92 E0 ; Reset Extruder
G28 ; Home all axes
G1 Z2.0 F3000 ; Move Z Axis up little to prevent scratching of Heat Bed
G1 X0.1 Y20 Z0.3 F5000.0 ; Move to start position
G1 X0.1 Y200.0 Z0.3 F1500.0 E15 ; Draw the first line
G1 X0.4 Y200.0 Z0.3 F5000.0 ; Move to side a little
G1 X0.4 Y20 Z0.3 F1500.0 E30 ; Draw the second line
G92 E0 ; Reset Extruder
G1 Z2.0 F3000 ; Move Z Axis up little to prevent scratching of Heat Bed
G1 X5 Y20 Z0.3 F5000.0 ; Move over to prevent blob squish
G92 E0
G92 E0
G1 F2700 E-5
;LAYER_COUNT:117
;LAYER:0
M107
G0 F6000 X94.728 Y102.709 Z0.12
;TYPE:SKIRT
G1 F2700 E0
G1 F1200 X95.416 Y102.071 E0.01872
G1 X96.155 Y101.495 E0.03742
G1 X96.941 Y100.983 E0.05614
G1 X97.768 Y100.54 E0.07486
G1 X98.63 Y100.17 E0.09358
G1 X99.52 Y99.874 E0.1123
G1 X100.432 Y99.655 E0.13102
G1 X101.359 Y99.514 E0.14973
G1 X102.235 Y99.454 E0.16725
G1 X102.556 Y99.445 E0.17366
G1 X102.864 Y99.441 E0.17981
G1 X104.808 Y99.441 E0.2186
G1 X107.416 Y99.404 E0.27065
G1 X109.937 Y99.297 E0.32101
G1 X112.432 Y99.12 E0.37092
G1 X114.932 Y98.872 E0.42106
G1 X117.425 Y98.553 E0.47122
G1 X119.976 Y98.152 E0.52275
G1 X120.499 Y98.059 E0.53335
G1 X120.791 Y98.011 E0.53926
G1 X121.452 Y97.911 E0.5526
G1 X122.793 Y97.791 E0.57946
G1 X123.196 Y97.782 E0.58751
G1 X123.501 Y97.779 E0.5936
G1 X126.72 Y97.779 E0.65783
G1 X127.538 Y97.789 E0.67416
G1 X128.474 Y97.842 E0.69287
G1 X129.403 Y97.974 E0.71159
G1 X130.317 Y98.184 E0.73031
G1 X131.209 Y98.472 E0.74901
G1 X132.074 Y98.835 E0.76773
G1 X132.905 Y99.27 E0.78645
G1 X133.947 Y99.956 E0.81135
G1 X134.079 Y100.054 E0.81463
G1 X134.808 Y100.645 E0.83336
G1 X135.483 Y101.295 E0.85206
G1 X136.101 Y102.001 E0.87078
G1 X136.656 Y102.757 E0.8895
G1 X137.145 Y103.557 E0.90821
G1 X137.564 Y104.396 E0.92692
G1 X137.91 Y105.268 E0.94565
G1 X138.18 Y106.166 E0.96436
G1 X138.373 Y107.084 E0.98308
G1 X138.487 Y108.015 E1.0018
G1 X138.521 Y108.705 E1.01558
G1 X138.533 Y109.434 E1.03013
G1 X138.534 Y112.56 E1.09252
G1 X138.54 Y112.659 E1.0945
G1 X138.541 Y113.507 E1.11142
G1 X138.534 Y113.675 E1.11477
G1 X138.534 Y121.512 E1.27117
G1 X138.539 Y122.282 E1.28654
G1 X138.534 Y122.416 E1.28921
G1 X138.533 Y125.526 E1.35128
G1 X138.524 Y126.22 E1.36513
G1 X138.472 Y127.156 E1.38383
G1 X138.34 Y128.085 E1.40256
G1 X138.13 Y128.999 E1.42127
G1 X137.842 Y129.891 E1.43998
G1 X137.48 Y130.756 E1.45869
G1 X137.231 Y131.253 E1.46979
G1 X137.167 Y131.373 E1.4725
G1 X136.691 Y132.181 E1.49121
G1 X136.147 Y132.946 E1.50995
G1 X135.541 Y133.661 E1.52865
G1 X134.876 Y134.322 E1.54736
G1 X134.157 Y134.925 E1.56609
G1 X133.389 Y135.463 E1.5848
G1 X132.578 Y135.934 E1.60352
G1 X131.73 Y136.335 E1.62224
G1 X130.851 Y136.662 E1.64095
G1 X129.947 Y136.912 E1.65967
G1 X129.228 Y137.054 E1.6743
G1 X129.142 Y137.068 E1.67604
G1 X128.211 Y137.179 E1.69475
G1 X127.538 Y137.21 E1.70819
G1 X126.7 Y137.221 E1.72492
G1 X123.579 Y137.22 E1.7872
G1 X122.882 Y137.21 E1.80111
G1 X121.59 Y137.115 E1.82696
G1 X121.417 Y137.092 E1.83044
G1 X120.935 Y137.017 E1.84018
G1 X120.635 Y136.964 E1.84626
G1 X118.134 Y136.554 E1.89684
G1 X115.618 Y136.216 E1.9475
G1 X113.1 Y135.949 E1.99803
G1 X110.619 Y135.757 E2.04769
G1 X108.094 Y135.634 E2.09813
G1 X104.916 Y135.578 E2.16157
G1 X103.083 Y135.577 E2.19814
G1 X102.385 Y135.567 E2.21208
G1 X101.449 Y135.513 E2.23079
G1 X100.521 Y135.381 E2.24949
G1 X99.607 Y135.169 E2.26822
G1 X98.715 Y134.88 E2.28693
G1 X97.85 Y134.517 E2.30565
G1 X97.02 Y134.081 E2.32436
G1 X96.229 Y133.576 E2.34308
G1 X95.485 Y133.005 E2.3618
G1 X94.792 Y132.373 E2.38052
G1 X94.155 Y131.685 E2.39923
G1 X93.58 Y130.944 E2.41795
G1 X93.069 Y130.158 E2.43666
G1 X92.627 Y129.33 E2.45539
G1 X92.258 Y128.468 E2.4741
G1 X91.963 Y127.578 E2.49281
G1 X91.745 Y126.666 E2.51152
G1 X91.605 Y125.738 E2.53025
G1 X91.547 Y124.866 E2.54769
G1 X91.538 Y124.534 E2.55432
G1 X91.534 Y124.236 E2.56027
G1 X91.535 Y110.995 E2.8245
G1 X91.544 Y110.306 E2.83826
G1 X91.596 Y109.37 E2.85696
G1 X91.728 Y108.441 E2.87569
G1 X91.938 Y107.527 E2.8944
G1 X92.226 Y106.635 E2.91311
G1 X92.588 Y105.77 E2.93182
G1 X93.023 Y104.939 E2.95054
G1 X93.527 Y104.148 E2.96926
G1 X94.097 Y103.403 E2.98798
G1 X94.728 Y102.709 E3.0067
G0 F6000 X95.12 Y102.883
G1 F1200 X95.805 Y102.268 E3.02507
G1 X96.54 Y101.714 E3.04343
G1 X97.321 Y101.226 E3.06181
G1 X98.141 Y100.807 E3.08019
G1 X98.994 Y100.462 E3.09855
G1 X99.874 Y100.191 E3.11693
G1 X100.774 Y99.999 E3.13529
G1 X101.688 Y99.885 E3.15367
G1 X102.246 Y99.854 E3.16482
G1 X102.567 Y99.845 E3.17123
G1 X102.864 Y99.841 E3.17716
G1 X104.814 Y99.841 E3.21607
G1 X107.439 Y99.804 E3.26846
G1 X109.947 Y99.697 E3.31856
G1 X112.467 Y99.519 E3.36897
G1 X114.982 Y99.27 E3.41941
G1 X117.471 Y98.951 E3.46949
G1 X120.058 Y98.544 E3.52175
G1 X120.569 Y98.453 E3.53211
G1 X120.85 Y98.406 E3.53779
G1 X121.511 Y98.306 E3.55113
G1 X122.804 Y98.191 E3.57704
G1 X123.201 Y98.182 E3.58496
G1 X123.501 Y98.179 E3.59095
G1 X126.72 Y98.179 E3.65519
G1 X127.532 Y98.189 E3.67139
G1 X128.452 Y98.241 E3.68978
G1 X129.363 Y98.373 E3.70815
G1 X130.259 Y98.584 E3.72652
G1 X131.134 Y98.871 E3.7449
G1 X131.98 Y99.233 E3.76326
G1 X132.792 Y99.668 E3.78165
G1 X133.709 Y100.277 E3.80361
G1 X133.841 Y100.375 E3.80689
G1 X134.555 Y100.956 E3.82526
G1 X135.217 Y101.596 E3.84364
G1 X135.821 Y102.291 E3.86201
G1 X136.361 Y103.036 E3.88038
G1 X136.836 Y103.825 E3.89875
G1 X137.24 Y104.652 E3.91712
G1 X137.571 Y105.511 E3.93549
G1 X137.825 Y106.396 E3.95387
G1 X138.003 Y107.3 E3.97225
G1 X138.101 Y108.215 E3.99062
G1 X138.121 Y108.712 E4.00054
G1 X138.133 Y109.441 E4.01509
G1 X138.134 Y112.535 E4.07684
G1 X138.14 Y112.66 E4.07934
G1 X138.141 Y113.508 E4.09626
G1 X138.134 Y113.673 E4.09955
G1 X138.134 Y121.512 E4.25599
G1 X138.139 Y122.285 E4.27142
G1 X138.134 Y122.416 E4.27403
G1 X138.133 Y125.52 E4.33598
G1 X138.124 Y126.214 E4.34983
G1 X138.072 Y127.134 E4.36822
G1 X137.941 Y128.045 E4.38658
G1 X137.731 Y128.941 E4.40495
G1 X137.444 Y129.816 E4.42333
G1 X136.878 Y131.065 E4.45069
G1 X136.814 Y131.185 E4.4534
G1 X136.346 Y131.978 E4.47178
G1 X135.811 Y132.727 E4.49015
G1 X135.213 Y133.427 E4.50852
G1 X134.556 Y134.072 E4.52689
G1 X133.846 Y134.658 E4.54527
G1 X133.088 Y135.18 E4.56363
G1 X132.287 Y135.635 E4.58202
G1 X131.45 Y136.018 E4.60039
G1 X130.582 Y136.327 E4.61877
G1 X129.692 Y136.56 E4.63713
G1 X129.164 Y136.659 E4.64785
G1 X129.078 Y136.673 E4.64959
G1 X128.164 Y136.782 E4.66796
G1 X127.532 Y136.81 E4.68058
G1 X126.7 Y136.821 E4.69719
G1 X123.585 Y136.82 E4.75935
G1 X122.888 Y136.81 E4.77326
G1 X121.643 Y136.719 E4.79817
G1 X121.47 Y136.696 E4.80166
G1 X121.006 Y136.623 E4.81103
G1 X120.785 Y136.584 E4.81551
G1 X118.146 Y136.151 E4.86888
G1 X115.677 Y135.819 E4.91859
G1 X113.137 Y135.55 E4.96956
G1 X110.634 Y135.357 E5.01966
G1 X108.121 Y135.234 E5.06987
G1 X104.923 Y135.178 E5.1337
G1 X103.089 Y135.177 E5.1703
G1 X102.391 Y135.167 E5.18423
G1 X101.472 Y135.114 E5.2026
G1 X100.561 Y134.981 E5.22098
G1 X99.665 Y134.77 E5.23934
G1 X98.791 Y134.482 E5.25771
G1 X97.944 Y134.119 E5.2761
G1 X97.133 Y133.684 E5.29446
G1 X96.363 Y133.18 E5.31283
G1 X95.639 Y132.611 E5.33121
G1 X94.967 Y131.981 E5.34959
G1 X94.352 Y131.296 E5.36796
G1 X93.799 Y130.56 E5.38633
G1 X93.312 Y129.779 E5.4047
G1 X92.895 Y128.958 E5.42307
G1 X92.55 Y128.104 E5.44145
G1 X92.281 Y127.224 E5.45982
G1 X92.089 Y126.323 E5.4782
G1 X91.976 Y125.41 E5.49656
G1 X91.947 Y124.855 E5.50765
G1 X91.938 Y124.523 E5.51428
G1 X91.934 Y124.236 E5.52001
G1 X91.935 Y111.001 E5.78413
G1 X91.944 Y110.312 E5.79788
G1 X91.996 Y109.392 E5.81627
G1 X92.127 Y108.481 E5.83463
G1 X92.338 Y107.585 E5.853
G1 X92.625 Y106.71 E5.87138
G1 X92.987 Y105.864 E5.88974
G1 X93.421 Y105.052 E5.90812
G1 X93.923 Y104.28 E5.92649
G1 X94.491 Y103.556 E5.94486
G1 X95.12 Y102.883 E5.96324
G0 F6000 X95.511 Y103.061
G1 F1200 X96.193 Y102.468 E5.98128
G1 X96.924 Y101.938 E5.9993
G1 X97.698 Y101.474 E6.0173
G1 X98.511 Y101.081 E6.03532
G1 X99.356 Y100.761 E6.05336
G1 X100.226 Y100.517 E6.07139
G1 X101.113 Y100.351 E6.0894
G1 X102.257 Y100.254 E6.11231
G1 X102.578 Y100.245 E6.11872
G1 X102.864 Y100.241 E6.12442
G1 X104.82 Y100.241 E6.16346
G1 X107.426 Y100.204 E6.21547
G1 X109.991 Y100.095 E6.2667
G1 X112.498 Y99.917 E6.31686
G1 X115.039 Y99.666 E6.36781
G1 X117.547 Y99.345 E6.41827
G1 X120.056 Y98.95 E6.46896
G1 X120.64 Y98.846 E6.4808
G1 X120.91 Y98.802 E6.48626
G1 X121.571 Y98.702 E6.4996
G1 X122.815 Y98.591 E6.52452
G1 X123.205 Y98.582 E6.53231
G1 X123.501 Y98.579 E6.53821
G1 X126.72 Y98.579 E6.60245
G1 X127.527 Y98.589 E6.61856
G1 X128.429 Y98.641 E6.63659
G1 X129.322 Y98.773 E6.6546
G1 X130.2 Y98.983 E6.67262
G1 X131.057 Y99.27 E6.69065
G1 X131.884 Y99.631 E6.70866
G1 X132.677 Y100.065 E6.7267
G1 X133.47 Y100.598 E6.74577
G1 X133.602 Y100.696 E6.74905
G1 X134.303 Y101.266 E6.76708
G1 X134.95 Y101.896 E6.7851
G1 X135.539 Y102.58 E6.80311
G1 X136.066 Y103.314 E6.82115
G1 X136.525 Y104.092 E6.83917
G1 X136.914 Y104.907 E6.85719
G1 X137.229 Y105.753 E6.87521
G1 X137.468 Y106.624 E6.89323
G1 X137.629 Y107.513 E6.91126
G1 X137.721 Y108.718 E6.93538
G1 X137.733 Y109.447 E6.94993
G1 X137.734 Y112.482 E7.0105
G1 X137.74 Y112.66 E7.01405
G1 X137.741 Y113.508 E7.03097
G1 X137.734 Y113.67 E7.03421
G1 X137.734 Y121.512 E7.19071
G1 X137.739 Y122.287 E7.20617
G1 X137.734 Y122.416 E7.20875
G1 X137.733 Y125.515 E7.27059
G1 X137.724 Y126.209 E7.28444
G1 X137.672 Y127.111 E7.30247
G1 X137.541 Y128.004 E7.32048
G1 X137.331 Y128.883 E7.33852
G1 X137.045 Y129.739 E7.35653
G1 X136.525 Y130.877 E7.3815
G1 X136.461 Y130.997 E7.38421
G1 X136.001 Y131.774 E7.40223
G1 X135.474 Y132.508 E7.42026
G1 X134.885 Y133.192 E7.43828
G1 X134.237 Y133.821 E7.4563
G1 X133.536 Y134.391 E7.47433
G1 X132.787 Y134.896 E7.49236
G1 X131.997 Y135.333 E7.51037
G1 X131.171 Y135.698 E7.5284
G1 X130.316 Y135.989 E7.54642
G1 X129.1 Y136.264 E7.5713
G1 X129.014 Y136.278 E7.57304
G1 X128.117 Y136.384 E7.59106
G1 X127.526 Y136.41 E7.60287
G1 X126.7 Y136.421 E7.61935
G1 X123.591 Y136.42 E7.6814
G1 X122.894 Y136.41 E7.69531
G1 X121.696 Y136.322 E7.71928
G1 X121.523 Y136.299 E7.72276
G1 X121.076 Y136.23 E7.73179
G1 X120.774 Y136.176 E7.73791
G1 X118.232 Y135.76 E7.78931
G1 X115.701 Y135.419 E7.84028
G1 X113.209 Y135.156 E7.89029
G1 X110.648 Y134.958 E7.94155
G1 X108.116 Y134.834 E7.99213
G1 X104.93 Y134.778 E8.05572
G1 X103.095 Y134.777 E8.09234
G1 X102.397 Y134.767 E8.10627
G1 X101.495 Y134.714 E8.12431
G1 X100.602 Y134.582 E8.14232
G1 X99.724 Y134.371 E8.16034
G1 X98.868 Y134.083 E8.17836
G1 X98.041 Y133.721 E8.19638
G1 X97.249 Y133.286 E8.21441
G1 X96.498 Y132.784 E8.23244
G1 X95.795 Y132.217 E8.25046
G1 X95.145 Y131.59 E8.26849
G1 X94.553 Y130.908 E8.28651
G1 X94.023 Y130.177 E8.30453
G1 X93.561 Y129.401 E8.32255
G1 X93.168 Y128.588 E8.34057
G1 X92.85 Y127.743 E8.35859
G1 X92.607 Y126.873 E8.37661
G1 X92.442 Y125.985 E8.39464
G1 X92.347 Y124.844 E8.41749
G1 X92.338 Y124.512 E8.42411
G1 X92.334 Y124.236 E8.42962
G1 X92.335 Y111.006 E8.69364
G1 X92.344 Y110.317 E8.70739
G1 X92.396 Y109.415 E8.72542
G1 X92.527 Y108.522 E8.74343
G1 X92.737 Y107.643 E8.76147
G1 X93.023 Y106.787 E8.77948
G1 X93.385 Y105.959 E8.79751
G1 X93.818 Y105.167 E8.81553
G1 X94.319 Y104.416 E8.83354
G1 X94.885 Y103.712 E8.85157
G1 X95.511 Y103.061 E8.86959
G1 F2700 E3.86959
;MESH:Midi Connector WithMagnet 8mm v1.stl
G0 F6000 X102.947 Y109.776
G0 X102.948 Y110.855
G0 X103.735 Y114.438
G0 X106.562 Y112.979
G0 X107.468 Y112.686
G0 X108.41 Y112.571
G0 X109.358 Y112.639
G0 X110.281 Y112.889
G0 X111.134 Y113.31
G0 X111.896 Y113.891
G0 X112.53 Y114.604
G0 X113.015 Y115.428
G0 X114.145 Y118.328
G0 X111.051 Y122.592
G0 X105.779 Y122.468
G0 X103.736 Y120.579
G0 X103.716 Y123.396
G0 X123.716 Y123.396
G0 X123.716 Y125.039
G0 X126.352 Y125.039
G0 X126.336 Y120.578
G0 X122.151 Y122.676
G0 X121.207 Y122.599
;TYPE:WALL-INNER
G1 F2700 E8.86959
G1 F1200 X121.699 Y122.607 E8.87941
G1 X122.19 Y122.568 E8.88924
G1 X122.667 Y122.483 E8.89891
G1 X123.147 Y122.348 E8.90886
G1 X123.606 Y122.17 E8.91869
G1 X124.047 Y121.948 E8.92854
G1 X124.463 Y121.685 E8.93836
G1 X124.853 Y121.382 E8.94822
G1 X125.211 Y121.044 E8.95804
G1 X125.535 Y120.672 E8.96789
G1 X125.821 Y120.271 E8.97771
G1 X126.068 Y119.846 E8.98752
G1 X126.272 Y119.396 E8.99738
G1 X126.432 Y118.931 E9.0072
G1 X126.547 Y118.451 E9.01705
G1 X126.614 Y117.963 E9.02688
G1 X126.634 Y117.47 E9.03672
G1 X126.606 Y116.977 E9.04658
G1 X126.531 Y116.491 E9.05639
G1 X126.41 Y116.013 E9.06623
G1 X126.244 Y115.549 E9.07607
G1 X126.032 Y115.102 E9.08594
G1 X125.777 Y114.681 E9.09576
G1 X125.485 Y114.284 E9.1056
G1 X125.155 Y113.918 E9.11543
G1 X124.793 Y113.585 E9.12525
G1 X124.398 Y113.288 E9.13511
G1 X123.978 Y113.033 E9.14491
G1 X123.535 Y112.818 E9.15474
G1 X123.069 Y112.645 E9.16466
G1 X122.592 Y112.519 E9.17451
G1 X122.104 Y112.441 E9.18437
G1 X121.617 Y112.41 E9.19411
G1 X121.122 Y112.424 E9.20399
G1 X120.644 Y112.486 E9.21361
G1 X120.153 Y112.598 E9.22366
G1 X119.687 Y112.754 E9.23346
G1 X119.238 Y112.954 E9.24327
G1 X118.809 Y113.198 E9.25312
G1 X118.405 Y113.481 E9.26297
G1 X118.032 Y113.801 E9.27277
G1 X117.689 Y114.156 E9.28262
G1 X117.384 Y114.543 E9.29246
G1 X117.117 Y114.958 E9.30231
G1 X116.891 Y115.396 E9.31214
G1 X116.71 Y115.853 E9.32195
G1 X116.572 Y116.327 E9.3318
G1 X116.481 Y116.812 E9.34165
G1 X116.437 Y117.302 E9.35147
G1 X116.441 Y117.796 E9.36133
G1 X116.492 Y118.284 E9.37112
G1 X116.591 Y118.768 E9.38098
G1 X116.736 Y119.239 E9.39081
G1 X116.924 Y119.694 E9.40064
G1 X117.156 Y120.129 E9.41047
G1 X117.43 Y120.539 E9.42032
G1 X117.742 Y120.92 E9.43014
G1 X118.09 Y121.27 E9.43999
G1 X118.468 Y121.585 E9.44981
G1 X118.876 Y121.862 E9.45965
G1 X119.31 Y122.099 E9.46952
G1 X119.765 Y122.292 E9.47938
G1 X120.235 Y122.442 E9.48923
G1 X120.718 Y122.543 E9.49908
G1 X121.207 Y122.599 E9.5089
G0 F6000 X121.233 Y122.199
;TYPE:WALL-OUTER
G1 F1200 X121.687 Y122.207 E9.51796
G1 X122.139 Y122.171 E9.52701
G1 X122.577 Y122.093 E9.53589
G1 X123.02 Y121.968 E9.54507
G1 X123.443 Y121.804 E9.55413
G1 X123.85 Y121.599 E9.56322
G1 X124.233 Y121.357 E9.57226
G1 X124.592 Y121.078 E9.58134
G1 X124.922 Y120.766 E9.5904
G1 X125.221 Y120.424 E9.59946
G1 X125.484 Y120.054 E9.60852
G1 X125.712 Y119.662 E9.61757
G1 X125.9 Y119.248 E9.62665
G1 X126.047 Y118.819 E9.6357
G1 X126.153 Y118.377 E9.64477
G1 X126.215 Y117.927 E9.65383
G1 X126.234 Y117.473 E9.6629
G1 X126.208 Y117.019 E9.67198
G1 X126.139 Y116.571 E9.68102
G1 X126.027 Y116.13 E9.6901
G1 X125.874 Y115.703 E9.69915
G1 X125.679 Y115.292 E9.70823
G1 X125.444 Y114.903 E9.7173
G1 X125.175 Y114.537 E9.72637
G1 X124.871 Y114.2 E9.73542
G1 X124.537 Y113.893 E9.74448
G1 X124.173 Y113.62 E9.75356
G1 X123.786 Y113.384 E9.7626
G1 X123.378 Y113.186 E9.77165
G1 X122.948 Y113.027 E9.7808
G1 X122.509 Y112.911 E9.78986
G1 X122.059 Y112.839 E9.79896
G1 X121.61 Y112.81 E9.80794
G1 X121.154 Y112.823 E9.81704
G1 X120.715 Y112.88 E9.82587
G1 X120.261 Y112.984 E9.83517
G1 X119.832 Y113.127 E9.84419
G1 X119.419 Y113.311 E9.85321
G1 X119.023 Y113.536 E9.8623
G1 X118.651 Y113.797 E9.87137
G1 X118.307 Y114.092 E9.88042
G1 X117.991 Y114.419 E9.88949
G1 X117.71 Y114.776 E9.89856
G1 X117.464 Y115.158 E9.90762
G1 X117.256 Y115.562 E9.91669
G1 X117.089 Y115.983 E9.92573
G1 X116.962 Y116.42 E9.93481
G1 X116.878 Y116.867 E9.94389
G1 X116.837 Y117.318 E9.95293
G1 X116.841 Y117.773 E9.96201
G1 X116.888 Y118.223 E9.97104
G1 X116.979 Y118.669 E9.98012
G1 X117.113 Y119.104 E9.9892
G1 X117.286 Y119.523 E9.99825
G1 X117.5 Y119.923 E10.0073
G1 X117.752 Y120.301 E10.01637
G1 X118.039 Y120.652 E10.02542
G1 X118.36 Y120.975 E10.0345
G1 X118.709 Y121.265 E10.04356
G1 X119.085 Y121.52 E10.05263
G1 X119.485 Y121.739 E10.06173
G1 X119.904 Y121.917 E10.07081
G1 X120.337 Y122.055 E10.07988
G1 X120.782 Y122.148 E10.08895
G1 X121.233 Y122.199 E10.09801
G0 F6000 X121.205 Y122.638
